;Generated by Cura LulzBot Edition GCodeWriter Version: 2.6.66
;FLAVOR:RepRap
;TIME:12766
;Filament used: 8.38606m
;Layer height: 0.378
;Generated with Cura_SteamEngine 2.6.66
;This G-Code has been generated specifically for the LulzBot Mini with Aerostruder
G26 ; clear potential 'probe fail' condition
G21 ; set units to Millimetres
M107 ; disable fans
G90 ; absolute positioning
M82 ; set extruder to absolute mode
G92 E0 ; set extruder position to 0
M140 S115 ; start bed heating up
G28 ; home all axes
G0 X0 Y187 Z156 F200 ; move away from endstops
M109 R170 ; soften filament before retraction
G1 E-15 F75 ; retract filament
M109 R170 ; wait for extruder to reach wiping temp
G1 X45 Y173 F11520 ; move above wiper pad
G1 Z0 F1200 ; push nozzle into wiper
G1 X42 Y173 Z-.5 F4000 ; wiping
G1 X52 Y171 Z-.5 F4000 ; wiping
G1 X42 Y173 Z0 F4000 ; wiping
G1 X52 Y171 F4000 ; wiping
G1 X42 Y173 F4000 ; wiping
G1 X52 Y171 F4000 ; wiping
G1 X42 Y173 F4000 ; wiping
G1 X52 Y171 F4000 ; wiping
G1 X57 Y173 F4000 ; wiping
G1 X77 Y171 F4000 ; wiping
G1 X57 Y173 F4000 ; wiping
G1 X77 Y171 F4000 ; wiping
G1 X57 Y173 F4000 ; wiping
G1 X87 Y171 F4000 ; wiping
G1 X77 Y173 F4000 ; wiping
G1 X97 Y171 F4000 ; wiping
G1 X77 Y173 F4000 ; wiping
G1 X97 Y171 F4000 ; wiping
G1 X77 Y173 F4000 ; wiping
G1 X97 Y171 F4000 ; wiping
G1 X107 Y173 F4000 ; wiping
G1 X97 Y171 F4000 ; wiping
G1 X107 Y173 F4000 ; wiping
G1 X97 Y171 F4000 ; wiping
G1 X107 Y173 F4000 ; wiping
G1 X112 Y171 Z-0.5 F1000 ; wiping
G1 Z10 ; raise extruder
G28 X0 Y0 ; home X and Y
G0 X0 Y187 F200 ; move away from endstops
M109 R170 ; wait for extruder to reach probe temp
M204 S300 ; set probing acceleration
G29 ; start auto-leveling sequence
M204 S2000 ; restore standard acceleration
G28 X0 Y0 ; re-home to account for build variance of earlier mini builds
G0 X0 Y187 F200 ; move away from endstops
G0 Y152 F4000 ; move in front of wiper pad
G4 S1 ; pause
M400 ; wait for moves to finish
M117 Heating... ; progress indicator message on LCD
M109 R245 ; wait for extruder to reach printing temp
M190 S116 ; wait for bed to reach printing temp
G1 Z2 E0 F75 ; prime tiny bit of filament into the nozzle
M117 Mini Printing... ; progress indicator message on LCD


M221 S100
;LAYER_COUNT:169
;LAYER:0
M107
M204 S1000
M205 X10
G0 F2250 X21.579 Y27.732 Z0.42
;TYPE:SKIRT
G1 F900 X22.014 Y27.46 E0.02027
G1 X22.486 Y27.259 E0.04053
G1 X22.984 Y27.133 E0.06082
G1 X23.539 Y27.086 E0.08283
G1 X68.55 Y27.077 E1.86086
G1 X68.669 Y27.079 E1.86556
G1 X71.528 Y27.181 E1.97857
G1 X71.567 Y27.183 E1.98011
G1 X73.573 Y27.278 E2.05944
G1 X79.068 Y27.306 E2.27651
G1 X84.536 Y27.026 E2.49279
G1 X90.025 Y26.43 E2.71089
G1 X93.746 Y25.895 E2.85939
G1 X94.217 Y25.861 E2.87804
G1 X120.334 Y25.871 E3.90972
G1 X120.745 Y25.897 E3.92599
G1 X121.961 Y26.05 E3.9744
G1 X122.464 Y26.153 E3.99468
G1 X122.795 Y26.268 E4.00853
G1 X123.957 Y26.742 E4.0581
G1 X124.416 Y26.973 E4.0784
G1 X124.707 Y27.17 E4.09228
G1 X125.671 Y27.902 E4.14009
G1 X126.054 Y28.243 E4.16035
G1 X126.28 Y28.504 E4.17399
G1 X127.035 Y29.475 E4.22258
G1 X127.318 Y29.904 E4.24288
G1 X127.469 Y30.214 E4.2565
G1 X127.962 Y31.378 E4.30643
G1 X128.169 Y32.072 E4.33504
G1 X129.01 Y36.675 E4.51988
G1 X129.597 Y39.307 E4.6264
G1 X130.271 Y41.979 E4.73526
G1 X131.834 Y47.221 E4.95134
G1 X133.566 Y52.058 E5.15429
G1 X133.701 Y52.554 E5.1746
G1 X133.759 Y53.171 E5.19908
G1 X133.76 Y69.775 E5.85497
G1 X133.702 Y70.392 E5.87945
G1 X132.492 Y76.753 E6.13523
G1 X131.798 Y82.157 E6.35045
G1 X131.409 Y87.623 E6.56692
G1 X131.328 Y93.099 E6.78326
G1 X131.558 Y98.554 E6.99893
G1 X132.098 Y104.006 E7.21535
G1 X132.942 Y109.408 E7.43133
G1 X133.693 Y113.098 E7.58008
G1 X133.759 Y113.756 E7.6062
G1 X133.759 Y123.612 E7.99554
G1 X133.719 Y124.124 E8.01583
G1 X133.6 Y124.623 E8.03609
G1 X133.405 Y125.098 E8.05637
G1 X133.139 Y125.537 E8.07665
G1 X132.808 Y125.93 E8.09695
G1 X132.42 Y126.266 E8.11722
G1 X131.985 Y126.538 E8.13749
G1 X131.512 Y126.739 E8.15779
G1 X131.015 Y126.865 E8.17804
G1 X130.459 Y126.912 E8.20008
G1 X84.502 Y126.91 E10.01549
G1 X84.347 Y126.906 E10.02161
G1 X80.431 Y126.722 E10.17647
G1 X74.932 Y126.694 E10.3937
G1 X69.464 Y126.974 E10.60998
G1 X63.984 Y127.569 E10.82772
G1 X60.272 Y128.105 E10.97587
G1 X59.799 Y128.139 E10.99461
G1 X33.666 Y128.129 E12.02692
G1 X33.255 Y128.103 E12.04319
G1 X32.039 Y127.95 E12.0916
G1 X31.536 Y127.847 E12.11188
G1 X31.205 Y127.732 E12.12572
G1 X30.043 Y127.258 E12.1753
G1 X29.584 Y127.027 E12.19559
G1 X29.293 Y126.83 E12.20948
G1 X28.329 Y126.098 E12.25729
G1 X27.946 Y125.757 E12.27755
G1 X27.72 Y125.496 E12.29118
G1 X26.965 Y124.525 E12.33977
G1 X26.682 Y124.096 E12.36007
G1 X26.484 Y123.668 E12.3787
G1 X25.941 Y122.234 E12.43927
G1 X25.781 Y121.658 E12.46289
G1 X24.99 Y117.325 E12.63688
G1 X24.403 Y114.693 E12.7434
G1 X23.729 Y112.021 E12.85226
G1 X22.166 Y106.779 E13.06834
G1 X20.434 Y101.942 E13.27129
G1 X20.299 Y101.446 E13.2916
G1 X20.241 Y100.829 E13.31608
G1 X20.241 Y84.218 E13.97225
G1 X20.308 Y83.556 E13.99853
G1 X21.05 Y79.933 E14.14462
G1 X21.505 Y77.27 E14.25134
G1 X22.202 Y71.843 E14.46748
G1 X22.591 Y66.377 E14.68394
G1 X22.672 Y60.901 E14.90028
G1 X22.442 Y55.446 E15.11595
G1 X21.902 Y49.994 E15.33237
G1 X21.058 Y44.592 E15.54835
G1 X20.307 Y40.902 E15.6971
G1 X20.241 Y40.244 E15.72323
G1 X20.24 Y30.386 E16.11264
G1 X20.28 Y29.874 E16.13293
G1 X20.399 Y29.375 E16.15319
G1 X20.594 Y28.9 E16.17347
G1 X20.86 Y28.461 E16.19375
G1 X21.191 Y28.068 E16.21405
G1 X21.579 Y27.732 E16.23432
G1 F420 E15.23432
G0 F2250 X24.73 Y29.712
G0 X24.731 Y31.577
;TYPE:WALL-INNER
G1 F420 E16.23432
G1 F900 X32.437 Y31.576 E16.43726
G1 X32.437 Y69.109 E17.42568
G1 X32.126 Y69.346 E17.43598
G1 X31.981 Y69.497 E17.44149
G1 X31.359 Y70.308 E17.46841
G1 X31.258 Y70.493 E17.47396
G1 X30.874 Y71.421 E17.50041
G1 X30.821 Y71.625 E17.50596
G1 X30.69 Y72.623 E17.53246
G1 X30.689 Y72.83 E17.53792
G1 X30.819 Y73.838 E17.56468
G1 X30.873 Y74.046 E17.57034
G1 X31.321 Y75.109 E17.60072
G1 X31.977 Y75.965 E17.62912
G1 X32.124 Y76.118 E17.63471
G1 X32.437 Y76.357 E17.64508
G1 X32.437 Y123.39 E18.88368
G1 X31.871 Y123.156 E18.89981
G1 X31.146 Y122.599 E18.92389
G1 X30.589 Y121.874 E18.94797
G1 X30.236 Y121.02 E18.9723
G1 X30.105 Y120.028 E18.99865
G1 X30.105 Y99.64 E19.53557
G1 X24.731 Y99.639 E19.67709
G1 X24.73 Y84.716 E20.07008
G1 X30.105 Y79.34 E20.27028
G1 X30.106 Y45.125 E21.17133
G1 X24.731 Y39.749 E21.37153
G1 X24.731 Y31.577 E21.58673
G0 F2250 X24.331 Y31.177
G1 F900 X32.837 Y31.176 E21.81074
G1 X32.837 Y69.307 E22.81491
G1 X32.393 Y69.646 E22.82962
G1 X32.285 Y69.758 E22.83372
G1 X31.695 Y70.527 E22.85924
G1 X31.62 Y70.665 E22.86338
G1 X31.254 Y71.549 E22.88858
G1 X31.214 Y71.702 E22.89274
G1 X31.09 Y72.65 E22.91792
G1 X31.089 Y72.805 E22.922
G1 X31.213 Y73.762 E22.94741
G1 X31.253 Y73.918 E22.95165
G1 X31.67 Y74.906 E22.9799
G1 X32.281 Y75.704 E23.00636
G1 X32.391 Y75.819 E23.01055
G1 X32.837 Y76.159 E23.02532
G1 X32.837 Y123.928 E24.28331
G1 X32.62 Y123.899 E24.28907
G1 X31.673 Y123.507 E24.31607
G1 X30.861 Y122.884 E24.34302
G1 X30.238 Y122.072 E24.36997
G1 X29.846 Y121.125 E24.39696
G1 X29.705 Y120.057 E24.42533
G1 X29.705 Y100.04 E24.95248
G1 X24.331 Y100.039 E25.094
G1 X24.33 Y84.55 E25.5019
G1 X29.705 Y79.174 E25.7021
G1 X29.706 Y45.291 E26.5944
G1 X24.331 Y39.915 E26.7946
G1 X24.331 Y31.177 E27.02471
G1 F420 E26.02471
G0 F2250 X22.866 Y31.177
G0 X22.87 Y40.521
G0 X28.245 Y45.896
G0 X28.29 Y52.75
G0 X32.93 Y71.204
G0 X32.95 Y71.281
G0 X33.922 Y75.147
G0 X33.337 Y75.912
;TYPE:WALL-OUTER
G1 F420 E27.02471
G1 F900 X33.337 Y124.498 E28.94396
G1 X32.491 Y124.387 E28.97767
G1 X31.421 Y123.944 E29.02342
G1 X30.504 Y123.241 E29.06906
G1 X29.801 Y122.324 E29.1147
G1 X29.358 Y121.254 E29.16045
G1 X29.205 Y120.092 E29.20675
G1 X29.205 Y100.54 E29.97909
G1 X23.831 Y100.539 E30.19138
G1 X23.83 Y84.342 E30.83119
G1 X29.205 Y78.967 E31.13147
G1 X29.206 Y45.498 E32.45356
G1 X23.831 Y40.123 E32.75384
G1 X23.831 Y30.677 E33.12697
G1 X33.337 Y30.676 E33.50248
G1 X33.337 Y69.554 E35.03825
G1 X32.726 Y70.021 E35.06863
G1 X32.664 Y70.085 E35.07215
G1 X32.116 Y70.8 E35.10773
G1 X32.072 Y70.881 E35.11137
G1 X31.729 Y71.708 E35.14674
G1 X31.706 Y71.797 E35.15037
G1 X31.59 Y72.685 E35.18575
G1 X31.589 Y72.775 E35.1893
G1 X31.705 Y73.668 E35.22487
G1 X31.728 Y73.758 E35.22854
G1 X32.106 Y74.653 E35.26692
G1 X32.661 Y75.378 E35.30299
G1 X32.725 Y75.445 E35.30665
G1 X33.337 Y75.912 E35.33706
G0 F2250 X33.337 Y76.162
G0 X32.386 Y76.8
;TYPE:SKIN
G1 F900 X30.155 Y76.8 E35.42519
G1 X30.055 Y76.8
G0 F2250 X30.155 Y76.2
G1 F900 X32.148 Y76.2 E35.50391
G1 X32.248 Y76.2
G0 F2250 X31.633 Y75.6
G1 F900 X30.155 Y75.6 E35.5623
G1 X30.055 Y75.6
G0 F2250 X30.155 Y75
G1 F900 X31.22 Y75 E35.60437
G0 F2250 X30.967 Y74.4
G1 F900 X30.155 Y74.4 E35.63644
G0 F2250 X30.459 Y73.8
G1 F900 X30.42 Y73.2 E35.65893
G1 X30.398 Y72.6 E35.67901
G1 X30.437 Y72 E35.69975
G0 F2250 X30.155 Y71.4
G1 F900 X30.827 Y71.4 E35.7263
G0 F2250 X31.075 Y70.8
G1 F900 X30.155 Y70.8 E35.76264
G0 F2250 X30.155 Y70.2
G1 F900 X31.377 Y70.2 E35.81091
G1 X31.477 Y70.2
G0 F2250 X31.837 Y69.6
G1 F900 X30.155 Y69.6 E35.87735
G1 X30.055 Y69.6
G0 F2250 X30.155 Y69
G1 F900 X32.386 Y69 E35.96548
G1 X32.486 Y69
G0 F2250 X32.386 Y68.4
G1 F900 X30.155 Y68.4 E36.05361
G1 X30.055 Y68.4
G0 F2250 X30.155 Y67.8
G1 F900 X32.386 Y67.8 E36.14174
G1 X32.486 Y67.8
G0 F2250 X32.386 Y67.2
G1 F900 X30.155 Y67.2 E36.22987
G1 X30.055 Y67.2
G0 F2250 X30.155 Y66.6
G1 F900 X32.386 Y66.6 E36.318
G1 X32.486 Y66.6
G0 F2250 X32.386 Y66
G1 F900 X30.155 Y66 E36.40613
G1 X30.055 Y66
G0 F2250 X30.155 Y65.4
G1 F900 X32.386 Y65.4 E36.49426
G1 X32.486 Y65.4
G0 F2250 X32.386 Y64.8
G1 F900 X30.155 Y64.8 E36.58239
G1 X30.055 Y64.8
G0 F2250 X30.155 Y64.2
G1 F900 X32.386 Y64.2 E36.67052
G1 X32.486 Y64.2
G0 F2250 X32.386 Y63.6
G1 F900 X30.155 Y63.6 E36.75865
G1 X30.055 Y63.6
G0 F2250 X30.155 Y63
G1 F900 X32.386 Y63 E36.84678
G1 X32.486 Y63
G0 F2250 X32.386 Y62.4
G1 F900 X30.155 Y62.4 E36.93491
G1 X30.055 Y62.4
G0 F2250 X30.155 Y61.8
G1 F900 X32.386 Y61.8 E37.02304
G1 X32.486 Y61.8
G0 F2250 X32.386 Y61.2
G1 F900 X30.155 Y61.2 E37.11117
G1 X30.055 Y61.2
G0 F2250 X30.155 Y60.6
G1 F900 X32.386 Y60.6 E37.19929
G1 X32.486 Y60.6
G0 F2250 X32.386 Y60
G1 F900 X30.155 Y60 E37.28742
G1 X30.055 Y60
G0 F2250 X30.155 Y59.4
G1 F900 X32.386 Y59.4 E37.37555
G1 X32.486 Y59.4
G0 F2250 X32.386 Y58.8
G1 F900 X30.155 Y58.8 E37.46368
G1 X30.055 Y58.8
G0 F2250 X30.155 Y58.2
G1 F900 X32.386 Y58.2 E37.55181
G1 X32.486 Y58.2
G0 F2250 X32.386 Y57.6
G1 F900 X30.155 Y57.6 E37.63994
G1 X30.055 Y57.6
G0 F2250 X30.155 Y57
G1 F900 X32.386 Y57 E37.72807
G1 X32.486 Y57
G0 F2250 X32.386 Y56.4
G1 F900 X30.155 Y56.4 E37.8162
G1 X30.055 Y56.4
G0 F2250 X30.155 Y55.8
G1 F900 X32.386 Y55.8 E37.90433
G1 X32.486 Y55.8
G0 F2250 X32.386 Y55.2
G1 F900 X30.155 Y55.2 E37.99246
G1 X30.055 Y55.2
G0 F2250 X30.155 Y54.6
G1 F900 X32.386 Y54.6 E38.08059
G1 X32.486 Y54.6
G0 F2250 X32.386 Y54
G1 F900 X30.155 Y54 E38.16872
G1 X30.055 Y54
G0 F2250 X30.155 Y53.4
G1 F900 X32.386 Y53.4 E38.25685
G1 X32.486 Y53.4
G0 F2250 X32.386 Y52.8
G1 F900 X30.155 Y52.8 E38.34498
G1 X30.055 Y52.8
G0 F2250 X30.155 Y52.2
G1 F900 X32.386 Y52.2 E38.43311
G1 X32.486 Y52.2
G0 F2250 X32.386 Y51.6
G1 F900 X30.155 Y51.6 E38.52123
G1 X30.055 Y51.6
G0 F2250 X30.155 Y51
G1 F900 X32.386 Y51 E38.60936
G1 X32.486 Y51
G0 F2250 X32.386 Y50.4
G1 F900 X30.155 Y50.4 E38.69749
G1 X30.055 Y50.4
G0 F2250 X30.155 Y49.8
G1 F900 X32.386 Y49.8 E38.78562
G1 X32.486 Y49.8
G0 F2250 X32.386 Y49.2
G1 F900 X30.155 Y49.2 E38.87375
G1 X30.055 Y49.2
G0 F2250 X30.155 Y48.6
G1 F900 X32.386 Y48.6 E38.96188
G1 X32.486 Y48.6
G0 F2250 X32.386 Y48
G1 F900 X30.155 Y48 E39.05001
G1 X30.055 Y48
G0 F2250 X30.155 Y47.4
G1 F900 X32.386 Y47.4 E39.13814
G1 X32.486 Y47.4
G0 F2250 X32.386 Y46.8
G1 F900 X30.155 Y46.8 E39.22627
G1 X30.055 Y46.8
G0 F2250 X30.155 Y46.2
G1 F900 X32.386 Y46.2 E39.3144
G1 X32.486 Y46.2
G0 F2250 X32.386 Y45.6
G1 F900 X30.155 Y45.6 E39.40253
G1 X30.055 Y45.6
G0 F2250 X30.051 Y45
G1 F900 X32.386 Y45 E39.49477
G1 X32.486 Y45
G0 F2250 X32.386 Y44.4
G1 F900 X29.451 Y44.4 E39.6107
G1 X29.351 Y44.4
G0 F2250 X28.851 Y43.8
G1 F900 X32.386 Y43.8 E39.75034
G1 X32.486 Y43.8
G0 F2250 X32.386 Y43.2
G1 F900 X28.251 Y43.2 E39.91369
G1 X28.151 Y43.2
G0 F2250 X27.651 Y42.6
G1 F900 X32.386 Y42.6 E40.10073
G1 X32.486 Y42.6
G0 F2250 X32.386 Y42
G1 F900 X27.051 Y42 E40.31147
G1 X26.951 Y42
G0 F2250 X26.451 Y41.4
G1 F900 X32.386 Y41.4 E40.54592
G1 X32.486 Y41.4
G0 F2250 X32.386 Y40.8
G1 F900 X25.851 Y40.8 E40.80406
G1 X25.751 Y40.8
G0 F2250 X25.251 Y40.2
G1 F900 X32.386 Y40.2 E41.08591
G1 X32.486 Y40.2
G0 F2250 X32.386 Y39.6
G1 F900 X24.78 Y39.6 E41.38637
G1 X24.68 Y39.6
G0 F2250 X24.78 Y39
G1 F900 X32.386 Y39 E41.68682
G1 X32.486 Y39
G0 F2250 X32.386 Y38.4
G1 F900 X24.78 Y38.4 E41.98727
G1 X24.68 Y38.4
G0 F2250 X24.78 Y37.8
G1 F900 X32.386 Y37.8 E42.28773
G1 X32.486 Y37.8
G0 F2250 X32.386 Y37.2
G1 F900 X24.78 Y37.2 E42.58818
G1 X24.68 Y37.2
G0 F2250 X24.78 Y36.6
G1 F900 X32.386 Y36.6 E42.88863
G1 X32.486 Y36.6
G0 F2250 X32.386 Y36
G1 F900 X24.78 Y36 E43.18909
G1 X24.68 Y36
G0 F2250 X24.78 Y35.4
G1 F900 X32.386 Y35.4 E43.48954
G1 X32.486 Y35.4
G0 F2250 X32.386 Y34.8
G1 F900 X24.78 Y34.8 E43.78999
G1 X24.68 Y34.8
G0 F2250 X24.78 Y34.2
G1 F900 X32.386 Y34.2 E44.09045
G1 X32.486 Y34.2
G0 F2250 X32.386 Y33.6
G1 F900 X24.78 Y33.6 E44.3909
G1 X24.68 Y33.6
G0 F2250 X24.78 Y33
G1 F900 X32.386 Y33 E44.69135
G1 X32.486 Y33
G0 F2250 X32.386 Y32.4
G1 F900 X24.78 Y32.4 E44.99181
G1 X24.68 Y32.4
G0 F2250 X24.78 Y31.8
G1 F900 X32.386 Y31.8 E45.29226
G1 X32.486 Y31.8
G1 F420 E44.29226
G0 F2250 X32.485 Y29.712
G0 X32.484 Y29.71
G0 X32.487 Y29.79
G0 X33.869 Y70.269
G0 X33.871 Y70.349
G0 X34.039 Y75.236
G0 X32.386 Y77.4
G1 F420 E45.29226
G1 F900 X30.155 Y77.4 E45.38039
G1 X30.055 Y77.4
G0 F2250 X30.155 Y78
G1 F900 X32.386 Y78 E45.46852
G1 X32.486 Y78
G0 F2250 X32.386 Y78.6
G1 F900 X30.155 Y78.6 E45.55665
G1 X30.055 Y78.6
G0 F2250 X30.155 Y79.2
G1 F900 X32.386 Y79.2 E45.64478
G1 X32.486 Y79.2
G0 F2250 X32.386 Y79.8
G1 F900 X29.715 Y79.8 E45.75029
G1 X29.615 Y79.8
G0 F2250 X29.115 Y80.4
G1 F900 X32.386 Y80.4 E45.8795
G1 X32.486 Y80.4
G0 F2250 X32.386 Y81
G1 F900 X28.515 Y81 E46.03241
G1 X28.415 Y81
G0 F2250 X27.915 Y81.6
G1 F900 X32.386 Y81.6 E46.20903
G1 X32.486 Y81.6
G0 F2250 X32.386 Y82.2
G1 F900 X27.315 Y82.2 E46.40934
G1 X27.215 Y82.2
G0 F2250 X26.715 Y82.8
G1 F900 X32.386 Y82.8 E46.63336
G1 X32.486 Y82.8
G0 F2250 X32.386 Y83.4
G1 F900 X26.115 Y83.4 E46.88108
G1 X26.015 Y83.4
G0 F2250 X25.515 Y84
G1 F900 X32.386 Y84 E47.1525
G1 X32.486 Y84
G0 F2250 X32.386 Y84.6
G1 F900 X24.915 Y84.6 E47.44762
G1 X24.815 Y84.6
G0 F2250 X24.779 Y85.2
G1 F900 X32.386 Y85.2 E47.74811
G1 X32.486 Y85.2
G0 F2250 X32.386 Y85.8
G1 F900 X24.779 Y85.8 E48.0486
G1 X24.679 Y85.8
G0 F2250 X24.779 Y86.4
G1 F900 X32.386 Y86.4 E48.3491
G1 X32.486 Y86.4
G0 F2250 X32.386 Y87
G1 F900 X24.779 Y87 E48.64959
G1 X24.679 Y87
G0 F2250 X24.779 Y87.6
G1 F900 X32.386 Y87.6 E48.95008
G1 X32.486 Y87.6
G0 F2250 X32.386 Y88.2
G1 F900 X24.779 Y88.2 E49.25058
G1 X24.679 Y88.2
G0 F2250 X24.779 Y88.8
G1 F900 X32.386 Y88.8 E49.55107
G1 X32.486 Y88.8
G0 F2250 X32.386 Y89.4
G1 F900 X24.779 Y89.4 E49.85156
G1 X24.679 Y89.4
G0 F2250 X24.779 Y90
G1 F900 X32.386 Y90 E50.15206
G1 X32.486 Y90
G0 F2250 X32.386 Y90.6
G1 F900 X24.779 Y90.6 E50.45255
G1 X24.679 Y90.6
G0 F2250 X24.779 Y91.2
G1 F900 X32.386 Y91.2 E50.75304
G1 X32.486 Y91.2
G0 F2250 X32.386 Y91.8
G1 F900 X24.779 Y91.8 E51.05353
G1 X24.679 Y91.8
G0 F2250 X24.779 Y92.4
G1 F900 X32.386 Y92.4 E51.35403
G1 X32.486 Y92.4
G0 F2250 X32.386 Y93
G1 F900 X24.779 Y93 E51.65452
G1 X24.679 Y93
G0 F2250 X24.779 Y93.6
G1 F900 X32.386 Y93.6 E51.95501
G1 X32.486 Y93.6
G0 F2250 X32.386 Y94.2
G1 F900 X24.779 Y94.2 E52.25551
G1 X24.679 Y94.2
G0 F2250 X24.779 Y94.8
G1 F900 X32.386 Y94.8 E52.556
G1 X32.486 Y94.8
G0 F2250 X32.386 Y95.4
G1 F900 X24.779 Y95.4 E52.85649
G1 X24.679 Y95.4
G0 F2250 X24.779 Y96
G1 F900 X32.386 Y96 E53.15699
G1 X32.486 Y96
G0 F2250 X32.386 Y96.6
G1 F900 X24.779 Y96.6 E53.45748
