;Generated by Cura LulzBot Edition GCodeWriter Version: 2.6.69
;FLAVOR:RepRap
;TIME:12511
;Filament used: 8.32504m
;Layer height: 0.378
;Generated with Cura_SteamEngine 2.6.69
;This G-Code has been generated specifically for the LulzBot Mini with Aerostruder
G26 ; clear potential 'probe fail' condition
G21 ; set units to Millimetres
M107 ; disable fans
G90 ; absolute positioning
M82 ; set extruder to absolute mode
G92 E0 ; set extruder position to 0
M140 S115 ; start bed heating up
G28 ; home all axes
G0 X0 Y187 Z156 F200 ; move away from endstops
M109 R170 ; soften filament before retraction
G1 E-15 F75 ; retract filament
M109 R170 ; wait for extruder to reach wiping temp
G1 X45 Y173 F11520 ; move above wiper pad
G1 Z0 F1200 ; push nozzle into wiper
G1 X42 Y173 Z-.5 F4000 ; wiping
G1 X52 Y171 Z-.5 F4000 ; wiping
G1 X42 Y173 Z0 F4000 ; wiping
G1 X52 Y171 F4000 ; wiping
G1 X42 Y173 F4000 ; wiping
G1 X52 Y171 F4000 ; wiping
G1 X42 Y173 F4000 ; wiping
G1 X52 Y171 F4000 ; wiping
G1 X57 Y173 F4000 ; wiping
G1 X77 Y171 F4000 ; wiping
G1 X57 Y173 F4000 ; wiping
G1 X77 Y171 F4000 ; wiping
G1 X57 Y173 F4000 ; wiping
G1 X87 Y171 F4000 ; wiping
G1 X77 Y173 F4000 ; wiping
G1 X97 Y171 F4000 ; wiping
G1 X77 Y173 F4000 ; wiping
G1 X97 Y171 F4000 ; wiping
G1 X77 Y173 F4000 ; wiping
G1 X97 Y171 F4000 ; wiping
G1 X107 Y173 F4000 ; wiping
G1 X97 Y171 F4000 ; wiping
G1 X107 Y173 F4000 ; wiping
G1 X97 Y171 F4000 ; wiping
G1 X107 Y173 F4000 ; wiping
G1 X112 Y171 Z-0.5 F1000 ; wiping
G1 Z10 ; raise extruder
G28 X0 Y0 ; home X and Y
G0 X0 Y187 F200 ; move away from endstops
M109 R170 ; wait for extruder to reach probe temp
M204 S300 ; set probing acceleration
G29 ; start auto-leveling sequence
M204 S2000 ; restore standard acceleration
G28 X0 Y0 ; re-home to account for build variance of earlier mini builds
G0 X0 Y187 F200 ; move away from endstops
G0 Y152 F4000 ; move in front of wiper pad
G4 S1 ; pause
M400 ; wait for moves to finish
M117 Heating... ; progress indicator message on LCD
M109 R245 ; wait for extruder to reach printing temp
M190 S116 ; wait for bed to reach printing temp
G1 Z2 E0 F75 ; prime tiny bit of filament into the nozzle
M117 Mini Printing... ; progress indicator message on LCD


M221 S100
;LAYER_COUNT:169
;LAYER:0
M107
M204 S1000
M205 X10
G0 F2250 X20.979 Y26.74 Z0.42
;TYPE:SKIRT
G1 F900 X21.414 Y26.468 E0.02027
G1 X21.886 Y26.267 E0.04053
G1 X22.384 Y26.141 E0.06082
G1 X22.941 Y26.094 E0.0829
G1 X69.318 Y26.103 E1.9149
G1 X69.487 Y26.107 E1.92157
G1 X71.074 Y26.189 E1.98435
G1 X71.257 Y26.204 E1.9916
G1 X74.011 Y26.5 E2.10102
G1 X79.491 Y26.856 E2.31794
G1 X84.968 Y26.901 E2.53431
G1 X90.463 Y26.636 E2.75162
G1 X93.987 Y26.328 E2.89136
G1 X94.275 Y26.315 E2.90275
G1 X120.588 Y26.322 E3.94217
G1 X120.988 Y26.346 E3.958
G1 X122.361 Y26.514 E4.01264
G1 X122.864 Y26.616 E4.03291
G1 X123.211 Y26.736 E4.04742
G1 X124.424 Y27.233 E4.0992
G1 X124.883 Y27.464 E4.1195
G1 X125.171 Y27.66 E4.13326
G1 X126.198 Y28.441 E4.18422
G1 X126.581 Y28.783 E4.20451
G1 X126.807 Y29.045 E4.21817
G1 X127.608 Y30.077 E4.26978
G1 X127.89 Y30.505 E4.29003
G1 X128.045 Y30.825 E4.30407
G1 X128.555 Y32.043 E4.35623
G1 X128.747 Y32.671 E4.38217
G1 X130.116 Y39.521 E4.65811
G1 X130.782 Y42.171 E4.76605
G1 X132.337 Y47.411 E4.98196
G1 X134.165 Y52.508 E5.19586
G1 X134.301 Y53.003 E5.21614
G1 X134.359 Y53.622 E5.2407
G1 X134.359 Y70.609 E5.91172
G1 X134.301 Y71.224 E5.93613
G1 X133.108 Y77.519 E6.18922
G1 X132.417 Y82.922 E6.40439
G1 X132.031 Y88.388 E6.62084
G1 X131.954 Y93.864 E6.83718
G1 X132.187 Y99.319 E7.05286
G1 X132.729 Y104.77 E7.26925
G1 X133.579 Y110.187 E7.48585
G1 X134.303 Y113.884 E7.63466
G1 X134.364 Y114.519 E7.65986
G1 X134.36 Y124.607 E8.05836
G1 X134.32 Y125.119 E8.07865
G1 X134.201 Y125.619 E8.09895
G1 X134.006 Y126.094 E8.11923
G1 X133.739 Y126.532 E8.1395
G1 X133.408 Y126.925 E8.15979
G1 X133.02 Y127.261 E8.18007
G1 X132.585 Y127.533 E8.20033
G1 X132.112 Y127.734 E8.22064
G1 X131.614 Y127.859 E8.24092
G1 X131.059 Y127.906 E8.26292
G1 X84.682 Y127.897 E10.09491
G1 X84.513 Y127.893 E10.10159
G1 X82.926 Y127.811 E10.16436
G1 X82.743 Y127.796 E10.17162
G1 X79.989 Y127.5 E10.28103
G1 X74.509 Y127.144 E10.49796
G1 X69.032 Y127.099 E10.71432
G1 X63.537 Y127.364 E10.93164
G1 X60.013 Y127.672 E11.07137
G1 X59.725 Y127.685 E11.08276
G1 X33.412 Y127.678 E12.12218
G1 X33.012 Y127.654 E12.13801
G1 X31.639 Y127.486 E12.19265
G1 X31.136 Y127.384 E12.21293
G1 X30.789 Y127.264 E12.22743
G1 X29.576 Y126.767 E12.27921
G1 X29.117 Y126.536 E12.29951
G1 X28.831 Y126.341 E12.31319
G1 X27.803 Y125.56 E12.36418
G1 X27.419 Y125.218 E12.3845
G1 X27.191 Y124.954 E12.39828
G1 X26.391 Y123.922 E12.44986
G1 X26.109 Y123.493 E12.47014
G1 X25.95 Y123.163 E12.48461
G1 X25.432 Y121.913 E12.53806
G1 X25.236 Y121.25 E12.56537
G1 X24.479 Y117.158 E12.72975
G1 X23.217 Y111.824 E12.94627
G1 X21.663 Y106.59 E13.16195
G1 X19.834 Y101.492 E13.3759
G1 X19.699 Y100.997 E13.39617
G1 X19.64 Y100.378 E13.42073
G1 X19.641 Y83.395 E14.09159
G1 X19.707 Y82.738 E14.11768
G1 X20.426 Y79.199 E14.26033
G1 X21.275 Y73.788 E14.47669
G1 X21.815 Y68.338 E14.69303
G1 X22.046 Y62.883 E14.90871
G1 X21.967 Y57.405 E15.12513
G1 X21.58 Y51.944 E15.34139
G1 X20.887 Y46.537 E15.55672
G1 X19.698 Y40.24 E15.80986
G1 X19.641 Y39.628 E15.83414
G1 X19.64 Y29.394 E16.23841
G1 X19.68 Y28.882 E16.2587
G1 X19.799 Y28.383 E16.27896
G1 X19.994 Y27.908 E16.29924
G1 X20.26 Y27.469 E16.31952
G1 X20.591 Y27.076 E16.33982
G1 X20.979 Y26.74 E16.36009
G1 F420 E15.36009
G0 F2250 X24.131 Y28.72
G0 X24.131 Y30.585
;TYPE:WALL-INNER
G1 F420 E16.36009
G1 F900 X32.106 Y30.585 E16.57011
G1 X32.106 Y67.178 E17.53378
G1 X31.551 Y67.503 E17.55072
G1 X30.51 Y68.555 E17.58969
G1 X29.897 Y69.628 E17.62224
G1 X29.776 Y69.839 E17.62864
G1 X29.506 Y70.849 E17.65617
G1 X29.506 Y69.839 E17.665
G1 X29.506 Y69.595 E17.67042
G1 X29.506 Y44.513 E18.33095
G1 X24.131 Y39.137 E18.53115
G1 X24.131 Y30.585 E18.75637
G1 F420 E17.75637
G0 F2250 X22.266 Y30.585
G0 X22.27 Y39.909
G0 X27.641 Y73.171
G0 X29.506 Y73.171
G1 F420 E18.75637
G1 F900 X29.772 Y74.175 E18.78372
G1 X29.897 Y74.393 E18.79034
G1 X30.506 Y75.46 E18.82269
G1 X31.544 Y76.513 E18.86163
G1 X32.106 Y76.843 E18.87879
G1 X32.106 Y122.657 E20.08529
G1 X32.106 Y122.658 E20.08532
G1 X32.106 Y122.956 E20.09317
G1 X31.83 Y122.842 E20.09777
G1 X31.413 Y122.668 E20.10967
G1 X30.629 Y122.067 E20.13568
G1 X30.024 Y121.279 E20.16184
G1 X29.647 Y120.367 E20.18783
G1 X29.507 Y119.309 E20.21594
G1 X29.506 Y99.185 E20.7459
G1 X24.131 Y99.185 E20.88745
G1 X24.131 Y83.883 E21.29042
G1 X29.506 Y78.507 E21.49062
G1 X29.506 Y74.427 E21.59807
G1 X29.506 Y74.175 E21.60363
G1 X29.506 Y73.171 E21.61227
G0 F2250 X29.793 Y72.693
G1 F900 X30.145 Y74.022 E21.64848
G1 X30.827 Y75.216 E21.68469
G1 X31.792 Y76.195 E21.72089
G1 X32.506 Y76.614 E21.74269
G1 X32.506 Y123.352 E22.97353
G1 X32.506 Y123.435 E22.97572
G1 X32.506 Y123.472 E22.97669
G1 X32.218 Y123.435 E22.97943
G1 X32.142 Y123.404 E22.98133
G1 X31.209 Y123.016 E23.00794
G1 X30.344 Y122.352 E23.03666
G1 X29.674 Y121.48 E23.06562
G1 X29.257 Y120.471 E23.09437
G1 X29.107 Y119.338 E23.12447
G1 X29.106 Y99.585 E23.64466
G1 X23.731 Y99.585 E23.78621
G1 X23.731 Y83.717 E24.20409
G1 X29.106 Y78.341 E24.40429
G1 X29.106 Y44.679 E25.29077
G1 X23.731 Y39.303 E25.49097
G1 X23.731 Y30.185 E25.73109
G1 X32.506 Y30.185 E25.96218
G1 X32.506 Y67.407 E26.94241
G1 X31.798 Y67.822 E26.96403
G1 X30.831 Y68.799 E27.00023
G1 X30.149 Y69.992 E27.03641
G1 X29.795 Y71.317 E27.07253
G1 X29.793 Y72.693 E27.10877
G1 F420 E26.10877
G0 F2250 X31.257 Y72.504
G0 X33.495 Y75.496
G0 X33.006 Y76.328
;TYPE:WALL-OUTER
G1 F420 E27.10877
G1 F900 X33.006 Y123.701 E28.98011
G1 X33.006 Y123.702 E28.98014
G1 X33.006 Y124.043 E28.99361
G1 X32.667 Y123.999 E29.00205
G1 X32.089 Y123.922 E29.02508
G1 X30.957 Y123.453 E29.07349
G1 X29.987 Y122.709 E29.12178
G1 X29.237 Y121.732 E29.17043
G1 X28.769 Y120.6 E29.21882
G1 X28.607 Y119.373 E29.26771
G1 X28.606 Y100.085 E30.02963
G1 X23.231 Y100.085 E30.24195
G1 X23.231 Y83.509 E30.89674
G1 X28.606 Y78.134 E31.19701
G1 X28.606 Y44.886 E32.51038
G1 X23.231 Y39.511 E32.81065
G1 X23.231 Y29.685 E33.1988
G1 X33.006 Y29.685 E33.58493
G1 X33.006 Y67.693 E35.08633
G1 X32.107 Y68.22 E35.12749
G1 X31.233 Y69.104 E35.1766
G1 X30.615 Y70.184 E35.22575
G1 X30.295 Y71.383 E35.27477
G1 X30.293 Y72.628 E35.32395
G1 X30.612 Y73.831 E35.37312
G1 X31.229 Y74.911 E35.42225
G1 X32.102 Y75.797 E35.47138
G1 X33.006 Y76.328 E35.5128
G0 F2250 X33.006 Y76.578
G0 X31.934 Y76.8
;TYPE:SKIN
G1 F900 X29.555 Y76.8 E35.60678
G1 X29.455 Y76.8
G0 F2250 X29.555 Y76.2
G1 F900 X31.164 Y76.2 E35.67033
G1 X31.264 Y76.2
G0 F2250 X30.573 Y75.6
G1 F900 X29.555 Y75.6 E35.71055
G0 F2250 X29.87 Y75
G1 F1227.3 X29.698 Y74.4 E35.72863
G0 F2250 X29.555 Y74.4
G0 X29.555 Y77.4
G1 F900 X32.055 Y77.4 E35.82738
G1 X32.155 Y77.4
G0 F2250 X32.055 Y78
G1 F900 X29.555 Y78 E35.92614
G1 X29.455 Y78
G0 F2250 X29.483 Y78.6
G1 F900 X32.055 Y78.6 E36.02774
G1 X32.155 Y78.6
G0 F2250 X32.055 Y79.2
G1 F900 X28.883 Y79.2 E36.15304
G1 X28.783 Y79.2
G0 F2250 X28.283 Y79.8
G1 F900 X32.055 Y79.8 E36.30204
G1 X32.155 Y79.8
G0 F2250 X32.055 Y80.4
G1 F900 X27.683 Y80.4 E36.47475
G1 X27.583 Y80.4
G0 F2250 X27.083 Y81
G1 F900 X32.055 Y81 E36.67115
G1 X32.155 Y81
G0 F2250 X32.055 Y81.6
G1 F900 X26.483 Y81.6 E36.89126
G1 X26.383 Y81.6
G0 F2250 X25.883 Y82.2
G1 F900 X32.055 Y82.2 E37.13506
G1 X32.155 Y82.2
G0 F2250 X32.055 Y82.8
G1 F900 X25.283 Y82.8 E37.40257
G1 X25.183 Y82.8
G0 F2250 X24.683 Y83.4
G1 F900 X32.055 Y83.4 E37.69378
G1 X32.155 Y83.4
G0 F2250 X32.055 Y84
G1 F900 X24.18 Y84 E38.00486
G1 X24.08 Y84
G0 F2250 X24.18 Y84.6
G1 F900 X32.055 Y84.6 E38.31594
G1 X32.155 Y84.6
G0 F2250 X32.055 Y85.2
G1 F900 X24.18 Y85.2 E38.62702
G1 X24.08 Y85.2
G0 F2250 X24.18 Y85.8
G1 F900 X32.055 Y85.8 E38.9381
G1 X32.155 Y85.8
G0 F2250 X32.055 Y86.4
G1 F900 X24.18 Y86.4 E39.24918
G1 X24.08 Y86.4
G0 F2250 X24.18 Y87
G1 F900 X32.055 Y87 E39.56026
G1 X32.155 Y87
G0 F2250 X32.055 Y87.6
G1 F900 X24.18 Y87.6 E39.87134
G1 X24.08 Y87.6
G0 F2250 X24.18 Y88.2
G1 F900 X32.055 Y88.2 E40.18242
G1 X32.155 Y88.2
G0 F2250 X32.055 Y88.8
G1 F900 X24.18 Y88.8 E40.4935
G1 X24.08 Y88.8
G0 F2250 X24.18 Y89.4
G1 F900 X32.055 Y89.4 E40.80458
G1 X32.155 Y89.4
G0 F2250 X32.055 Y90
G1 F900 X24.18 Y90 E41.11566
G1 X24.08 Y90
G0 F2250 X24.18 Y90.6
G1 F900 X32.055 Y90.6 E41.42674
G1 X32.155 Y90.6
G0 F2250 X32.055 Y91.2
G1 F900 X24.18 Y91.2 E41.73782
G1 X24.08 Y91.2
G0 F2250 X24.18 Y91.8
G1 F900 X32.055 Y91.8 E42.0489
G1 X32.155 Y91.8
G0 F2250 X32.055 Y92.4
G1 F900 X24.18 Y92.4 E42.35998
G1 X24.08 Y92.4
G0 F2250 X24.18 Y93
G1 F900 X32.055 Y93 E42.67106
G1 X32.155 Y93
G0 F2250 X32.055 Y93.6
G1 F900 X24.18 Y93.6 E42.98214
G1 X24.08 Y93.6
G0 F2250 X24.18 Y94.2
G1 F900 X32.055 Y94.2 E43.29321
G1 X32.155 Y94.2
G0 F2250 X32.055 Y94.8
G1 F900 X24.18 Y94.8 E43.60429
G1 X24.08 Y94.8
G0 F2250 X24.18 Y95.4
G1 F900 X32.055 Y95.4 E43.91537
G1 X32.155 Y95.4
G0 F2250 X32.055 Y96
G1 F900 X24.18 Y96 E44.22645
G1 X24.08 Y96
G0 F2250 X24.18 Y96.6
G1 F900 X32.055 Y96.6 E44.53753
G1 X32.155 Y96.6
G0 F2250 X32.055 Y97.2
G1 F900 X24.18 Y97.2 E44.84861
G1 X24.08 Y97.2
G0 F2250 X24.18 Y97.8
G1 F900 X32.055 Y97.8 E45.15969
G1 X32.155 Y97.8
G0 F2250 X32.055 Y98.4
G1 F900 X24.18 Y98.4 E45.47077
G1 X24.08 Y98.4
G0 F2250 X24.18 Y99
G1 F900 X32.055 Y99 E45.78185
G1 X32.155 Y99
G0 F2250 X32.055 Y99.6
G1 F900 X29.555 Y99.6 E45.88061
G1 X29.455 Y99.6
G0 F2250 X29.555 Y100.2
G1 F900 X32.055 Y100.2 E45.97936
G1 X32.155 Y100.2
G0 F2250 X32.055 Y100.8
G1 F900 X29.555 Y100.8 E46.07812
G1 X29.455 Y100.8
G0 F2250 X29.555 Y101.4
G1 F900 X32.055 Y101.4 E46.17687
G1 X32.155 Y101.4
G0 F2250 X32.055 Y102
G1 F900 X29.555 Y102 E46.27563
G1 X29.455 Y102
G0 F2250 X29.555 Y102.6
G1 F900 X32.055 Y102.6 E46.37438
G1 X32.155 Y102.6
G0 F2250 X32.055 Y103.2
G1 F900 X29.555 Y103.2 E46.47314
G1 X29.455 Y103.2
G0 F2250 X29.555 Y103.8
G1 F900 X32.055 Y103.8 E46.57189
G1 X32.155 Y103.8
G0 F2250 X32.055 Y104.4
G1 F900 X29.555 Y104.4 E46.67065
G1 X29.455 Y104.4
G0 F2250 X29.555 Y105
G1 F900 X32.055 Y105 E46.76941
G1 X32.155 Y105
G0 F2250 X32.055 Y105.6
G1 F900 X29.555 Y105.6 E46.86816
G1 X29.455 Y105.6
G0 F2250 X29.555 Y106.2
G1 F900 X32.055 Y106.2 E46.96692
G1 X32.155 Y106.2
G0 F2250 X32.055 Y106.8
G1 F900 X29.555 Y106.8 E47.06567
G1 X29.455 Y106.8
G0 F2250 X29.555 Y107.4
G1 F900 X32.055 Y107.4 E47.16443
G1 X32.155 Y107.4
G0 F2250 X32.055 Y108
G1 F900 X29.555 Y108 E47.26318
G1 X29.455 Y108
G0 F2250 X29.555 Y108.6
G1 F900 X32.055 Y108.6 E47.36194
G1 X32.155 Y108.6
G0 F2250 X32.055 Y109.2
G1 F900 X29.555 Y109.2 E47.46069
G1 X29.455 Y109.2
G0 F2250 X29.555 Y109.8
G1 F900 X32.055 Y109.8 E47.55945
G1 X32.155 Y109.8
G0 F2250 X32.055 Y110.4
G1 F900 X29.555 Y110.4 E47.6582
G1 X29.455 Y110.4
G0 F2250 X29.555 Y111
G1 F900 X32.055 Y111 E47.75696
G1 X32.155 Y111
G0 F2250 X32.055 Y111.6
G1 F900 X29.555 Y111.6 E47.85572
G1 X29.455 Y111.6
G0 F2250 X29.555 Y112.2
G1 F900 X32.055 Y112.2 E47.95447
G1 X32.155 Y112.2
G0 F2250 X32.055 Y112.8
G1 F900 X29.555 Y112.8 E48.05323
G1 X29.455 Y112.8
G0 F2250 X29.555 Y113.4
G1 F900 X32.055 Y113.4 E48.15198
G1 X32.155 Y113.4
G0 F2250 X32.055 Y114
G1 F900 X29.555 Y114 E48.25074
G1 X29.455 Y114
G0 F2250 X29.555 Y114.6
G1 F900 X32.055 Y114.6 E48.34949
G1 X32.155 Y114.6
G0 F2250 X32.055 Y115.2
G1 F900 X29.555 Y115.2 E48.44825
G1 X29.455 Y115.2
G0 F2250 X29.555 Y115.8
G1 F900 X32.055 Y115.8 E48.547
G1 X32.155 Y115.8
G0 F2250 X32.055 Y116.4
G1 F900 X29.555 Y116.4 E48.64576
G1 X29.455 Y116.4
G0 F2250 X29.555 Y117
G1 F900 X32.055 Y117 E48.74451
G1 X32.155 Y117
G0 F2250 X32.055 Y117.6
G1 F900 X29.555 Y117.6 E48.84327
G1 X29.455 Y117.6
G0 F2250 X29.555 Y118.2
G1 F900 X32.055 Y118.2 E48.94202
G1 X32.155 Y118.2
G0 F2250 X32.055 Y118.8
G1 F900 X29.555 Y118.8 E49.04078
G1 X29.455 Y118.8
G0 F2250 X29.568 Y119.4
G1 F900 X32.055 Y119.4 E49.13902
G1 X32.155 Y119.4
G0 F2250 X32.055 Y120
G1 F900 X29.647 Y120 E49.23414
G1 X29.547 Y120
G0 F2250 X29.796 Y120.6
G1 F900 X32.055 Y120.6 E49.32338
G1 X32.155 Y120.6
G0 F2250 X32.055 Y121.2
G1 F900 X30.044 Y121.2 E49.40282
G1 X29.944 Y121.2
G0 F2250 X30.486 Y121.8
G1 F900 X32.055 Y121.8 E49.4648
G1 X32.155 Y121.8
G0 F2250 X32.055 Y122.4
G1 F900 X31.145 Y122.4 E49.50074
G1 F420 E48.50074
G0 F2250 X29.98 Y123.919
G0 X29.979 Y123.911
G0 X29.982 Y123.831
G0 X31.433 Y73.365
G0 X31.435 Y73.285
G0 X31.515 Y70.551
G0 X29.704 Y69.6
G1 F420 E49.50074
G1 F1197.3 X29.875 Y69 E49.51927
G0 F2250 X30.592 Y68.4
G1 F900 X29.555 Y68.4 E49.56023
G0 F2250 X29.555 Y67.8
G1 F900 X31.187 Y67.8 E49.6247
G1 X31.287 Y67.8
G0 F2250 X31.968 Y67.2
G1 F900 X29.555 Y67.2 E49.72002
G1 X29.455 Y67.2
G0 F2250 X29.555 Y66.6
G1 F900 X32.055 Y66.6 E49.81877
G1 X32.155 Y66.6
G0 F2250 X32.055 Y66
G1 F900 X29.555 Y66 E49.91753
G1 X29.455 Y66
G0 F2250 X29.555 Y65.4
G1 F900 X32.055 Y65.4 E50.01628
G1 X32.155 Y65.4
G0 F2250 X32.055 Y64.8
G1 F900 X29.555 Y64.8 E50.11504
G1 X29.455 Y64.8
G0 F2250 X29.555 Y64.2
G1 F900 X32.055 Y64.2 E50.2138
G1 X32.155 Y64.2
G0 F2250 X32.055 Y63.6
G1 F900 X29.555 Y63.6 E50.31255
G1 X29.455 Y63.6
G0 F2250 X29.555 Y63
G1 F900 X32.055 Y63 E50.41131
G1 X32.155 Y63
G0 F2250 X32.055 Y62.4
G1 F900 X29.555 Y62.4 E50.51006
G1 X29.455 Y62.4
G0 F2250 X29.555 Y61.8
G1 F900 X32.055 Y61.8 E50.60882
G1 X32.155 Y61.8
G0 F2250 X32.055 Y61.2
G1 F900 X29.555 Y61.2 E50.70757
G1 X29.455 Y61.2
G0 F2250 X29.555 Y60.6
G1 F900 X32.055 Y60.6 E50.80633
G1 X32.155 Y60.6
G0 F2250 X32.055 Y60
G1 F900 X29.555 Y60 E50.90508
G1 X29.455 Y60
G0 F2250 X29.555 Y59.4
G1 F900 X32.055 Y59.4 E51.00384
G1 X32.155 Y59.4
G0 F2250 X32.055 Y58.8
G1 F900 X29.555 Y58.8 E51.10259
G1 X29.455 Y58.8
G0 F2250 X29.555 Y58.2
G1 F900 X32.055 Y58.2 E51.20135
G1 X32.155 Y58.2
G0 F2250 X32.055 Y57.6
G1 F900 X29.555 Y57.6 E51.30011
G1 X29.455 Y57.6
G0 F2250 X29.555 Y57
G1 F900 X32.055 Y57 E51.39886
G1 X32.155 Y57
G0 F2250 X32.055 Y56.4
G1 F900 X29.555 Y56.4 E51.49762
G1 X29.455 Y56.4
G0 F2250 X29.555 Y55.8
G1 F900 X32.055 Y55.8 E51.59637
G1 X32.155 Y55.8
G0 F2250 X32.055 Y55.2
G1 F900 X29.555 Y55.2 E51.69513
G1 X29.455 Y55.2
