;Generated by Cura LulzBot Edition GCodeWriter Version: 2.6.66
;FLAVOR:RepRap
;TIME:5618
;Filament used: 3.25169m
;Layer height: 0.2592
;Generated with Cura_SteamEngine 2.6.66
;This G-Code has been generated specifically for the LulzBot Mini with Aerostruder
G26 ; clear potential 'probe fail' condition
G21 ; set units to Millimetres
M107 ; disable fans
G90 ; absolute positioning
M82 ; set extruder to absolute mode
G92 E0 ; set extruder position to 0
M140 S115 ; start bed heating up
G28 ; home all axes
G0 X0 Y187 Z156 F200 ; move away from endstops
M109 R170 ; soften filament before retraction
G1 E-15 F75 ; retract filament
M109 R170 ; wait for extruder to reach wiping temp
G1 X45 Y173 F11520 ; move above wiper pad
G1 Z0 F1200 ; push nozzle into wiper
G1 X42 Y173 Z-.5 F4000 ; wiping
G1 X52 Y171 Z-.5 F4000 ; wiping
G1 X42 Y173 Z0 F4000 ; wiping
G1 X52 Y171 F4000 ; wiping
G1 X42 Y173 F4000 ; wiping
G1 X52 Y171 F4000 ; wiping
G1 X42 Y173 F4000 ; wiping
G1 X52 Y171 F4000 ; wiping
G1 X57 Y173 F4000 ; wiping
G1 X77 Y171 F4000 ; wiping
G1 X57 Y173 F4000 ; wiping
G1 X77 Y171 F4000 ; wiping
G1 X57 Y173 F4000 ; wiping
G1 X87 Y171 F4000 ; wiping
G1 X77 Y173 F4000 ; wiping
G1 X97 Y171 F4000 ; wiping
G1 X77 Y173 F4000 ; wiping
G1 X97 Y171 F4000 ; wiping
G1 X77 Y173 F4000 ; wiping
G1 X97 Y171 F4000 ; wiping
G1 X107 Y173 F4000 ; wiping
G1 X97 Y171 F4000 ; wiping
G1 X107 Y173 F4000 ; wiping
G1 X97 Y171 F4000 ; wiping
G1 X107 Y173 F4000 ; wiping
G1 X112 Y171 Z-0.5 F1000 ; wiping
G1 Z10 ; raise extruder
G28 X0 Y0 ; home X and Y
G0 X0 Y187 F200 ; move away from endstops
M109 R170 ; wait for extruder to reach probe temp
M204 S300 ; set probing acceleration
G29 ; start auto-leveling sequence
M204 S2000 ; restore standard acceleration
G28 X0 Y0 ; re-home to account for build variance of earlier mini builds
G0 X0 Y187 F200 ; move away from endstops
G0 Y152 F4000 ; move in front of wiper pad
G4 S1 ; pause
M400 ; wait for moves to finish
M117 Heating... ; progress indicator message on LCD
M109 R245 ; wait for extruder to reach printing temp
M190 S116 ; wait for bed to reach printing temp
G1 Z2 E0 F75 ; prime tiny bit of filament into the nozzle
M117 Mini Printing... ; progress indicator message on LCD


M221 S100
;LAYER_COUNT:19
;LAYER:0
M107
M204 S800
M205 X2
G0 F2250 X28.213 Y3.668 Z0.42
;TYPE:SKIRT
G1 F900 X28.292 Y3.223 E0.01785
G1 X28.472 Y2.73 E0.03859
G1 X28.619 Y2.444 E0.05129
G1 X28.881 Y2.161 E0.06652
G1 X29.312 Y1.816 E0.08833
G1 X29.586 Y1.648 E0.10103
G1 X29.927 Y1.546 E0.11509
G1 X30.449 Y1.466 E0.13595
G1 X30.646 Y1.451 E0.14375
G1 X123.715 Y1.481 E3.82018
G1 X124.035 Y1.521 E3.83292
G1 X124.251 Y1.596 E3.84195
G1 X124.627 Y1.766 E3.85825
G1 X124.901 Y1.934 E3.87095
G1 X125.044 Y2.067 E3.87866
G1 X125.286 Y2.328 E3.89272
G1 X125.474 Y2.589 E3.90543
G1 X125.561 Y2.786 E3.91393
G1 X125.711 Y3.218 E3.932
G1 X125.783 Y3.643 E3.94903
G1 X125.79 Y14.74 E4.38738
G1 X125.755 Y15.04 E4.39931
G1 X124.683 Y19.575 E4.58339
G1 X124.132 Y22.336 E4.69461
G1 X123.674 Y25.052 E4.80341
G1 X122.973 Y30.609 E5.02466
G1 X122.59 Y36.173 E5.24497
G1 X122.52 Y41.754 E5.46545
G1 X122.768 Y47.345 E5.68653
G1 X123.327 Y52.879 E5.90624
G1 X124.206 Y58.416 E6.12771
G1 X124.746 Y61.09 E6.23547
G1 X125.703 Y65.113 E6.39882
G1 X125.731 Y65.28 E6.40551
G1 X125.792 Y65.868 E6.42886
G1 X125.799 Y66.003 E6.4342
G1 X125.79 Y89.255 E7.35271
G1 X125.755 Y89.553 E7.36456
G1 X124.683 Y94.088 E7.54864
G1 X124.132 Y96.849 E7.65985
G1 X123.674 Y99.565 E7.76866
G1 X122.973 Y105.122 E7.98991
G1 X122.59 Y110.686 E8.21022
G1 X122.52 Y116.267 E8.4307
G1 X122.768 Y121.858 E8.65177
G1 X123.327 Y127.392 E8.87149
G1 X124.206 Y132.929 E9.09295
G1 X124.746 Y135.603 E9.20071
G1 X125.703 Y139.626 E9.36407
G1 X125.731 Y139.793 E9.37075
G1 X125.792 Y140.381 E9.39411
G1 X125.799 Y140.519 E9.39956
G1 X125.768 Y150.445 E9.79166
G1 X125.691 Y150.883 E9.80923
G1 X125.574 Y151.207 E9.82284
G1 X125.428 Y151.493 E9.83552
G1 X125.323 Y151.628 E9.84228
G1 X125.093 Y151.887 E9.85596
G1 X124.851 Y152.1 E9.8687
G1 X124.6 Y152.233 E9.87992
G1 X124.05 Y152.451 E9.90329
G1 X123.738 Y152.531 E9.91601
G1 X123.571 Y152.542 E9.92262
G1 X30.428 Y152.545 E13.60197
G1 X30.109 Y152.505 E13.61467
G1 X29.932 Y152.447 E13.62203
G1 X29.363 Y152.212 E13.64635
G1 X29.083 Y152.053 E13.65907
G1 X28.808 Y151.775 E13.67452
G1 X28.53 Y151.393 E13.69318
G1 X28.374 Y151.111 E13.70591
G1 X28.309 Y150.896 E13.71478
G1 X28.245 Y150.592 E13.72705
G1 X28.217 Y150.325 E13.73766
G1 X28.211 Y139.26 E14.17475
G1 X28.246 Y138.96 E14.18668
G1 X29.306 Y134.483 E14.36842
G1 X30.318 Y129.003 E14.58855
G1 X31.022 Y123.451 E14.80963
G1 X31.408 Y117.884 E15.03006
G1 X31.48 Y112.304 E15.2505
G1 X31.236 Y106.713 E15.47157
G1 X30.679 Y101.179 E15.69128
G1 X29.808 Y95.665 E15.9118
G1 X28.238 Y88.507 E16.20127
G1 X28.208 Y88.228 E16.21236
G1 X28.209 Y64.757 E17.13951
G1 X28.24 Y64.475 E17.15072
G1 X29.85 Y57.234 E17.44374
G1 X30.71 Y51.711 E17.66454
G1 X31.255 Y46.158 E17.88495
G1 X31.484 Y40.583 E18.10536
G1 X31.399 Y35.004 E18.32577
G1 X30.996 Y29.421 E18.54688
G1 X30.283 Y23.902 E18.76671
G1 X29.249 Y18.384 E18.98847
G1 X28.626 Y15.694 E19.09755
G1 X28.624 Y15.69 E19.09772
G1 X28.24 Y14.004 E19.16603
G1 X28.208 Y13.714 E19.17756
G1 X28.213 Y4.163 E19.55484
G0 F810 X28.213 Y3.668
G1 F420 E18.55484
G0 F2250 X28.837 Y3.729
G0 X30.404 Y3.729
;TYPE:WALL-INNER
G1 F420 E19.57439
G1 F900 X30.415 Y3.698 E19.57569
G1 X30.436 Y3.673 E19.57698
G1 X30.483 Y3.65 E19.57905
G1 X123.469 Y3.646 E23.2522
G1 X123.542 Y3.658 E23.25512
G1 X123.567 Y3.676 E23.25634
G1 X123.588 Y3.704 E23.25772
G1 X123.597 Y3.736 E23.25903
G1 X123.6 Y5.978 E23.3476
G1 X123.548 Y5.846 E23.3532
G1 X123.12 Y5.256 E23.382
G1 X122.558 Y4.791 E23.41081
G1 X121.898 Y4.481 E23.43961
G1 X121.183 Y4.344 E23.46837
G1 X120.455 Y4.391 E23.49719
G1 X119.762 Y4.615 E23.52596
G1 X119.146 Y5.006 E23.55478
G1 X118.648 Y5.538 E23.58357
G1 X118.297 Y6.177 E23.61236
G1 X118.116 Y6.881 E23.64108
G1 X118.116 Y7.611 E23.66992
G1 X118.297 Y8.315 E23.69863
G1 X118.648 Y8.955 E23.72746
G1 X119.146 Y9.486 E23.75622
G1 X119.761 Y9.877 E23.78501
G1 X120.455 Y10.102 E23.81383
G1 X121.183 Y10.148 E23.84264
G1 X121.898 Y10.011 E23.8714
G1 X122.558 Y9.701 E23.9002
G1 X123.119 Y9.236 E23.92899
G1 X123.548 Y8.648 E23.95774
G1 X123.6 Y8.516 E23.96334
G1 X123.6 Y13.846 E24.17389
G1 X120.1 Y13.846 E24.31215
G1 X120.1 Y63.806 E26.28568
G1 X120.158 Y64.24 E26.30297
G1 X120.348 Y64.699 E26.3226
G1 X120.651 Y65.095 E26.34229
G1 X121.047 Y65.398 E26.36199
G1 X121.506 Y65.588 E26.38161
G1 X121.94 Y65.646 E26.39891
G1 X123.442 Y65.646 E26.45824
G1 X123.544 Y65.664 E26.46233
G1 X123.582 Y65.702 E26.46446
G1 X123.6 Y65.803 E26.46851
G1 X123.599 Y70.975 E26.67281
G1 X123.548 Y70.846 E26.67829
G1 X123.12 Y70.256 E26.70709
G1 X122.558 Y69.791 E26.7359
G1 X121.898 Y69.481 E26.76471
G1 X121.183 Y69.344 E26.79346
G1 X120.455 Y69.391 E26.82228
G1 X119.762 Y69.615 E26.85105
G1 X119.146 Y70.006 E26.87987
G1 X118.648 Y70.538 E26.90866
G1 X118.297 Y71.177 E26.93746
G1 X118.116 Y71.881 E26.96617
G1 X118.116 Y72.611 E26.99501
G1 X118.297 Y73.315 E27.02372
G1 X118.648 Y73.955 E27.05255
G1 X119.146 Y74.486 E27.08131
G1 X119.761 Y74.877 E27.1101
G1 X120.455 Y75.102 E27.13892
G1 X121.183 Y75.148 E27.16773
G1 X121.898 Y75.011 E27.19649
G1 X122.558 Y74.701 E27.2253
G1 X123.119 Y74.236 E27.25408
G1 X123.548 Y73.648 E27.28283
G1 X123.598 Y73.52 E27.28826
G1 X123.595 Y75.768 E27.37706
G1 X123.577 Y75.805 E27.37869
G1 X123.555 Y75.826 E27.37989
G1 X123.525 Y75.839 E27.38118
G1 X109.968 Y75.846 E27.91671
G1 X30.476 Y75.84 E31.05682
G1 X30.446 Y75.827 E31.05811
G1 X30.424 Y75.806 E31.05931
G1 X30.406 Y75.769 E31.06094
G1 X30.4 Y65.646 E31.46082
G1 X33.9 Y65.646 E31.59907
G1 X33.9 Y15.686 E33.5726
G1 X33.842 Y15.252 E33.5899
G1 X33.652 Y14.793 E33.60952
G1 X33.349 Y14.397 E33.62922
G1 X32.953 Y14.094 E33.64891
G1 X32.494 Y13.904 E33.66854
G1 X32.06 Y13.846 E33.68583
G1 X30.557 Y13.846 E33.74521
G1 X30.456 Y13.828 E33.74926
G1 X30.418 Y13.79 E33.75138
G1 X30.4 Y13.689 E33.75543
G1 X30.404 Y4.224 E34.12932
G0 F810 X30.404 Y3.729
G0 F2250 X31.896 Y5.006
G1 F420 E34.14888
G1 F900 X31.398 Y5.538 E34.17766
G1 X31.047 Y6.177 E34.20646
G1 X30.866 Y6.881 E34.23518
G1 X30.866 Y7.611 E34.26401
G1 X31.047 Y8.315 E34.29273
G1 X31.398 Y8.955 E34.32156
G1 X31.896 Y9.486 E34.35032
G1 X32.511 Y9.877 E34.3791
G1 X33.205 Y10.102 E34.40792
G1 X33.933 Y10.148 E34.43674
G1 X34.648 Y10.011 E34.4655
G1 X35.308 Y9.701 E34.4943
G1 X35.869 Y9.236 E34.52308
G1 X36.298 Y8.648 E34.55184
G1 X36.566 Y7.969 E34.58067
G1 X36.657 Y7.246 E34.60946
G1 X36.566 Y6.524 E34.6382
G1 X36.298 Y5.846 E34.667
G1 X35.87 Y5.256 E34.6958
G1 X35.308 Y4.791 E34.72461
G1 X34.648 Y4.481 E34.75341
G1 X33.933 Y4.344 E34.78217
G1 X33.205 Y4.391 E34.81099
G1 X32.512 Y4.615 E34.83976
G1 X32.314 Y4.741 E34.84903
G0 F810 X31.896 Y5.006
G1 F420 E33.84903
G0 F2250 X32.901 Y6.221
G0 X34.292 Y8.449
G0 X34.334 Y8.517
G0 X41.762 Y20.409
G0 X41.804 Y20.477
G0 X41.804 Y20.476
G0 X40.882 Y19.207
G1 F420 E34.86858
G1 F900 X40.654 Y19.4 E34.88038
G1 X40.461 Y19.628 E34.89218
G1 X40.305 Y19.883 E34.90399
G1 X40.191 Y20.158 E34.91575
G1 X40.121 Y20.449 E34.92757
G1 X40.1 Y20.71 E34.93792
G1 X40.103 Y58.896 E36.44635
G1 X40.15 Y59.191 E36.45815
G1 X40.242 Y59.474 E36.4699
G1 X40.378 Y59.742 E36.48177
G1 X40.555 Y59.984 E36.49362
G1 X40.765 Y60.194 E36.50535
G1 X41.006 Y60.369 E36.51711
G1 X41.27 Y60.504 E36.52883
G1 X41.557 Y60.598 E36.54076
G1 X41.853 Y60.643 E36.55258
G1 X112.036 Y60.646 E39.32497
G1 X112.297 Y60.625 E39.33531
G1 X112.588 Y60.555 E39.34713
G1 X112.863 Y60.441 E39.35889
G1 X113.118 Y60.285 E39.3707
G1 X113.346 Y60.092 E39.3825
G1 X113.539 Y59.864 E39.3943
G1 X113.695 Y59.609 E39.40611
G1 X113.809 Y59.335 E39.41783
G1 X113.879 Y59.045 E39.42962
G1 X113.9 Y58.78 E39.44012
G1 X113.897 Y20.597 E40.94843
G1 X113.85 Y20.303 E40.96019
G1 X113.758 Y20.018 E40.97202
G1 X113.621 Y19.75 E40.98391
G1 X113.445 Y19.509 E40.9957
G1 X113.235 Y19.299 E41.00743
G1 X112.996 Y19.126 E41.01908
G1 X112.731 Y18.988 E41.03089
G1 X112.443 Y18.896 E41.04283
G1 X112.149 Y18.849 E41.05459
G1 X41.964 Y18.846 E43.82705
G1 X41.703 Y18.867 E43.83739
G1 X41.412 Y18.937 E43.84922
G1 X41.319 Y18.976 E43.8532
G0 F810 X41.137 Y19.051
G0 X40.882 Y19.207
G1 F420 E42.8532
G0 F2250 X41.764 Y20.51
G0 X41.631 Y21.349
G0 X41.618 Y21.428
G0 X33.845 Y70.84
G0 X33.832 Y70.919
G0 X33.834 Y70.918
G0 X33.933 Y69.344
G1 F420 E43.87275
G1 F900 X33.205 Y69.391 E43.90157
G1 X32.512 Y69.615 E43.93034
G1 X31.896 Y70.006 E43.95916
G1 X31.398 Y70.538 E43.98795
G1 X31.047 Y71.177 E44.01675
G1 X30.866 Y71.881 E44.04546
G1 X30.866 Y72.611 E44.0743
G1 X31.047 Y73.315 E44.10301
G1 X31.398 Y73.955 E44.13185
G1 X31.896 Y74.486 E44.1606
G1 X32.511 Y74.877 E44.18939
G1 X33.205 Y75.102 E44.21821
G1 X33.933 Y75.148 E44.24702
G1 X34.648 Y75.011 E44.27578
G1 X35.308 Y74.701 E44.30459
G1 X35.869 Y74.236 E44.33337
G1 X36.298 Y73.648 E44.36212
G1 X36.566 Y72.969 E44.39096
G1 X36.657 Y72.246 E44.41974
G1 X36.566 Y71.524 E44.44849
G1 X36.298 Y70.846 E44.47729
G1 X35.87 Y70.256 E44.50608
G1 X35.308 Y69.791 E44.5349
G1 X34.648 Y69.481 E44.5637
G1 X34.419 Y69.437 E44.57291
G0 F810 X33.933 Y69.344
G0 F2250 X33.895 Y69.948
;TYPE:WALL-OUTER
G1 F420 E44.59246
G1 F900 X33.318 Y69.985 E44.6153
G1 X32.769 Y70.162 E44.63809
G1 X32.282 Y70.472 E44.66089
G1 X31.887 Y70.893 E44.6837
G1 X31.609 Y71.399 E44.7065
G1 X31.466 Y71.957 E44.72926
G1 X31.466 Y72.535 E44.75209
G1 X31.609 Y73.093 E44.77485
G1 X31.887 Y73.6 E44.79769
G1 X32.282 Y74.02 E44.82046
G1 X32.769 Y74.33 E44.84327
G1 X33.318 Y74.508 E44.86606
G1 X33.895 Y74.544 E44.8889
G1 X34.461 Y74.436 E44.91166
G1 X34.984 Y74.19 E44.93449
G1 X35.428 Y73.822 E44.95727
G1 X35.768 Y73.356 E44.98006
G1 X35.98 Y72.819 E45.00287
G1 X36.052 Y72.246 E45.02568
G1 X35.98 Y71.674 E45.04845
G1 X35.768 Y71.137 E45.07126
G1 X35.429 Y70.67 E45.09406
G1 X34.984 Y70.302 E45.11687
G1 X34.461 Y70.056 E45.1397
G1 X34.381 Y70.04 E45.14292
G0 F810 X33.895 Y69.948
G0 F2250 X33.646 Y69.964
G1 F420 E44.14292
G0 F2250 X33.705 Y70.927
G0 X33.704 Y70.927
G0 X33.688 Y70.848
G0 X32.359 Y64.159
G0 X32.343 Y64.081
G0 X32.347 Y64.093
G0 X33.3 Y65.046
G1 F420 E45.16247
G1 F900 X33.3 Y15.726 E47.11072
G1 X33.258 Y15.409 E47.12335
G1 X33.128 Y15.095 E47.13678
G1 X32.921 Y14.825 E47.15022
G1 X32.651 Y14.618 E47.16365
G1 X32.337 Y14.488 E47.17708
G1 X32.02 Y14.446 E47.18971
G1 X30.516 Y14.446 E47.24912
G1 X30.321 Y14.42 E47.25689
G1 X30.152 Y14.351 E47.2641
G1 X30.007 Y14.239 E47.27134
G1 X29.895 Y14.094 E47.27858
G1 X29.826 Y13.925 E47.28579
G1 X29.8 Y13.73 E47.29356
G1 X29.803 Y3.691 E47.69012
G1 X29.82 Y3.585 E47.69436
G1 X29.855 Y3.475 E47.69892
G1 X29.902 Y3.383 E47.70301
G1 X29.969 Y3.292 E47.70747
G1 X30.047 Y3.214 E47.71183
G1 X30.137 Y3.148 E47.71624
G1 X30.229 Y3.101 E47.72032
G1 X30.339 Y3.066 E47.72488
G1 X30.445 Y3.049 E47.72912
G1 X123.49 Y3.046 E51.4046
G1 X123.605 Y3.055 E51.40915
G1 X123.719 Y3.082 E51.41378
G1 X123.815 Y3.122 E51.41789
G1 X123.912 Y3.182 E51.42239
G1 X123.994 Y3.252 E51.42665
G1 X124.064 Y3.334 E51.43091
G1 X124.124 Y3.431 E51.43542
G1 X124.164 Y3.527 E51.43953
G1 X124.191 Y3.641 E51.44415
G1 X124.2 Y3.756 E51.44871
G1 X124.2 Y14.446 E51.87099
G1 X120.7 Y14.446 E52.00925
G1 X120.7 Y63.766 E53.95749
G1 X120.742 Y64.083 E53.97012
G1 X120.872 Y64.397 E53.98355
G1 X121.079 Y64.667 E53.99699
G1 X121.349 Y64.874 E54.01043
G1 X121.663 Y65.004 E54.02385
G1 X121.98 Y65.046 E54.03648
G1 X123.484 Y65.046 E54.0959
G1 X123.679 Y65.072 E54.10367
G1 X123.848 Y65.141 E54.11088
G1 X123.993 Y65.253 E54.11812
G1 X124.105 Y65.398 E54.12535
G1 X124.174 Y65.567 E54.13256
G1 X124.2 Y65.762 E54.14033
G1 X124.198 Y75.789 E54.53642
G1 X124.181 Y75.902 E54.54094
G1 X124.148 Y76.009 E54.54536
G1 X124.104 Y76.1 E54.54935
G1 X124.036 Y76.194 E54.55394
G1 X123.961 Y76.271 E54.55818
G1 X123.871 Y76.338 E54.56261
G1 X123.779 Y76.386 E54.56671
G1 X123.672 Y76.423 E54.57119
G1 X123.564 Y76.441 E54.57551
G1 X109.968 Y76.446 E55.11258
G1 X30.437 Y76.442 E58.25423
G1 X30.329 Y76.424 E58.25855
G1 X30.222 Y76.387 E58.26303
G1 X30.13 Y76.339 E58.26713
G1 X30.04 Y76.272 E58.27156
G1 X29.965 Y76.195 E58.2758
G1 X29.897 Y76.101 E58.28039
G1 X29.853 Y76.01 E58.28438
G1 X29.82 Y75.903 E58.2888
G1 X29.803 Y75.79 E58.29332
G1 X29.8 Y65.046 E58.71773
G1 X32.805 Y65.046 E58.83643
G0 F810 X33.3 Y65.046
G0 F2250 X33.3 Y64.796
G1 F420 E57.83643
G0 F2250 X32.347 Y64.093
G0 X32.339 Y64.096
G0 X32.409 Y64.057
G0 X41.646 Y58.957
G0 X41.716 Y58.918
G0 X41.716 Y58.92
G0 X40.891 Y59.427
G1 F420 E58.85599
G1 F900 X41.012 Y59.592 E58.86407
G1 X41.156 Y59.736 E58.87211
G1 X41.321 Y59.856 E58.88017
G1 X41.501 Y59.948 E58.88816
G1 X41.697 Y60.012 E58.8963
G1 X41.899 Y60.043 E58.90438
G1 X112.012 Y60.046 E61.67399
G1 X112.203 Y60.031 E61.68156
G1 X112.402 Y59.983 E61.68965
G1 X112.59 Y59.905 E61.69769
G1 X112.765 Y59.798 E61.70579
G1 X112.92 Y59.666 E61.71383
G1 X113.052 Y59.511 E61.72187
G1 X113.159 Y59.336 E61.72998
G1 X113.237 Y59.148 E61.73802
G1 X113.285 Y58.95 E61.74606
G1 X113.3 Y58.757 E61.75371
G1 X113.297 Y20.644 E63.25926
G1 X113.265 Y20.443 E63.2673
G1 X113.202 Y20.248 E63.27539
G1 X113.109 Y20.066 E63.28347
G1 X112.988 Y19.901 E63.29155
G1 X112.844 Y19.757 E63.29959
G1 X112.68 Y19.638 E63.3076
G1 X112.499 Y19.544 E63.31565
G1 X112.303 Y19.481 E63.32379
G1 X112.102 Y19.449 E63.33183
G1 X41.988 Y19.446 E66.10148
G1 X41.797 Y19.461 E66.10905
G1 X41.598 Y19.509 E66.11713
G1 X41.41 Y19.587 E66.12518
G1 X41.235 Y19.694 E66.13328
G1 X41.08 Y19.826 E66.14132
G1 X40.948 Y19.981 E66.14936
G1 X40.841 Y20.156 E66.15746
G1 X40.763 Y20.344 E66.16551
G1 X40.715 Y20.543 E66.17359
G1 X40.7 Y20.734 E66.18116
G1 X40.703 Y58.849 E67.68678
G1 X40.722 Y58.964 E67.69139
G0 F810 X40.735 Y59.05
G0 X40.798 Y59.244
G0 X40.891 Y59.427
G0 F2250 X41.012 Y59.592
G0 X41.044 Y59.624
G1 F420 E66.69139
G0 F2250 X41.716 Y58.92
G0 X41.632 Y58.392
G0 X41.62 Y58.313
G0 X33.844 Y8.651
G0 X33.832 Y8.572
G0 X33.833 Y8.574
G0 X33.895 Y9.544
G1 F420 E67.71094
G1 F900 X34.461 Y9.436 E67.7337
G1 X34.984 Y9.19 E67.75654
