;Generated by Cura LulzBot Edition GCodeWriter Version: 2.6.66
;FLAVOR:RepRap
;TIME:12099
;Filament used: 8.55038m
;Layer height: 0.378
;Generated with Cura_SteamEngine 2.6.66
;This G-Code has been generated specifically for the LulzBot Mini with Aerostruder
G26 ; clear potential 'probe fail' condition
G21 ; set units to Millimetres
M107 ; disable fans
G90 ; absolute positioning
M82 ; set extruder to absolute mode
G92 E0 ; set extruder position to 0
M140 S115 ; start bed heating up
G28 ; home all axes
G0 X0 Y187 Z156 F200 ; move away from endstops
M109 R170 ; soften filament before retraction
G1 E-15 F75 ; retract filament
M109 R170 ; wait for extruder to reach wiping temp
G1 X45 Y173 F11520 ; move above wiper pad
G1 Z0 F1200 ; push nozzle into wiper
G1 X42 Y173 Z-.5 F4000 ; wiping
G1 X52 Y171 Z-.5 F4000 ; wiping
G1 X42 Y173 Z0 F4000 ; wiping
G1 X52 Y171 F4000 ; wiping
G1 X42 Y173 F4000 ; wiping
G1 X52 Y171 F4000 ; wiping
G1 X42 Y173 F4000 ; wiping
G1 X52 Y171 F4000 ; wiping
G1 X57 Y173 F4000 ; wiping
G1 X77 Y171 F4000 ; wiping
G1 X57 Y173 F4000 ; wiping
G1 X77 Y171 F4000 ; wiping
G1 X57 Y173 F4000 ; wiping
G1 X87 Y171 F4000 ; wiping
G1 X77 Y173 F4000 ; wiping
G1 X97 Y171 F4000 ; wiping
G1 X77 Y173 F4000 ; wiping
G1 X97 Y171 F4000 ; wiping
G1 X77 Y173 F4000 ; wiping
G1 X97 Y171 F4000 ; wiping
G1 X107 Y173 F4000 ; wiping
G1 X97 Y171 F4000 ; wiping
G1 X107 Y173 F4000 ; wiping
G1 X97 Y171 F4000 ; wiping
G1 X107 Y173 F4000 ; wiping
G1 X112 Y171 Z-0.5 F1000 ; wiping
G1 Z10 ; raise extruder
G28 X0 Y0 ; home X and Y
G0 X0 Y187 F200 ; move away from endstops
M109 R170 ; wait for extruder to reach probe temp
M204 S300 ; set probing acceleration
G29 ; start auto-leveling sequence
M204 S2000 ; restore standard acceleration
G28 X0 Y0 ; re-home to account for build variance of earlier mini builds
G0 X0 Y187 F200 ; move away from endstops
G0 Y152 F4000 ; move in front of wiper pad
G4 S1 ; pause
M400 ; wait for moves to finish
M117 Heating... ; progress indicator message on LCD
M109 R245 ; wait for extruder to reach printing temp
M190 S116 ; wait for bed to reach printing temp
G1 Z2 E0 F75 ; prime tiny bit of filament into the nozzle
M117 Mini Printing... ; progress indicator message on LCD


M221 S100
;LAYER_COUNT:186
;LAYER:0
M107
M204 S1000
M205 X10
G0 F2250 X93.25 Y42.739 Z0.42
G0 X93.091 Y43.227
;TYPE:SKIRT
G1 F900 X93.25 Y42.739 E0.02027
G1 X93.482 Y42.281 E0.04056
G1 X93.783 Y41.864 E0.06087
G1 X94.144 Y41.5 E0.08112
G1 X94.558 Y41.196 E0.10141
G1 X95.013 Y40.959 E0.12168
G1 X95.5 Y40.796 E0.14196
G1 X96.007 Y40.711 E0.16227
G1 X96.301 Y40.698 E0.1739
G1 X102.423 Y40.699 E0.41573
G1 X102.934 Y40.739 E0.43597
G1 X103.434 Y40.858 E0.45628
G1 X103.909 Y41.053 E0.47656
G1 X104.348 Y41.319 E0.49684
G1 X104.74 Y41.65 E0.5171
G1 X105.076 Y42.038 E0.53738
G1 X105.348 Y42.474 E0.55768
G1 X105.55 Y42.946 E0.57796
G1 X105.675 Y43.444 E0.59824
G1 X105.722 Y43.998 E0.6202
G1 X105.731 Y75.847 E1.87831
G1 X105.888 Y81.381 E2.097
G1 X106.35 Y86.818 E2.31255
G1 X107.121 Y92.23 E2.52849
G1 X108.204 Y97.633 E2.74617
G1 X108.843 Y100.237 E2.85208
G1 X109.568 Y102.874 E2.96012
G1 X111.243 Y108.08 E3.17615
G1 X113.982 Y115.01 E3.4705
G1 X114.133 Y115.501 E3.4908
G1 X114.213 Y116.215 E3.51918
G1 X114.222 Y119.972 E3.66759
G1 X114.183 Y120.484 E3.68787
G1 X114.066 Y120.984 E3.70816
G1 X113.872 Y121.459 E3.72842
G1 X113.607 Y121.899 E3.74871
G1 X113.277 Y122.292 E3.76898
G1 X112.889 Y122.629 E3.78929
G1 X112.455 Y122.902 E3.80954
G1 X111.983 Y123.105 E3.82984
G1 X111.485 Y123.232 E3.85014
G1 X110.921 Y123.28 E3.8725
G1 X101.381 Y123.278 E4.24935
G1 X101.089 Y123.265 E4.26089
G1 X97.046 Y122.905 E4.42123
G1 X91.573 Y122.674 E4.63762
G1 X86.097 Y122.753 E4.85396
G1 X79.405 Y123.268 E5.11909
G1 X79.152 Y123.278 E5.12909
G1 X42.44 Y123.28 E6.57929
G1 X41.928 Y123.24 E6.59958
G1 X41.429 Y123.121 E6.61984
G1 X40.954 Y122.926 E6.64013
G1 X40.515 Y122.66 E6.6604
G1 X40.122 Y122.329 E6.6807
G1 X39.786 Y121.941 E6.70098
G1 X39.514 Y121.506 E6.72124
G1 X39.313 Y121.034 E6.74151
G1 X39.187 Y120.536 E6.7618
G1 X39.14 Y119.979 E6.78388
G1 X39.141 Y113.744 E7.03018
G1 X39.181 Y113.233 E7.05042
G1 X39.3 Y112.733 E7.07073
G1 X39.495 Y112.258 E7.09101
G1 X39.761 Y111.819 E7.11129
G1 X40.092 Y111.427 E7.13155
G1 X40.48 Y111.091 E7.15183
G1 X40.947 Y110.803 E7.1735
G1 X43.088 Y109.716 E7.26835
G1 X47.918 Y107.013 E7.48699
G1 X52.52 Y104.085 E7.70246
G1 X56.95 Y100.899 E7.91801
G1 X61.215 Y97.45 E8.13468
G1 X65.269 Y93.776 E8.3508
G1 X69.098 Y89.887 E8.56639
G1 X72.736 Y85.75 E8.78401
G1 X74.414 Y83.667 E8.88967
G1 X77.675 Y79.254 E9.10642
G1 X80.674 Y74.675 E9.32264
G1 X83.416 Y69.92 E9.53947
G1 X85.871 Y65.047 E9.75501
G1 X88.051 Y60.03 E9.9711
G1 X89.049 Y57.446 E10.08052
G1 X89.931 Y54.939 E10.1855
G1 X91.541 Y49.676 E10.40291
G1 X92.976 Y43.708 E10.64538
G0 F810 X93.091 Y43.227
G1 F420 E9.64538
G0 F2250 X95.626 Y45.189
G0 X97.491 Y45.189
;TYPE:WALL-INNER
G1 F420 E10.66493
G1 F900 X101.231 Y45.189 E10.76342
G1 X101.231 Y115.289 E12.60949
G1 X77.944 Y115.289 E13.22275
G1 X77.943 Y118.789 E13.31492
G1 X43.631 Y118.789 E14.21852
G1 X43.631 Y114.939 E14.31991
G1 X76.631 Y114.939 E15.18896
G1 X76.631 Y95.939 E15.68932
G1 X77.141 Y95.939 E15.70275
G1 X79.503 Y93.814 E15.78642
G1 X97.491 Y93.814 E16.26013
G1 X97.491 Y45.931 E17.52112
G0 F810 X97.491 Y45.189
G1 F420 E16.52112
G0 F2250 X95.626 Y45.189
G0 X88.314 Y91.949
G0 X88.301 Y92.028
G0 X87.577 Y96.66
G0 X87.565 Y96.739
G0 X87.566 Y96.74
G0 X87.886 Y94.9
G1 F420 E17.54066
G1 F900 X86.835 Y94.777 E17.56853
G1 X85.776 Y94.777 E17.59641
G1 X84.725 Y94.9 E17.62428
G1 X83.695 Y95.144 E17.65216
G1 X82.701 Y95.506 E17.68002
G1 X81.756 Y95.981 E17.70787
G1 X80.871 Y96.563 E17.73576
G1 X80.059 Y97.244 E17.76367
G1 X79.333 Y98.014 E17.79154
G1 X78.701 Y98.863 E17.81941
G1 X78.171 Y99.778 E17.84726
G1 X77.752 Y100.751 E17.87516
G1 X77.45 Y101.766 E17.90305
G1 X77.266 Y102.807 E17.93089
G1 X77.203 Y103.864 E17.95877
G1 X77.266 Y104.921 E17.98666
G1 X77.45 Y105.962 E18.0145
G1 X77.752 Y106.977 E18.04238
G1 X78.171 Y107.949 E18.07026
G1 X78.701 Y108.865 E18.09813
G1 X79.333 Y109.714 E18.126
G1 X80.059 Y110.484 E18.15387
G1 X80.871 Y111.166 E18.1818
G1 X81.756 Y111.746 E18.20966
G1 X82.7 Y112.222 E18.2375
G1 X83.695 Y112.584 E18.26539
G1 X84.726 Y112.828 E18.29329
G1 X85.777 Y112.95 E18.32115
G1 X86.834 Y112.95 E18.34899
G1 X87.885 Y112.828 E18.37685
G1 X88.916 Y112.584 E18.40475
G1 X89.912 Y112.222 E18.43266
G1 X90.857 Y111.746 E18.46053
G1 X91.74 Y111.165 E18.48836
G1 X92.552 Y110.484 E18.51627
G1 X93.278 Y109.714 E18.54414
G1 X93.91 Y108.865 E18.57201
G1 X94.44 Y107.949 E18.59988
G1 X94.859 Y106.977 E18.62776
G1 X95.162 Y105.962 E18.65565
G1 X95.345 Y104.921 E18.68349
G1 X95.409 Y103.864 E18.71137
G1 X95.345 Y102.807 E18.73926
G1 X95.162 Y101.766 E18.7671
G1 X94.859 Y100.751 E18.79499
G1 X94.44 Y99.778 E18.82289
G1 X93.91 Y98.863 E18.85074
G1 X93.278 Y98.014 E18.87861
G1 X92.552 Y97.244 E18.90648
G1 X91.741 Y96.563 E18.93437
G1 X90.856 Y95.981 E18.96226
G1 X89.911 Y95.506 E18.99012
G1 X88.916 Y95.144 E19.018
G1 X88.608 Y95.071 E19.02634
G0 F810 X87.886 Y94.9
G1 F420 E18.02634
G0 F2250 X87.566 Y96.74
G0 X93.319 Y105.651
G0 X93.362 Y105.718
G0 X100.698 Y117.08
G0 X100.741 Y117.148
G0 X100.738 Y117.142
G0 X102.591 Y117.439
G1 F420 E19.04588
G1 F900 X109.731 Y117.439 E19.23391
G1 X109.731 Y118.789 E19.26946
G1 X102.592 Y118.789 E19.45746
G1 X102.591 Y118.181 E19.47347
G0 F810 X102.591 Y117.439
G0 F2250 X102.191 Y117.039
G1 F420 E19.49301
G1 F900 X110.131 Y117.039 E19.70211
G1 X110.131 Y119.189 E19.75873
G1 X102.192 Y119.189 E19.9678
G1 X102.191 Y117.781 E20.00488
G0 F810 X102.191 Y117.039
G0 F2250 X101.631 Y115.689
G1 F420 E20.02442
G1 F900 X78.344 Y115.689 E20.63768
G1 X78.343 Y119.189 E20.72985
G1 X43.231 Y119.189 E21.65452
G1 X43.231 Y114.539 E21.77698
G1 X76.231 Y114.539 E22.64602
G1 X76.231 Y95.539 E23.14639
G1 X76.988 Y95.539 E23.16632
G1 X79.349 Y93.414 E23.24997
G1 X97.091 Y93.414 E23.7172
G1 X97.091 Y44.789 E24.99773
G1 X101.631 Y44.789 E25.11729
G1 X101.631 Y114.947 E26.96489
G0 F810 X101.631 Y115.689
G1 F420 E25.96489
G0 F2250 X103.084 Y115.586
G0 X103.089 Y115.589
G0 X103.021 Y115.546
G0 X91.918 Y108.551
G0 X91.85 Y108.508
G0 X91.852 Y108.51
G0 X92.971 Y109.457
G1 F420 E26.98443
G1 F900 X93.575 Y108.645 E27.01108
G1 X94.082 Y107.769 E27.03773
G1 X94.482 Y106.84 E27.06437
G1 X94.772 Y105.87 E27.09103
G1 X94.947 Y104.874 E27.11766
G1 X95.008 Y103.864 E27.14431
G1 X94.947 Y102.854 E27.17096
G1 X94.772 Y101.858 E27.19759
G1 X94.482 Y100.888 E27.22425
G1 X94.082 Y99.958 E27.25091
G1 X93.575 Y99.083 E27.27754
G1 X92.971 Y98.271 E27.30419
G1 X92.277 Y97.535 E27.33083
G1 X91.502 Y96.884 E27.35749
G1 X90.656 Y96.328 E27.38415
G1 X89.752 Y95.874 E27.41079
G1 X88.801 Y95.528 E27.43744
G1 X87.816 Y95.295 E27.46409
G1 X86.812 Y95.177 E27.49072
G1 X85.799 Y95.177 E27.51739
G1 X84.795 Y95.295 E27.54402
G1 X83.81 Y95.528 E27.57067
G1 X82.86 Y95.874 E27.5973
G1 X81.956 Y96.328 E27.62394
G1 X81.11 Y96.884 E27.6506
G1 X80.334 Y97.535 E27.67727
G1 X79.64 Y98.271 E27.70391
G1 X79.036 Y99.083 E27.73056
G1 X78.529 Y99.958 E27.75719
G1 X78.129 Y100.888 E27.78386
G1 X77.84 Y101.858 E27.81051
G1 X77.664 Y102.854 E27.83715
G1 X77.604 Y103.864 E27.86379
G1 X77.664 Y104.874 E27.89044
G1 X77.84 Y105.87 E27.91707
G1 X78.129 Y106.84 E27.94373
G1 X78.529 Y107.769 E27.97036
G1 X79.036 Y108.645 E27.99702
G1 X79.64 Y109.457 E28.02367
G1 X80.334 Y110.193 E28.05031
G1 X81.11 Y110.844 E28.07698
G1 X81.956 Y111.399 E28.10363
G1 X82.859 Y111.854 E28.13026
G1 X83.81 Y112.2 E28.15691
G1 X84.795 Y112.433 E28.18356
G1 X85.8 Y112.55 E28.21021
G1 X86.811 Y112.55 E28.23683
G1 X87.816 Y112.433 E28.26348
G1 X88.801 Y112.2 E28.29013
G1 X89.753 Y111.854 E28.31681
G1 X90.657 Y111.399 E28.34346
G1 X91.501 Y110.844 E28.37006
G1 X92.277 Y110.193 E28.39674
G1 X92.462 Y109.997 E28.40383
G0 F810 X92.971 Y109.457
G1 F420 E27.40383
G0 F2250 X91.852 Y108.51
G0 X84.23 Y96.934
G0 X83.954 Y96.008
;TYPE:WALL-OUTER
G1 F420 E28.42337
G1 F900 X83.058 Y96.334 E28.46104
G1 X82.206 Y96.762 E28.4987
G1 X81.409 Y97.286 E28.53638
G1 X80.678 Y97.899 E28.57407
G1 X80.024 Y98.593 E28.61174
G1 X79.454 Y99.358 E28.64942
G1 X78.977 Y100.183 E28.68706
G1 X78.6 Y101.059 E28.72474
G1 X78.327 Y101.973 E28.76242
G1 X78.161 Y102.912 E28.80009
G1 X78.105 Y103.864 E28.83776
G1 X78.161 Y104.816 E28.87543
G1 X78.327 Y105.755 E28.9131
G1 X78.6 Y106.669 E28.95078
G1 X78.977 Y107.544 E28.98841
G1 X79.454 Y108.37 E29.02609
G1 X80.024 Y109.135 E29.06378
G1 X80.678 Y109.829 E29.10145
G1 X81.409 Y110.442 E29.13913
G1 X82.206 Y110.965 E29.17679
G1 X83.058 Y111.394 E29.21447
G1 X83.954 Y111.72 E29.25213
G1 X84.882 Y111.94 E29.28981
G1 X85.829 Y112.05 E29.32747
G1 X86.782 Y112.05 E29.36511
G1 X87.729 Y111.94 E29.40277
G1 X88.657 Y111.72 E29.44045
G1 X89.554 Y111.394 E29.47815
G1 X90.406 Y110.965 E29.51583
G1 X91.202 Y110.442 E29.55345
G1 X91.933 Y109.829 E29.59114
G1 X92.587 Y109.135 E29.62881
G1 X93.157 Y108.37 E29.66649
G1 X93.634 Y107.544 E29.70417
G1 X94.011 Y106.669 E29.74181
G1 X94.285 Y105.755 E29.7795
G1 X94.45 Y104.816 E29.81716
G1 X94.507 Y103.864 E29.85483
G1 X94.45 Y102.912 E29.89251
G1 X94.285 Y101.973 E29.93017
G1 X94.011 Y101.059 E29.96786
G1 X93.634 Y100.183 E30.00553
G1 X93.157 Y99.358 E30.04318
G1 X92.587 Y98.593 E30.08086
G1 X91.933 Y97.899 E30.11853
G1 X91.203 Y97.286 E30.15619
G1 X90.406 Y96.762 E30.19387
G1 X89.554 Y96.334 E30.23153
G1 X88.657 Y96.008 E30.26923
G1 X87.729 Y95.788 E30.3069
G1 X86.783 Y95.677 E30.34453
G1 X85.828 Y95.677 E30.38225
G1 X84.882 Y95.788 E30.41988
G1 X84.436 Y95.894 E30.43799
G0 F810 X83.954 Y96.008
G0 F2250 X83.719 Y96.093
G1 F420 E29.43799
G0 F2250 X84.048 Y96.999
G0 X84.046 Y96.996
G0 X83.99 Y96.939
G0 X79.222 Y92.017
G0 X79.166 Y91.959
G0 X79.156 Y91.949
G0 X79.156 Y92.914
G1 F420 E30.45754
G1 F900 X96.591 Y92.914 E31.14626
G1 X96.591 Y44.289 E33.06706
G1 X102.131 Y44.289 E33.2859
G1 X102.131 Y116.539 E36.13993
G1 X110.631 Y116.539 E36.4757
G1 X110.631 Y119.689 E36.60013
G1 X101.692 Y119.689 E36.95324
G1 X101.691 Y116.189 E37.0915
G1 X78.844 Y116.189 E37.994
G1 X78.843 Y119.689 E38.13226
G1 X42.731 Y119.689 E39.55876
G1 X42.731 Y114.039 E39.78195
G1 X75.731 Y114.039 E41.08552
G1 X75.731 Y95.039 E41.83606
G1 X76.796 Y95.039 E41.87813
G1 X78.789 Y93.245 E41.98406
G0 F810 X79.156 Y92.914
G0 F2250 X79.406 Y92.914
G0 X79.149 Y94.2
;TYPE:SKIN
G1 F420 E42.00361
G1 F900 X101.181 Y94.2 E42.87392
G1 X101.281 Y94.2
G0 F2250 X101.181 Y93.6
G1 F900 X97.541 Y93.6 E43.01771
G1 X97.441 Y93.6
G0 F2250 X97.541 Y93
G1 F900 X101.181 Y93 E43.1615
G1 X101.281 Y93
G0 F2250 X101.181 Y92.4
G1 F900 X97.541 Y92.4 E43.30529
G1 X97.441 Y92.4
G0 F2250 X97.541 Y91.8
G1 F900 X101.181 Y91.8 E43.44908
G1 X101.281 Y91.8
G0 F2250 X101.181 Y91.2
G1 F900 X97.541 Y91.2 E43.59286
G1 X97.441 Y91.2
G0 F2250 X97.541 Y90.6
G1 F900 X101.181 Y90.6 E43.73665
G1 X101.281 Y90.6
G0 F2250 X101.181 Y90
G1 F900 X97.541 Y90 E43.88044
G1 X97.441 Y90
G0 F2250 X97.541 Y89.4
G1 F900 X101.181 Y89.4 E44.02423
G1 X101.281 Y89.4
G0 F2250 X101.181 Y88.8
G1 F900 X97.541 Y88.8 E44.16801
G1 X97.441 Y88.8
G0 F2250 X97.541 Y88.2
G1 F900 X101.181 Y88.2 E44.3118
G1 X101.281 Y88.2
G0 F2250 X101.181 Y87.6
G1 F900 X97.541 Y87.6 E44.45559
G1 X97.441 Y87.6
G0 F2250 X97.541 Y87
G1 F900 X101.181 Y87 E44.59938
G1 X101.281 Y87
G0 F2250 X101.181 Y86.4
G1 F900 X97.541 Y86.4 E44.74317
G1 X97.441 Y86.4
G0 F2250 X97.541 Y85.8
G1 F900 X101.181 Y85.8 E44.88695
G1 X101.281 Y85.8
G0 F2250 X101.181 Y85.2
G1 F900 X97.541 Y85.2 E45.03074
G1 X97.441 Y85.2
G0 F2250 X97.541 Y84.6
G1 F900 X101.181 Y84.6 E45.17453
G1 X101.281 Y84.6
G0 F2250 X101.181 Y84
G1 F900 X97.541 Y84 E45.31832
G1 X97.441 Y84
G0 F2250 X97.541 Y83.4
G1 F900 X101.181 Y83.4 E45.46211
G1 X101.281 Y83.4
G0 F2250 X101.181 Y82.8
G1 F900 X97.541 Y82.8 E45.60589
G1 X97.441 Y82.8
G0 F2250 X97.541 Y82.2
G1 F900 X101.181 Y82.2 E45.74968
G1 X101.281 Y82.2
G0 F2250 X101.181 Y81.6
G1 F900 X97.541 Y81.6 E45.89347
G1 X97.441 Y81.6
G0 F2250 X97.541 Y81
G1 F900 X101.181 Y81 E46.03726
G1 X101.281 Y81
G0 F2250 X101.181 Y80.4
G1 F900 X97.541 Y80.4 E46.18105
G1 X97.441 Y80.4
G0 F2250 X97.541 Y79.8
G1 F900 X101.181 Y79.8 E46.32483
G1 X101.281 Y79.8
G0 F2250 X101.181 Y79.2
G1 F900 X97.541 Y79.2 E46.46862
G1 X97.441 Y79.2
G0 F2250 X97.541 Y78.6
G1 F900 X101.181 Y78.6 E46.61241
G1 X101.281 Y78.6
G0 F2250 X101.181 Y78
G1 F900 X97.541 Y78 E46.7562
G1 X97.441 Y78
G0 F2250 X97.541 Y77.4
G1 F900 X101.181 Y77.4 E46.89998
G1 X101.281 Y77.4
G0 F2250 X101.181 Y76.8
G1 F900 X97.541 Y76.8 E47.04377
G1 X97.441 Y76.8
G0 F2250 X97.541 Y76.2
G1 F900 X101.181 Y76.2 E47.18756
G1 X101.281 Y76.2
G0 F2250 X101.181 Y75.6
G1 F900 X97.541 Y75.6 E47.33135
G1 X97.441 Y75.6
G0 F2250 X97.541 Y75
G1 F900 X101.181 Y75 E47.47514
G1 X101.281 Y75
G0 F2250 X101.181 Y74.4
G1 F900 X97.541 Y74.4 E47.61892
G1 X97.441 Y74.4
G0 F2250 X97.541 Y73.8
G1 F900 X101.181 Y73.8 E47.76271
G1 X101.281 Y73.8
G0 F2250 X101.181 Y73.2
G1 F900 X97.541 Y73.2 E47.9065
G1 X97.441 Y73.2
G0 F2250 X97.541 Y72.6
G1 F900 X101.181 Y72.6 E48.05029
G1 X101.281 Y72.6
G0 F2250 X101.181 Y72
G1 F900 X97.541 Y72 E48.19408
G1 X97.441 Y72
G0 F2250 X97.541 Y71.4
G1 F900 X101.181 Y71.4 E48.33786
G1 X101.281 Y71.4
G0 F2250 X101.181 Y70.8
G1 F900 X97.541 Y70.8 E48.48165
G1 X97.441 Y70.8
G0 F2250 X97.541 Y70.2
G1 F900 X101.181 Y70.2 E48.62544
G1 X101.281 Y70.2
G0 F2250 X101.181 Y69.6
G1 F900 X97.541 Y69.6 E48.76923
G1 X97.441 Y69.6
G0 F2250 X97.541 Y69
G1 F900 X101.181 Y69 E48.91302
G1 X101.281 Y69
G0 F2250 X101.181 Y68.4
G1 F900 X97.541 Y68.4 E49.0568
G1 X97.441 Y68.4
G0 F2250 X97.541 Y67.8
G1 F900 X101.181 Y67.8 E49.20059
G1 X101.281 Y67.8
G0 F2250 X101.181 Y67.2
G1 F900 X97.541 Y67.2 E49.34438
G1 X97.441 Y67.2
G0 F2250 X97.541 Y66.6
G1 F900 X101.181 Y66.6 E49.48817
G1 X101.281 Y66.6
G0 F2250 X101.181 Y66
G1 F900 X97.541 Y66 E49.63195
G1 X97.441 Y66
G0 F2250 X97.541 Y65.4
G1 F900 X101.181 Y65.4 E49.77574
G1 X101.281 Y65.4
G0 F2250 X101.181 Y64.8
G1 F900 X97.541 Y64.8 E49.91953
G1 X97.441 Y64.8
G0 F2250 X97.541 Y64.2
G1 F900 X101.181 Y64.2 E50.06332
G1 X101.281 Y64.2
