;Generated by Cura LulzBot Edition GCodeWriter Version: 2.6.56
;FLAVOR:RepRap
;TIME:11098
;Filament used: 7.00128m
;Layer height: 0.378
;Generated with Cura_SteamEngine 2.6.56
;This G-Code has been generated specifically for the LulzBot Mini with standard extruder
G26                                ; clear potential 'probe fail' condition
G21                                ; set units to Millimetres
M107                               ; disable fans
G90                                ; absolute positioning
M82                                ; set extruder to absolute mode
G92 E0                             ; set extruder position to 0
M140 S115   ; start bed heating up
M109 R175 ; soften filament before homing Z
G28                                ; home all axes
M109 R170  ; wait for extruder to reach wiping temp
G1 Z150 E-15 F75                   ; retract filament
G1 X45 Y174 F11520                 ; move above wiper pad
G1 Z0  F1200                       ; push nozzle into wiper
G1 X45 Y174 Z-.5 F4000             ; wiping
G1 X55 Y172 Z-.5 F4000             ; wiping
G1 X45 Y174 Z0 F4000               ; wiping
G1 X55 Y172 F4000                  ; wiping
G1 X45 Y174 F4000                  ; wiping
G1 X55 Y172 F4000                  ; wiping
G1 X45 Y174 F4000                  ; wiping
G1 X55 Y172 F4000                  ; wiping
G1 X60 Y174 F4000                  ; wiping
G1 X80 Y172 F4000                  ; wiping
G1 X60 Y174 F4000                  ; wiping
G1 X80 Y172 F4000                  ; wiping
G1 X60 Y174 F4000                  ; wiping
G1 X90 Y172 F4000                  ; wiping
G1 X80 Y174 F4000                  ; wiping
G1 X100 Y172 F4000                 ; wiping
G1 X80 Y174 F4000                  ; wiping
G1 X100 Y172 F4000                 ; wiping
G1 X80 Y174 F4000                  ; wiping
G1 X100 Y172 F4000                 ; wiping
G1 X110 Y174 F4000                 ; wiping
G1 X100 Y172 F4000                 ; wiping
G1 X110 Y174 F4000                 ; wiping
G1 X100 Y172 F4000                 ; wiping
G1 X110 Y174 F4000                 ; wiping
G1 X115 Y172 Z-0.5 F1000           ; wiping
G1 Z10                             ; raise extruder
G28 X0 Y0                          ; home X and Y
M109 R170 ; wait for extruder to reach probe temp
M204 S300                          ; set probing acceleration
G29                                ; start auto-leveling sequence
M204 S2000                         ; restore standard acceleration
G1 X5 Y15 Z10 F5000                ; move up off last probe point
G4 S1                              ; pause
M400                               ; wait for moves to finish
M117 Heating...                    ; progress indicator message on LCD
M109 R245 ; wait for extruder to reach printing temp
M190 S116   ; wait for bed to reach printing temp
G1 Z2 E0 F75                       ; prime tiny bit of filment into the nozzle
M117 Mini Printing...              ; progress indicator message on LCD

;LAYER_COUNT:16
;LAYER:0
M107
M204 S800
M205 X2
G0 F2250 X8.451 Y24.207 Z0.42
;TYPE:WALL-INNER
G1 F900 X9.111 Y24.119 E0.01753
G1 X63.029 Y24.119 E1.43745
G1 X63.693 Y24.207 E1.45509
G1 X64.268 Y24.444 E1.47147
G1 X64.764 Y24.825 E1.48794
G1 X65.145 Y25.322 E1.50443
G1 X65.383 Y25.897 E1.52082
G1 X65.47 Y26.559 E1.53841
G1 X65.47 Y31.919 E1.67956
G1 X35.47 Y31.919 E2.4696
G1 X35.47 Y46.919 E2.86462
G1 X6.67 Y46.919 E3.62307
G1 X6.67 Y26.559 E4.15924
G1 X6.757 Y25.897 E4.17683
G1 X6.995 Y25.322 E4.19321
G1 X7.376 Y24.825 E4.20971
G1 X7.78 Y24.515 E4.22312
G0 F810 X7.87 Y24.446
G0 X8.451 Y24.207
G0 F2250 X8.476 Y24.303
G0 X12.293 Y26.855
G0 X12.38 Y26.903
G1 F420 E4.24266
G1 F900 X12.07 Y27.685 E4.26481
G1 X11.965 Y28.519 E4.28695
G1 X12.07 Y29.353 E4.30908
G1 X12.38 Y30.135 E4.33124
G1 X12.874 Y30.816 E4.35339
G1 X13.523 Y31.352 E4.37556
G1 X14.283 Y31.711 E4.39769
G1 X15.109 Y31.867 E4.41983
G1 X15.948 Y31.816 E4.44197
G1 X16.749 Y31.555 E4.46415
G1 X17.458 Y31.104 E4.48628
G1 X18.034 Y30.492 E4.50841
G1 X18.439 Y29.754 E4.53058
G1 X18.648 Y28.939 E4.55274
G1 X18.648 Y28.1 E4.57483
G1 X18.439 Y27.285 E4.59699
G1 X18.034 Y26.548 E4.61914
G1 X17.459 Y25.934 E4.64129
G1 X16.749 Y25.484 E4.66343
G1 X15.948 Y25.223 E4.68561
G1 X15.109 Y25.172 E4.70775
G1 X14.283 Y25.328 E4.72989
G1 X13.523 Y25.686 E4.75201
G1 X12.874 Y26.223 E4.77419
G1 X12.816 Y26.303 E4.7768
G0 F810 X12.38 Y26.903
G0 F2250 X12.293 Y26.855
G0 X12.845 Y26.196
G0 X13.502 Y25.653
G0 X14.271 Y25.29
G0 X15.107 Y25.133
G0 X53.615 Y28.519
G0 X53.715 Y28.519
G1 F420 E4.79634
G1 F900 X53.82 Y29.353 E4.81847
G1 X54.13 Y30.135 E4.84063
G1 X54.624 Y30.816 E4.86278
G1 X55.273 Y31.352 E4.88495
G1 X56.033 Y31.711 E4.90708
G1 X56.859 Y31.867 E4.92922
G1 X57.698 Y31.816 E4.95136
G1 X58.499 Y31.555 E4.97354
G1 X59.208 Y31.104 E4.99567
G1 X59.784 Y30.492 E5.0178
G1 X60.189 Y29.754 E5.03997
G1 X60.398 Y28.939 E5.06213
G1 X60.398 Y28.1 E5.08422
G1 X60.189 Y27.285 E5.10638
G1 X59.784 Y26.548 E5.12853
G1 X59.209 Y25.934 E5.15068
G1 X58.499 Y25.484 E5.17282
G1 X57.698 Y25.223 E5.195
G1 X56.859 Y25.172 E5.21714
G1 X56.033 Y25.328 E5.23928
G1 X55.273 Y25.686 E5.2614
G1 X54.624 Y26.223 E5.28358
G1 X54.13 Y26.903 E5.30572
G1 X53.82 Y27.685 E5.32787
G1 X53.807 Y27.783 E5.33047
G0 F810 X53.715 Y28.519
G0 F2250 X53.615 Y28.519
G0 X53.782 Y29.362
G0 X54.095 Y30.154
G0 X54.595 Y30.843
G0 X55.252 Y31.385
G0 X56.021 Y31.749
G0 X56.857 Y31.906
G0 X57.705 Y31.855
G0 X58.487 Y31.664
G0 X58.348 Y31.235
;TYPE:WALL-OUTER
G1 F420 E5.35001
G1 F900 X58.983 Y30.831 E5.36983
G1 X59.498 Y30.284 E5.38962
G1 X59.86 Y29.624 E5.40944
G1 X60.047 Y28.895 E5.42926
G1 X60.047 Y28.144 E5.44904
G1 X59.86 Y27.415 E5.46886
G1 X59.498 Y26.756 E5.48866
G1 X58.983 Y26.207 E5.50848
G1 X58.348 Y25.804 E5.52829
G1 X57.632 Y25.571 E5.54812
G1 X56.881 Y25.525 E5.56793
G1 X56.142 Y25.665 E5.58774
G1 X55.463 Y25.985 E5.60751
G1 X54.882 Y26.465 E5.62735
G1 X54.44 Y27.073 E5.64715
G1 X54.163 Y27.773 E5.66698
G1 X54.069 Y28.519 E5.68678
G1 X54.163 Y29.265 E5.70658
G1 X54.44 Y29.965 E5.7264
G1 X54.882 Y30.574 E5.74622
G1 X55.463 Y31.053 E5.76605
G1 X56.142 Y31.374 E5.78583
G1 X56.881 Y31.514 E5.80564
G1 X57.632 Y31.468 E5.82545
G1 X57.642 Y31.464 E5.82573
G0 F810 X58.348 Y31.235
G0 F2250 X58.559 Y31.101
G0 X58.8 Y31.482
G0 X65.4 Y31.849
G0 X65.821 Y32.27
G1 F420 E5.84527
G1 F900 X35.821 Y32.27 E6.63532
G1 X35.821 Y47.27 E7.03034
G1 X6.319 Y47.27 E7.80727
G1 X6.319 Y26.536 E8.35329
G1 X6.415 Y25.807 E8.37266
G1 X6.689 Y25.144 E8.39155
G1 X7.126 Y24.575 E8.41044
G1 X7.695 Y24.138 E8.42934
G1 X8.358 Y23.865 E8.44822
G1 X9.088 Y23.768 E8.46761
G1 X63.052 Y23.768 E9.88874
G1 X63.783 Y23.865 E9.90816
G1 X64.445 Y24.138 E9.92702
G1 X65.014 Y24.575 E9.94591
G1 X65.451 Y25.144 E9.96481
G1 X65.725 Y25.807 E9.9837
G1 X65.821 Y26.536 E10.00306
G1 X65.821 Y31.528 E10.13453
G0 F810 X65.821 Y32.27
G0 F2250 X65.571 Y32.27
G0 X65.4 Y31.849
G0 X56.857 Y31.906
G0 X18.075 Y30.593
G0 X17.748 Y30.284
G1 F420 E10.15407
G1 F900 X18.11 Y29.624 E10.17389
G1 X18.297 Y28.895 E10.19371
G1 X18.297 Y28.144 E10.21349
G1 X18.11 Y27.415 E10.23331
G1 X17.748 Y26.756 E10.25311
G1 X17.233 Y26.207 E10.27293
G1 X16.598 Y25.804 E10.29274
G1 X15.882 Y25.571 E10.31257
G1 X15.131 Y25.525 E10.33238
G1 X14.392 Y25.665 E10.35219
G1 X13.713 Y25.985 E10.37196
G1 X13.132 Y26.465 E10.3918
G1 X12.69 Y27.073 E10.4116
G1 X12.413 Y27.773 E10.43142
G1 X12.319 Y28.519 E10.45122
G1 X12.413 Y29.265 E10.47103
G1 X12.69 Y29.965 E10.49085
G1 X13.132 Y30.574 E10.51067
G1 X13.713 Y31.053 E10.5305
G1 X14.392 Y31.374 E10.55028
G1 X15.131 Y31.514 E10.57008
G1 X15.882 Y31.468 E10.5899
G1 X16.598 Y31.235 E10.60973
G1 X17.233 Y30.831 E10.62955
G1 X17.24 Y30.824 E10.62981
G0 F810 X17.748 Y30.284
G0 F2250 X17.868 Y30.065
G0 X18.275 Y30.154
;TYPE:SKIN
G1 F420 E10.64935
G1 F900 X34.989 Y46.868 E11.58307
G1 X35.059 Y46.938
G0 F2250 X35.42 Y46.451
G1 F900 X18.537 Y29.568 E12.52623
G1 X18.467 Y29.498
G0 F2250 X18.698 Y28.88
G1 F900 X35.42 Y45.602 E13.46039
G1 X35.49 Y45.672
G0 F2250 X35.42 Y44.754
G1 F900 X18.676 Y28.01 E14.39579
G1 X18.606 Y27.94
G0 F2250 X18.703 Y27.917
G0 X18.17 Y26.588
G0 X18.127 Y26.612
G1 F900 X35.42 Y43.905 E15.36185
G1 X35.49 Y43.975
G0 F2250 X35.42 Y43.057
G1 F900 X16.532 Y24.168 E16.41705
G1 X16.462 Y24.098
G0 F2250 X17.38 Y24.168
G1 F900 X35.42 Y42.208 E17.42485
G1 X35.49 Y42.278
G0 F2250 X35.42 Y41.36
G1 F900 X18.229 Y24.168 E18.38524
G1 X18.159 Y24.098
G0 F2250 X19.077 Y24.168
G1 F900 X35.42 Y40.511 E19.29824
G1 X35.49 Y40.581
G0 F2250 X35.42 Y39.663
G1 F900 X19.926 Y24.168 E20.16383
G1 X19.856 Y24.098
G0 F2250 X20.774 Y24.168
G1 F900 X35.419 Y38.813 E20.98196
G1 X35.489 Y38.883
G0 F2250 X35.419 Y37.965
G1 F900 X21.623 Y24.168 E21.7527
G1 X21.553 Y24.098
G0 F2250 X22.471 Y24.168
G1 F900 X35.419 Y37.116 E22.47603
G1 X35.489 Y37.186
G0 F2250 X35.419 Y36.268
G1 F900 X23.32 Y24.168 E23.15196
G1 X23.25 Y24.098
G0 F2250 X24.168 Y24.168
G1 F900 X35.419 Y35.419 E23.7805
G1 X35.489 Y35.489
G0 F2250 X35.419 Y34.571
G1 F900 X25.017 Y24.168 E24.36163
G1 X24.947 Y24.098
G0 F2250 X25.865 Y24.168
G1 F900 X35.419 Y33.722 E24.89536
G1 X35.489 Y33.792
G0 F2250 X35.419 Y32.874
G1 F900 X26.714 Y24.168 E25.38168
G1 X26.644 Y24.098
G0 F2250 X27.563 Y24.168
G1 F900 X35.419 Y32.025 E25.82058
G1 X35.489 Y32.095
G0 F2250 X36.111 Y31.869
G1 F900 X28.411 Y24.168 E26.25077
G1 X28.341 Y24.098
G0 F2250 X29.26 Y24.168
G1 F900 X36.96 Y31.869 E26.68095
G1 X37.03 Y31.939
G0 F2250 X37.808 Y31.869
G1 F900 X30.108 Y24.168 E27.11114
G1 X30.038 Y24.098
G0 F2250 X30.957 Y24.168
G1 F900 X38.657 Y31.869 E27.54132
G1 X38.727 Y31.939
G0 F2250 X39.506 Y31.869
G1 F900 X31.805 Y24.168 E27.97153
G1 X31.735 Y24.098
G0 F2250 X32.654 Y24.168
G1 F900 X40.354 Y31.869 E28.40172
G1 X40.424 Y31.939
G0 F2250 X41.203 Y31.869
G1 F900 X33.502 Y24.168 E28.83193
G1 X33.432 Y24.098
G0 F2250 X34.351 Y24.168
G1 F900 X42.051 Y31.869 E29.26212
G1 X42.121 Y31.939
G0 F2250 X42.9 Y31.869
G1 F900 X35.199 Y24.168 E29.69233
G1 X35.129 Y24.098
G0 F2250 X36.048 Y24.168
G1 F900 X43.748 Y31.869 E30.12251
G1 X43.818 Y31.939
G0 F2250 X44.597 Y31.869
G1 F900 X36.896 Y24.168 E30.55273
G1 X36.826 Y24.098
G0 F2250 X37.745 Y24.168
G1 F900 X45.445 Y31.869 E30.98291
G1 X45.515 Y31.939
G0 F2250 X46.294 Y31.869
G1 F900 X38.593 Y24.168 E31.41312
G1 X38.523 Y24.098
G0 F2250 X39.442 Y24.168
G1 F900 X47.142 Y31.869 E31.84331
G1 X47.212 Y31.939
G0 F2250 X47.991 Y31.869
G1 F900 X40.29 Y24.168 E32.27352
G1 X40.22 Y24.098
G0 F2250 X41.139 Y24.168
G1 F900 X48.839 Y31.869 E32.7037
G1 X48.909 Y31.939
G0 F2250 X49.688 Y31.869
G1 F900 X41.988 Y24.168 E33.13389
G1 X41.918 Y24.098
G0 F2250 X42.836 Y24.168
G1 F900 X50.536 Y31.869 E33.56407
G1 X50.606 Y31.939
G0 F2250 X51.385 Y31.869
G1 F900 X43.685 Y24.168 E33.99426
G1 X43.615 Y24.098
G0 F2250 X44.533 Y24.168
G1 F900 X52.233 Y31.869 E34.42444
G1 X52.303 Y31.939
G0 F2250 X53.082 Y31.869
G1 F900 X45.382 Y24.168 E34.85463
G1 X45.312 Y24.098
G0 F2250 X46.23 Y24.168
G1 F900 X53.931 Y31.869 E35.28484
G1 X54.001 Y31.939
G0 F2250 X54.779 Y31.869
G1 F900 X47.079 Y24.168 E35.71503
G1 X47.009 Y24.098
G0 F2250 X47.927 Y24.168
G1 F900 X54.522 Y30.763 E36.08345
G1 X54.592 Y30.833
G0 F2250 X54.722 Y30.963
G1 F900 X55.628 Y31.869 E36.13406
G1 X55.698 Y31.939
G0 F2250 X55.698 Y31.819
G0 X56.857 Y31.906
G0 X57.705 Y31.855
G0 X58.687 Y31.553
G0 X58.662 Y31.51
G1 F900 X59.021 Y31.868 E36.15409
G0 F2250 X59.181 Y31.179
G1 F900 X59.87 Y31.868 E36.19258
G0 F2250 X60.718 Y31.868
G1 F900 X59.604 Y30.754 E36.25482
G1 X59.534 Y30.684
G0 F2250 X59.963 Y30.264
G1 F900 X61.567 Y31.868 E36.34442
G1 X61.637 Y31.938
G0 F2250 X62.415 Y31.868
G1 F900 X60.251 Y29.704 E36.46531
G1 X60.181 Y29.634
G0 F2250 X60.425 Y29.03
G1 F900 X63.264 Y31.868 E36.62388
G1 X63.334 Y31.938
G0 F2250 X64.112 Y31.868
G1 F900 X60.447 Y28.202 E36.82866
G1 X60.377 Y28.132
G0 F2250 X60.084 Y26.991
G1 F900 X64.961 Y31.868 E37.10111
G1 X65.031 Y31.938
G0 F2250 X65.419 Y31.478
G1 F900 X58.11 Y24.168 E37.50945
G1 X58.04 Y24.098
G0 F2250 X58.958 Y24.168
G1 F900 X65.419 Y30.629 E37.87039
G1 X65.489 Y30.699
G0 F2250 X65.419 Y29.781
G1 F900 X59.807 Y24.168 E38.18393
G1 X59.737 Y24.098
G0 F2250 X60.655 Y24.168
G1 F900 X65.419 Y28.932 E38.45007
G1 X65.489 Y29.002
G0 F2250 X65.419 Y28.084
G1 F900 X61.504 Y24.168 E38.6688
G1 X61.434 Y24.098
G0 F2250 X62.352 Y24.168
G1 F900 X65.419 Y27.235 E38.84014
G1 X65.489 Y27.305
G0 F2250 X65.393 Y26.36
G1 F900 X63.228 Y24.195 E38.96109
G1 X63.158 Y24.125
G0 F2250 X63.143 Y24.234
G0 X58.578 Y25.417
G0 X58.551 Y25.459
G1 F900 X57.261 Y24.168 E39.03318
G1 X57.191 Y24.098
G0 F2250 X56.412 Y24.168
G1 F900 X57.398 Y25.154 E39.08826
G1 X57.468 Y25.224
G0 F2250 X56.57 Y25.175
G1 F900 X55.564 Y24.168 E39.14449
G1 X55.494 Y24.098
G0 F2250 X54.715 Y24.168
G1 F900 X55.887 Y25.34 E39.20996
G1 X55.957 Y25.41
G0 F2250 X55.31 Y25.612
G1 F900 X53.867 Y24.168 E39.2906
G1 X53.797 Y24.098
G0 F2250 X53.018 Y24.168
G1 F900 X54.834 Y25.984 E39.39205
G1 X54.904 Y26.054
G0 F2250 X54.419 Y26.418
G1 F900 X52.17 Y24.168 E39.51772
G1 X52.1 Y24.098
G0 F2250 X51.321 Y24.168
G1 F900 X54.07 Y26.917 E39.67129
G1 X54.14 Y26.987
G0 F2250 X53.829 Y27.524
G1 F900 X50.473 Y24.168 E39.85877
G1 X50.403 Y24.098
G0 F2250 X49.624 Y24.168
G1 F900 X53.699 Y28.243 E40.08642
G1 X53.769 Y28.313
G0 F2250 X53.742 Y29.134
G1 F900 X48.776 Y24.168 E40.36385
G1 X48.706 Y24.098
G0 F2250 X48.706 Y24.219
G0 X35.442 Y31.891
G0 X34.14 Y46.819
G0 X34.14 Y46.868
G1 F900 X17.937 Y30.665 E41.26902
G1 X17.867 Y30.595
G0 F2250 X17.526 Y31.102
G1 F900 X33.292 Y46.868 E42.14978
G1 X33.362 Y46.938
G0 F2250 X32.443 Y46.868
G1 F900 X17.017 Y31.442 E43.01154
G1 X16.947 Y31.372
G0 F2250 X16.435 Y31.708
G1 F900 X31.594 Y46.868 E43.85842
G1 X31.664 Y46.938
G0 F2250 X30.746 Y46.868
G1 F900 X15.755 Y31.877 E44.69589
G1 X15.685 Y31.807
G0 F2250 X14.91 Y31.88
G1 F900 X29.897 Y46.868 E45.53316
G1 X29.967 Y46.938
G0 F2250 X29.049 Y46.868
G1 F900 X13.643 Y31.462 E46.3938
G1 X13.573 Y31.392
G0 F2250 X13.537 Y31.468
G0 X12.845 Y30.843
G0 X12.286 Y30.168
G0 X12.332 Y30.151
G1 F900 X7.25 Y25.069 E46.67771
G1 X7.18 Y24.999
G0 F2250 X7.682 Y24.653
G1 F900 X11.967 Y28.938 E46.91709
G1 X12.037 Y29.008
G0 F2250 X11.969 Y28.091
G1 F900 X8.229 Y24.351 E47.12602
G1 X8.159 Y24.281
G0 F2250 X8.92 Y24.194
G1 F900 X12.128 Y27.401 E47.30521
G1 X12.198 Y27.471
G0 F2250 X12.384 Y26.809
G1 F900 X9.743 Y24.168 E47.45274
G1 X9.673 Y24.098
G0 F2250 X10.592 Y24.168
G1 F900 X12.742 Y26.318 E47.57285
G1 X12.812 Y26.388
G0 F2250 X13.178 Y25.906
G1 F900 X11.44 Y24.168 E47.66994
G1 X11.37 Y24.098
G0 F2250 X12.289 Y24.168
G1 F900 X13.677 Y25.556 E47.74748
G1 X13.747 Y25.626
G0 F2250 X14.254 Y25.285
G1 F900 X13.138 Y24.168 E47.80986
G1 X13.068 Y24.098
G0 F2250 X13.986 Y24.168
G1 F900 X14.964 Y25.146 E47.86449
G1 X15.034 Y25.216
G0 F2250 X15.832 Y25.165
G1 F900 X14.835 Y24.168 E47.92019
G1 X14.765 Y24.098
G0 F2250 X15.683 Y24.168
G1 F900 X17.268 Y25.753 E48.00874
G1 X17.338 Y25.823
G0 F2250 X17.376 Y25.764
G0 X16.766 Y25.448
G0 X15.955 Y25.184
G0 X15.107 Y25.133
G0 X6.979 Y25.62
G0 X6.932 Y25.6
G1 F900 X28.2 Y46.868 E49.19686
G1 X28.27 Y46.938
G0 F2250 X27.352 Y46.868
G1 F900 X6.757 Y26.273 E50.34739
G1 X6.687 Y26.203
G0 F2250 X6.72 Y27.085
G1 F900 X26.503 Y46.868 E51.45256
G1 X26.573 Y46.938
G0 F2250 X25.655 Y46.868
G1 F900 X6.72 Y27.933 E52.51035
G1 X6.65 Y27.863
G0 F2250 X6.72 Y28.782
G1 F900 X24.806 Y46.868 E53.52072
G1 X24.876 Y46.938
G0 F2250 X23.958 Y46.868
G1 F900 X6.72 Y29.63 E54.48371
G1 X6.65 Y29.56
G0 F2250 X6.72 Y30.479
G1 F900 X23.109 Y46.868 E55.39927
G1 X23.179 Y46.938
G0 F2250 X22.261 Y46.868
G1 F900 X6.72 Y31.327 E56.26746
G1 X6.65 Y31.257
G0 F2250 X6.72 Y32.176
G1 F900 X21.412 Y46.868 E57.08823
G1 X21.482 Y46.938
G0 F2250 X20.564 Y46.868
G1 F900 X6.72 Y33.024 E57.86161
G1 X6.65 Y32.954
G0 F2250 X6.72 Y33.873
G1 F900 X19.715 Y46.868 E58.58757
G1 X19.785 Y46.938
G0 F2250 X18.867 Y46.868
G1 F900 X6.72 Y34.721 E59.26616
G1 X6.65 Y34.651
G0 F2250 X6.72 Y35.57
G1 F900 X18.018 Y46.868 E59.89732
G1 X18.088 Y46.938
G0 F2250 X17.169 Y46.868
G1 F900 X6.72 Y36.418 E60.48107
G1 X6.65 Y36.348
