(Exported by FreeCAD)
(Post Processor: linuxcnc_post)
(Output Time:2018-03-28 11:44:10.967560)
(begin preamble)
G17 G90
G21
(begin operation: T1: 1/2 in endmill)
(machine: not set, mm/min)
(T1: 1/2 in endmill)
M6 T1 G43 H1
M8
M3 S3000
(finish operation: T1: 1/2 in endmill)
(begin operation: Pocket_Shape)
(machine: not set, mm/min)
(Pocket_Shape)
G0 Z5.000
G0 X168.470 Y-32.350
G0 Z3.000
G1 X168.470 Y-32.350 Z-0.250 F180.000
G1 X168.470 Y-37.650 Z-0.250 F180.000
G1 X147.350 Y-37.650 Z-0.250 F180.000
G1 X147.350 Y-32.350 Z-0.250 F180.000
G1 X168.470 Y-32.350 Z-0.250 F180.000
G1 X168.470 Y-32.350 Z-0.500 F180.000
G1 X168.470 Y-37.650 Z-0.500 F180.000
G1 X147.350 Y-37.650 Z-0.500 F180.000
G1 X147.350 Y-32.350 Z-0.500 F180.000
G1 X168.470 Y-32.350 Z-0.500 F180.000
G1 X168.470 Y-32.350 Z-0.750 F180.000
G1 X168.470 Y-37.650 Z-0.750 F180.000
G1 X147.350 Y-37.650 Z-0.750 F180.000
G1 X147.350 Y-32.350 Z-0.750 F180.000
G1 X168.470 Y-32.350 Z-0.750 F180.000
G1 X168.470 Y-32.350 Z-1.000 F180.000
G1 X168.470 Y-37.650 Z-1.000 F180.000
G1 X147.350 Y-37.650 Z-1.000 F180.000
G1 X147.350 Y-32.350 Z-1.000 F180.000
G1 X168.470 Y-32.350 Z-1.000 F180.000
G1 X168.470 Y-32.350 Z-1.250 F180.000
G1 X168.470 Y-37.650 Z-1.250 F180.000
G1 X147.350 Y-37.650 Z-1.250 F180.000
G1 X147.350 Y-32.350 Z-1.250 F180.000
G1 X168.470 Y-32.350 Z-1.250 F180.000
G1 X168.470 Y-32.350 Z-1.500 F180.000
G1 X168.470 Y-37.650 Z-1.500 F180.000
G1 X147.350 Y-37.650 Z-1.500 F180.000
G1 X147.350 Y-32.350 Z-1.500 F180.000
G1 X168.470 Y-32.350 Z-1.500 F180.000
G1 X168.470 Y-32.350 Z-1.750 F180.000
G1 X168.470 Y-37.650 Z-1.750 F180.000
G1 X147.350 Y-37.650 Z-1.750 F180.000
G1 X147.350 Y-32.350 Z-1.750 F180.000
G1 X168.470 Y-32.350 Z-1.750 F180.000
G1 X168.470 Y-32.350 Z-2.000 F180.000
G1 X168.470 Y-37.650 Z-2.000 F180.000
G1 X147.350 Y-37.650 Z-2.000 F180.000
G1 X147.350 Y-32.350 Z-2.000 F180.000
G1 X168.470 Y-32.350 Z-2.000 F180.000
G1 X168.470 Y-32.350 Z-2.250 F180.000
G1 X168.470 Y-37.650 Z-2.250 F180.000
G1 X147.350 Y-37.650 Z-2.250 F180.000
G1 X147.350 Y-32.350 Z-2.250 F180.000
G1 X168.470 Y-32.350 Z-2.250 F180.000
G1 X168.470 Y-32.350 Z-2.500 F180.000
G1 X168.470 Y-37.650 Z-2.500 F180.000
G1 X147.350 Y-37.650 Z-2.500 F180.000
G1 X147.350 Y-32.350 Z-2.500 F180.000
G1 X168.470 Y-32.350 Z-2.500 F180.000
G1 X168.470 Y-32.350 Z-2.750 F180.000
G1 X168.470 Y-37.650 Z-2.750 F180.000
G1 X147.350 Y-37.650 Z-2.750 F180.000
G1 X147.350 Y-32.350 Z-2.750 F180.000
G1 X168.470 Y-32.350 Z-2.750 F180.000
G1 X168.470 Y-32.350 Z-3.000 F180.000
G1 X168.470 Y-37.650 Z-3.000 F180.000
G1 X147.350 Y-37.650 Z-3.000 F180.000
G1 X147.350 Y-32.350 Z-3.000 F180.000
G1 X168.470 Y-32.350 Z-3.000 F180.000
G1 X168.470 Y-32.350 Z-3.250 F180.000
G1 X168.470 Y-37.650 Z-3.250 F180.000
G1 X147.350 Y-37.650 Z-3.250 F180.000
G1 X147.350 Y-32.350 Z-3.250 F180.000
G1 X168.470 Y-32.350 Z-3.250 F180.000
G1 X168.470 Y-32.350 Z-3.500 F180.000
G1 X168.470 Y-37.650 Z-3.500 F180.000
G1 X147.350 Y-37.650 Z-3.500 F180.000
G1 X147.350 Y-32.350 Z-3.500 F180.000
G1 X168.470 Y-32.350 Z-3.500 F180.000
G1 X168.470 Y-32.350 Z-3.750 F180.000
G1 X168.470 Y-37.650 Z-3.750 F180.000
G1 X147.350 Y-37.650 Z-3.750 F180.000
G1 X147.350 Y-32.350 Z-3.750 F180.000
G1 X168.470 Y-32.350 Z-3.750 F180.000
G1 X168.470 Y-32.350 Z-4.000 F180.000
G1 X168.470 Y-37.650 Z-4.000 F180.000
G1 X147.350 Y-37.650 Z-4.000 F180.000
G1 X147.350 Y-32.350 Z-4.000 F180.000
G1 X168.470 Y-32.350 Z-4.000 F180.000
G1 X168.470 Y-32.350 Z-4.250 F180.000
G1 X168.470 Y-37.650 Z-4.250 F180.000
G1 X147.350 Y-37.650 Z-4.250 F180.000
G1 X147.350 Y-32.350 Z-4.250 F180.000
G1 X168.470 Y-32.350 Z-4.250 F180.000
G1 X168.470 Y-32.350 Z-4.500 F180.000
G1 X168.470 Y-37.650 Z-4.500 F180.000
G1 X147.350 Y-37.650 Z-4.500 F180.000
G1 X147.350 Y-32.350 Z-4.500 F180.000
G1 X168.470 Y-32.350 Z-4.500 F180.000
G1 X168.470 Y-32.350 Z-4.750 F180.000
G1 X168.470 Y-37.650 Z-4.750 F180.000
G1 X147.350 Y-37.650 Z-4.750 F180.000
G1 X147.350 Y-32.350 Z-4.750 F180.000
G1 X168.470 Y-32.350 Z-4.750 F180.000
G1 X168.470 Y-32.350 Z-5.000 F180.000
G1 X168.470 Y-37.650 Z-5.000 F180.000
G1 X147.350 Y-37.650 Z-5.000 F180.000
G1 X147.350 Y-32.350 Z-5.000 F180.000
G1 X168.470 Y-32.350 Z-5.000 F180.000
G1 X168.470 Y-32.350 Z-5.250 F180.000
G1 X168.470 Y-37.650 Z-5.250 F180.000
G1 X147.350 Y-37.650 Z-5.250 F180.000
G1 X147.350 Y-32.350 Z-5.250 F180.000
G1 X168.470 Y-32.350 Z-5.250 F180.000
G1 X168.470 Y-32.350 Z-5.500 F180.000
G1 X168.470 Y-37.650 Z-5.500 F180.000
G1 X147.350 Y-37.650 Z-5.500 F180.000
G1 X147.350 Y-32.350 Z-5.500 F180.000
G1 X168.470 Y-32.350 Z-5.500 F180.000
G1 X168.470 Y-32.350 Z-5.750 F180.000
G1 X168.470 Y-37.650 Z-5.750 F180.000
G1 X147.350 Y-37.650 Z-5.750 F180.000
G1 X147.350 Y-32.350 Z-5.750 F180.000
G1 X168.470 Y-32.350 Z-5.750 F180.000
G1 X168.470 Y-32.350 Z-6.000 F180.000
G1 X168.470 Y-37.650 Z-6.000 F180.000
G1 X147.350 Y-37.650 Z-6.000 F180.000
G1 X147.350 Y-32.350 Z-6.000 F180.000
G1 X168.470 Y-32.350 Z-6.000 F180.000
G1 X168.470 Y-32.350 Z-6.250 F180.000
G1 X168.470 Y-37.650 Z-6.250 F180.000
G1 X147.350 Y-37.650 Z-6.250 F180.000
G1 X147.350 Y-32.350 Z-6.250 F180.000
G1 X168.470 Y-32.350 Z-6.250 F180.000
G1 X168.470 Y-32.350 Z-6.500 F180.000
G1 X168.470 Y-37.650 Z-6.500 F180.000
G1 X147.350 Y-37.650 Z-6.500 F180.000
G1 X147.350 Y-32.350 Z-6.500 F180.000
G1 X168.470 Y-32.350 Z-6.500 F180.000
G1 X168.470 Y-32.350 Z-6.750 F180.000
G1 X168.470 Y-37.650 Z-6.750 F180.000
G1 X147.350 Y-37.650 Z-6.750 F180.000
G1 X147.350 Y-32.350 Z-6.750 F180.000
G1 X168.470 Y-32.350 Z-6.750 F180.000
G1 X168.470 Y-32.350 Z-7.000 F180.000
G1 X168.470 Y-37.650 Z-7.000 F180.000
G1 X147.350 Y-37.650 Z-7.000 F180.000
G1 X147.350 Y-32.350 Z-7.000 F180.000
G1 X168.470 Y-32.350 Z-7.000 F180.000
G1 X168.470 Y-32.350 Z-7.250 F180.000
G1 X168.470 Y-37.650 Z-7.250 F180.000
G1 X147.350 Y-37.650 Z-7.250 F180.000
G1 X147.350 Y-32.350 Z-7.250 F180.000
G1 X168.470 Y-32.350 Z-7.250 F180.000
G1 X168.470 Y-32.350 Z-7.500 F180.000
G1 X168.470 Y-37.650 Z-7.500 F180.000
G1 X147.350 Y-37.650 Z-7.500 F180.000
G1 X147.350 Y-32.350 Z-7.500 F180.000
G1 X168.470 Y-32.350 Z-7.500 F180.000
G1 X168.470 Y-32.350 Z-7.750 F180.000
G1 X168.470 Y-37.650 Z-7.750 F180.000
G1 X147.350 Y-37.650 Z-7.750 F180.000
G1 X147.350 Y-32.350 Z-7.750 F180.000
G1 X168.470 Y-32.350 Z-7.750 F180.000
G1 X168.470 Y-32.350 Z-8.000 F180.000
G1 X168.470 Y-37.650 Z-8.000 F180.000
G1 X147.350 Y-37.650 Z-8.000 F180.000
G1 X147.350 Y-32.350 Z-8.000 F180.000
G1 X168.470 Y-32.350 Z-8.000 F180.000
G0 Z5.000
(finish operation: Pocket_Shape)
(begin postamble)
M9
M05
G17 G90
M2
