(Exported by FreeCAD)
(Post Processor: linuxcnc_post)
(Output Time:2018-03-28 11:16:08.079791)
(begin preamble)
G17 G90
G21
(begin operation: T5: threesixteenthsendmill)
(machine: not set, mm/min)
(T5: threesixteenthsendmill)
M6 T5 G43 H5
M8
M3 S3000
(finish operation: T5: threesixteenthsendmill)
(begin operation: Helix)
(machine: not set, mm/min)
(Helix)
(helix cut operation)
G0 Z5.000
G0 X185.970 Y-20.000
G0 Z3.000
G1 Z0.000 F60.000
G2 X184.030 Y-20.000 Z-0.500 I-0.970 J0.000 F60.000
G2 X185.970 Y-20.000 Z-1.000 I0.970 J0.000 F60.000
G2 X184.030 Y-20.000 Z-1.500 I-0.970 J0.000 F60.000
G2 X185.970 Y-20.000 Z-2.000 I0.970 J0.000 F60.000
G2 X184.030 Y-20.000 Z-2.500 I-0.970 J0.000 F60.000
G2 X185.970 Y-20.000 Z-3.000 I0.970 J0.000 F60.000
G2 X184.030 Y-20.000 Z-3.500 I-0.970 J0.000 F60.000
G2 X185.970 Y-20.000 Z-4.000 I0.970 J0.000 F60.000
G2 X184.030 Y-20.000 Z-4.500 I-0.970 J0.000 F60.000
G2 X185.970 Y-20.000 Z-5.000 I0.970 J0.000 F60.000
G2 X184.030 Y-20.000 Z-5.500 I-0.970 J0.000 F60.000
G2 X185.970 Y-20.000 Z-6.000 I0.970 J0.000 F60.000
G2 X184.030 Y-20.000 Z-6.500 I-0.970 J0.000 F60.000
G2 X185.970 Y-20.000 Z-7.000 I0.970 J0.000 F60.000
G2 X184.030 Y-20.000 Z-7.500 I-0.970 J0.000 F60.000
G2 X185.970 Y-20.000 Z-8.000 I0.970 J0.000 F60.000
G2 X184.030 Y-20.000 Z-8.500 I-0.970 J0.000 F60.000
G2 X185.970 Y-20.000 Z-9.000 I0.970 J0.000 F60.000
G2 X184.030 Y-20.000 Z-9.500 I-0.970 J0.000 F60.000
G2 X185.970 Y-20.000 Z-10.000 I0.970 J0.000 F60.000
G2 X184.030 Y-20.000 Z-10.500 I-0.970 J0.000 F60.000
G2 X185.970 Y-20.000 Z-11.000 I0.970 J0.000 F60.000
G2 X184.030 Y-20.000 Z-11.500 I-0.970 J0.000 F60.000
G2 X185.970 Y-20.000 Z-12.000 I0.970 J0.000 F60.000
G2 X184.030 Y-20.000 Z-12.500 I-0.970 J0.000 F60.000
G2 X185.970 Y-20.000 Z-13.000 I0.970 J0.000 F60.000
G2 X184.030 Y-20.000 Z-13.000 I-0.970 J0.000 F60.000
G2 X185.970 Y-20.000 Z-13.000 I0.970 J0.000 F60.000
G0 Z3.000 F0.000
G0 X185.970 Y-90.000
G0 Z3.000
G1 Z0.000 F60.000
G2 X184.030 Y-90.000 Z-0.500 I-0.970 J0.000 F60.000
G2 X185.970 Y-90.000 Z-1.000 I0.970 J0.000 F60.000
G2 X184.030 Y-90.000 Z-1.500 I-0.970 J0.000 F60.000
G2 X185.970 Y-90.000 Z-2.000 I0.970 J0.000 F60.000
G2 X184.030 Y-90.000 Z-2.500 I-0.970 J0.000 F60.000
G2 X185.970 Y-90.000 Z-3.000 I0.970 J0.000 F60.000
G2 X184.030 Y-90.000 Z-3.500 I-0.970 J0.000 F60.000
G2 X185.970 Y-90.000 Z-4.000 I0.970 J0.000 F60.000
G2 X184.030 Y-90.000 Z-4.500 I-0.970 J0.000 F60.000
G2 X185.970 Y-90.000 Z-5.000 I0.970 J0.000 F60.000
G2 X184.030 Y-90.000 Z-5.500 I-0.970 J0.000 F60.000
G2 X185.970 Y-90.000 Z-6.000 I0.970 J0.000 F60.000
G2 X184.030 Y-90.000 Z-6.500 I-0.970 J0.000 F60.000
G2 X185.970 Y-90.000 Z-7.000 I0.970 J0.000 F60.000
G2 X184.030 Y-90.000 Z-7.500 I-0.970 J0.000 F60.000
G2 X185.970 Y-90.000 Z-8.000 I0.970 J0.000 F60.000
G2 X184.030 Y-90.000 Z-8.500 I-0.970 J0.000 F60.000
G2 X185.970 Y-90.000 Z-9.000 I0.970 J0.000 F60.000
G2 X184.030 Y-90.000 Z-9.500 I-0.970 J0.000 F60.000
G2 X185.970 Y-90.000 Z-10.000 I0.970 J0.000 F60.000
G2 X184.030 Y-90.000 Z-10.500 I-0.970 J0.000 F60.000
G2 X185.970 Y-90.000 Z-11.000 I0.970 J0.000 F60.000
G2 X184.030 Y-90.000 Z-11.500 I-0.970 J0.000 F60.000
G2 X185.970 Y-90.000 Z-12.000 I0.970 J0.000 F60.000
G2 X184.030 Y-90.000 Z-12.500 I-0.970 J0.000 F60.000
G2 X185.970 Y-90.000 Z-13.000 I0.970 J0.000 F60.000
G2 X184.030 Y-90.000 Z-13.000 I-0.970 J0.000 F60.000
G2 X185.970 Y-90.000 Z-13.000 I0.970 J0.000 F60.000
G0 Z3.000 F0.000
G0 X135.970 Y-90.000
G0 Z3.000
G1 Z0.000 F60.000
G2 X134.030 Y-90.000 Z-0.500 I-0.970 J0.000 F60.000
G2 X135.970 Y-90.000 Z-1.000 I0.970 J0.000 F60.000
G2 X134.030 Y-90.000 Z-1.500 I-0.970 J0.000 F60.000
G2 X135.970 Y-90.000 Z-2.000 I0.970 J0.000 F60.000
G2 X134.030 Y-90.000 Z-2.500 I-0.970 J0.000 F60.000
G2 X135.970 Y-90.000 Z-3.000 I0.970 J0.000 F60.000
G2 X134.030 Y-90.000 Z-3.500 I-0.970 J0.000 F60.000
G2 X135.970 Y-90.000 Z-4.000 I0.970 J0.000 F60.000
G2 X134.030 Y-90.000 Z-4.500 I-0.970 J0.000 F60.000
G2 X135.970 Y-90.000 Z-5.000 I0.970 J0.000 F60.000
G2 X134.030 Y-90.000 Z-5.500 I-0.970 J0.000 F60.000
G2 X135.970 Y-90.000 Z-6.000 I0.970 J0.000 F60.000
G2 X134.030 Y-90.000 Z-6.500 I-0.970 J0.000 F60.000
G2 X135.970 Y-90.000 Z-7.000 I0.970 J0.000 F60.000
G2 X134.030 Y-90.000 Z-7.500 I-0.970 J0.000 F60.000
G2 X135.970 Y-90.000 Z-8.000 I0.970 J0.000 F60.000
G2 X134.030 Y-90.000 Z-8.500 I-0.970 J0.000 F60.000
G2 X135.970 Y-90.000 Z-9.000 I0.970 J0.000 F60.000
G2 X134.030 Y-90.000 Z-9.500 I-0.970 J0.000 F60.000
G2 X135.970 Y-90.000 Z-10.000 I0.970 J0.000 F60.000
G2 X134.030 Y-90.000 Z-10.500 I-0.970 J0.000 F60.000
G2 X135.970 Y-90.000 Z-11.000 I0.970 J0.000 F60.000
G2 X134.030 Y-90.000 Z-11.500 I-0.970 J0.000 F60.000
G2 X135.970 Y-90.000 Z-12.000 I0.970 J0.000 F60.000
G2 X134.030 Y-90.000 Z-12.500 I-0.970 J0.000 F60.000
G2 X135.970 Y-90.000 Z-13.000 I0.970 J0.000 F60.000
G2 X134.030 Y-90.000 Z-13.000 I-0.970 J0.000 F60.000
G2 X135.970 Y-90.000 Z-13.000 I0.970 J0.000 F60.000
G0 Z3.000 F0.000
G0 Z5.000
(finish operation: Helix)
(begin operation: T8: 635 end mill)
(machine: not set, mm/min)
(T8: 635 end mill)
M9
M6 T8 G43 H8
M8
M3 S3000
(finish operation: T8: 635 end mill)
(begin operation: Helix001)
(machine: not set, mm/min)
(Helix001)
(helix cut operation)
G0 Z5.000
G0 X187.813 Y-55.000
G0 Z3.000
G1 Z0.000 F90.000
G2 X182.187 Y-55.000 Z-0.500 I-2.813 J0.000 F90.000
G2 X187.813 Y-55.000 Z-1.000 I2.813 J0.000 F90.000
G2 X182.187 Y-55.000 Z-1.500 I-2.813 J0.000 F90.000
G2 X187.813 Y-55.000 Z-2.000 I2.813 J0.000 F90.000
G2 X182.187 Y-55.000 Z-2.500 I-2.813 J0.000 F90.000
G2 X187.813 Y-55.000 Z-3.000 I2.813 J0.000 F90.000
G2 X182.187 Y-55.000 Z-3.500 I-2.813 J0.000 F90.000
G2 X187.813 Y-55.000 Z-4.000 I2.813 J0.000 F90.000
G2 X182.187 Y-55.000 Z-4.500 I-2.813 J0.000 F90.000
G2 X187.813 Y-55.000 Z-5.000 I2.813 J0.000 F90.000
G2 X182.187 Y-55.000 Z-5.500 I-2.813 J0.000 F90.000
G2 X187.813 Y-55.000 Z-6.000 I2.813 J0.000 F90.000
G2 X182.187 Y-55.000 Z-6.500 I-2.813 J0.000 F90.000
G2 X187.813 Y-55.000 Z-7.000 I2.813 J0.000 F90.000
G2 X182.187 Y-55.000 Z-7.500 I-2.813 J0.000 F90.000
G2 X187.813 Y-55.000 Z-8.000 I2.813 J0.000 F90.000
G2 X182.187 Y-55.000 Z-8.500 I-2.813 J0.000 F90.000
G2 X187.813 Y-55.000 Z-9.000 I2.813 J0.000 F90.000
G2 X182.187 Y-55.000 Z-9.500 I-2.813 J0.000 F90.000
G2 X187.813 Y-55.000 Z-10.000 I2.813 J0.000 F90.000
G2 X182.187 Y-55.000 Z-10.500 I-2.813 J0.000 F90.000
G2 X187.813 Y-55.000 Z-11.000 I2.813 J0.000 F90.000
G2 X182.187 Y-55.000 Z-11.500 I-2.813 J0.000 F90.000
G2 X187.813 Y-55.000 Z-12.000 I2.813 J0.000 F90.000
G2 X182.187 Y-55.000 Z-12.500 I-2.813 J0.000 F90.000
G2 X187.813 Y-55.000 Z-13.000 I2.813 J0.000 F90.000
G2 X182.187 Y-55.000 Z-13.000 I-2.813 J0.000 F90.000
G2 X187.813 Y-55.000 Z-13.000 I2.813 J0.000 F90.000
G0 Z3.000 F0.000
G0 X162.813 Y-90.000
G0 Z3.000
G1 Z0.000 F90.000
G2 X157.187 Y-90.000 Z-0.500 I-2.813 J0.000 F90.000
G2 X162.813 Y-90.000 Z-1.000 I2.813 J0.000 F90.000
G2 X157.187 Y-90.000 Z-1.500 I-2.813 J0.000 F90.000
G2 X162.813 Y-90.000 Z-2.000 I2.813 J0.000 F90.000
G2 X157.187 Y-90.000 Z-2.500 I-2.813 J0.000 F90.000
G2 X162.813 Y-90.000 Z-3.000 I2.813 J0.000 F90.000
G2 X157.187 Y-90.000 Z-3.500 I-2.813 J0.000 F90.000
G2 X162.813 Y-90.000 Z-4.000 I2.813 J0.000 F90.000
G2 X157.187 Y-90.000 Z-4.500 I-2.813 J0.000 F90.000
G2 X162.813 Y-90.000 Z-5.000 I2.813 J0.000 F90.000
G2 X157.187 Y-90.000 Z-5.500 I-2.813 J0.000 F90.000
G2 X162.813 Y-90.000 Z-6.000 I2.813 J0.000 F90.000
G2 X157.187 Y-90.000 Z-6.500 I-2.813 J0.000 F90.000
G2 X162.813 Y-90.000 Z-7.000 I2.813 J0.000 F90.000
G2 X157.187 Y-90.000 Z-7.500 I-2.813 J0.000 F90.000
G2 X162.813 Y-90.000 Z-8.000 I2.813 J0.000 F90.000
G2 X157.187 Y-90.000 Z-8.500 I-2.813 J0.000 F90.000
G2 X162.813 Y-90.000 Z-9.000 I2.813 J0.000 F90.000
G2 X157.187 Y-90.000 Z-9.500 I-2.813 J0.000 F90.000
G2 X162.813 Y-90.000 Z-10.000 I2.813 J0.000 F90.000
G2 X157.187 Y-90.000 Z-10.500 I-2.813 J0.000 F90.000
G2 X162.813 Y-90.000 Z-11.000 I2.813 J0.000 F90.000
G2 X157.187 Y-90.000 Z-11.500 I-2.813 J0.000 F90.000
G2 X162.813 Y-90.000 Z-12.000 I2.813 J0.000 F90.000
G2 X157.187 Y-90.000 Z-12.500 I-2.813 J0.000 F90.000
G2 X162.813 Y-90.000 Z-13.000 I2.813 J0.000 F90.000
G2 X157.187 Y-90.000 Z-13.000 I-2.813 J0.000 F90.000
G2 X162.813 Y-90.000 Z-13.000 I2.813 J0.000 F90.000
G0 Z3.000 F0.000
G0 Z5.000
(finish operation: Helix001)
(begin postamble)
M9
M05
G17 G90
M2
