;Generated by Cura LulzBot Edition GCodeWriter Version: 2.6.59
;FLAVOR:RepRap
;TIME:11315
;Filament used: 8.7542m
;Layer height: 0.378
;Generated with Cura_SteamEngine 2.6.59
;This G-Code has been generated specifically for the LulzBot Mini with Aerostruder
G26 ; clear potential 'probe fail' condition
G21 ; set units to Millimetres
M107 ; disable fans
G90 ; absolute positioning
M82 ; set extruder to absolute mode
G92 E0 ; set extruder position to 0
M140 S115 ; start bed heating up
G28 ; home all axes
G0 X3 Y188 Z156 F200 ; move away from endstops
M109 R170 ; soften filament before retraction
G1 E-15 F75 ; retract filament
M109 R170 ; wait for extruder to reach wiping temp
G1 X45 Y174 F11520 ; move above wiper pad
G1 Z0 F1200 ; push nozzle into wiper
G1 X45 Y174 Z-.5 F4000 ; wiping
G1 X55 Y172 Z-.5 F4000 ; wiping
G1 X45 Y174 Z0 F4000 ; wiping
G1 X55 Y172 F4000 ; wiping
G1 X45 Y174 F4000 ; wiping
G1 X55 Y172 F4000 ; wiping
G1 X45 Y174 F4000 ; wiping
G1 X55 Y172 F4000 ; wiping
G1 X60 Y174 F4000 ; wiping
G1 X80 Y172 F4000 ; wiping
G1 X60 Y174 F4000 ; wiping
G1 X80 Y172 F4000 ; wiping
G1 X60 Y174 F4000 ; wiping
G1 X90 Y172 F4000 ; wiping
G1 X80 Y174 F4000 ; wiping
G1 X100 Y172 F4000 ; wiping
G1 X80 Y174 F4000 ; wiping
G1 X100 Y172 F4000 ; wiping
G1 X80 Y174 F4000 ; wiping
G1 X100 Y172 F4000 ; wiping
G1 X110 Y174 F4000 ; wiping
G1 X100 Y172 F4000 ; wiping
G1 X110 Y174 F4000 ; wiping
G1 X100 Y172 F4000 ; wiping
G1 X110 Y174 F4000 ; wiping
G1 X115 Y172 Z-0.5 F1000 ; wiping
G1 Z10 ; raise extruder
G28 X0 Y0 ; home X and Y
M109 R170 ; wait for extruder to reach probe temp
M204 S300 ; set probing acceleration
G29 ; start auto-leveling sequence
M204 S2000 ; restore standard acceleration
G1 X5 Y15 Z10 F5000 ; move up off last probe point
G4 S1 ; pause
M400 ; wait for moves to finish
M117 Heating... ; progress indicator message on LCD
M109 R245 ; wait for extruder to reach printing temp
M190 S116 ; wait for bed to reach printing temp
G1 Z2 E0 F75 ; prime tiny bit of filment into the nozzle
M117 Mini Printing... ; progress indicator message on LCD


M221 S100
;LAYER_COUNT:74
;LAYER:0
M107
M204 S800
M205 X2
G0 F2250 X29.345 Y18.759 Z0.42
;TYPE:WALL-INNER
G1 F900 X29.742 Y18.242 E0.02575
G1 X30.259 Y17.845 E0.0515
G1 X30.858 Y17.598 E0.07709
G1 X31.597 Y17.5 E0.10654
G1 X123.403 Y17.5 E3.73308
G1 X124.142 Y17.598 E3.76252
G1 X124.741 Y17.845 E3.78812
G1 X125.258 Y18.242 E3.81387
G1 X125.655 Y18.759 E3.83962
G1 X125.902 Y19.358 E3.86521
G1 X126 Y20.097 E3.89466
G1 X126 Y50.842 E5.10915
G1 X126 Y51.441 E5.13282
G1 X126 Y52.5 E5.17465
G1 X126 Y53.559 E5.21648
G1 X126 Y54.158 E5.24014
G1 X126 Y115.842 E7.67679
G1 X126 Y116.441 E7.70046
G1 X126 Y117.5 E7.74229
G1 X126 Y118.559 E7.78412
G1 X126 Y119.158 E7.80778
G1 X126 Y131.903 E8.31124
G1 X125.902 Y132.642 E8.34069
G1 X125.655 Y133.241 E8.36628
G1 X125.258 Y133.758 E8.39203
G1 X124.741 Y134.155 E8.41778
G1 X124.142 Y134.402 E8.44337
G1 X123.403 Y134.5 E8.47282
G1 X31.595 Y134.499 E12.09944
G1 X30.852 Y134.399 E12.12905
G1 X30.249 Y134.148 E12.15485
G1 X29.74 Y133.755 E12.18025
G1 X29.347 Y133.24 E12.20585
G1 X29.097 Y132.634 E12.23174
G1 X29 Y131.903 E12.26087
G1 X29 Y119.188 E12.76314
G1 X29 Y119.067 E12.76792
G1 X29 Y118.035 E12.80869
G1 X29 Y116.965 E12.85095
G1 X29 Y115.933 E12.89172
G1 X29 Y115.812 E12.8965
G1 X29 Y104.243 E13.3535
G1 X26 Y101.245 E13.52104
G1 X26 Y68.005 E14.83409
G1 X29 Y65.007 E15.00163
G1 X29 Y54.188 E15.429
G1 X29 Y54.067 E15.43378
G1 X29 Y53.035 E15.47455
G1 X29 Y51.965 E15.51681
G1 X29 Y50.933 E15.55758
G1 X29 Y50.812 E15.56236
G1 X29 Y20.097 E16.77567
G1 X29.098 Y19.358 E16.80512
G1 X29.157 Y19.217 E16.81116
G0 F810 X29.345 Y18.759
G1 F420 E15.31116
G0 F2250 X27.627 Y17.442
G0 X27.627 Y17.441
G0 X27.7 Y17.473
G0 X45.492 Y25.203
G0 X45.565 Y25.235
G0 X45.565 Y25.236
G0 X43.538 Y24.433
G1 F420 E16.83071
G1 F900 X43.272 Y25.465 E16.87281
G1 X43.272 Y26.535 E16.91507
G1 X43.538 Y27.567 E16.95717
G1 X44.051 Y28.504 E16.99937
G1 X44.782 Y29.284 E17.0416
G1 X45.686 Y29.856 E17.08386
G1 X46.701 Y30.186 E17.12602
G1 X47.768 Y30.255 E17.16825
G1 X48.817 Y30.053 E17.21045
G1 X49.784 Y29.599 E17.25265
G1 X50.607 Y28.918 E17.29485
G1 X51.235 Y28.053 E17.33707
G1 X51.629 Y27.059 E17.37931
G1 X51.762 Y26 E17.42147
G1 X51.629 Y24.941 E17.46363
G1 X51.235 Y23.947 E17.50587
G1 X50.607 Y23.082 E17.5481
G1 X49.784 Y22.401 E17.59029
G1 X48.817 Y21.947 E17.63249
G1 X47.768 Y21.745 E17.67469
G1 X46.701 Y21.814 E17.71693
G1 X45.686 Y22.144 E17.75909
G1 X44.782 Y22.716 E17.80135
G1 X44.051 Y23.496 E17.84358
G1 X43.775 Y23.999 E17.86624
G0 F810 X43.538 Y24.433
G1 F420 E16.36624
G0 F2250 X45.565 Y25.236
G0 X45.487 Y25.405
G0 X45.454 Y25.478
G0 X34.174 Y50.449
G0 X34.141 Y50.522
G0 X34.143 Y50.522
G0 X34.817 Y48.447
G1 F420 E17.88579
G1 F900 X33.768 Y48.245 E17.92799
G1 X32.701 Y48.314 E17.97023
G1 X31.686 Y48.644 E18.01239
G1 X30.782 Y49.216 E18.05465
G1 X30.051 Y49.996 E18.09688
G1 X29.596 Y50.827 E18.1343
G1 X29.538 Y50.933 E18.13883
G1 X29.272 Y51.965 E18.16756
G1 X29.272 Y53.035 E18.18673
G1 X29.538 Y54.067 E18.21546
G1 X29.596 Y54.173 E18.21999
G1 X30.051 Y55.004 E18.25741
G1 X30.782 Y55.784 E18.29964
G1 X31.686 Y56.356 E18.3419
G1 X32.701 Y56.686 E18.38406
G1 X33.768 Y56.755 E18.4263
G1 X34.817 Y56.553 E18.4685
G1 X35.784 Y56.099 E18.5107
G1 X36.607 Y55.418 E18.55289
G1 X37.235 Y54.553 E18.59512
G1 X37.629 Y53.559 E18.63735
G1 X37.762 Y52.5 E18.67952
G1 X37.629 Y51.441 E18.72168
G1 X37.235 Y50.447 E18.76391
G1 X36.607 Y49.582 E18.80614
G1 X35.784 Y48.901 E18.84834
G1 X35.265 Y48.657 E18.87099
G0 F810 X34.817 Y48.447
G1 F420 E17.37099
G0 F2250 X34.143 Y50.522
G0 X35.526 Y53.013
G0 X35.564 Y53.083
G0 X56.257 Y90.344
G0 X56.296 Y90.414
G0 X56.293 Y90.407
G0 X55.221 Y88.359
G1 F420 E18.89054
G1 F900 X54.856 Y88.556 E18.90693
G1 X54.538 Y88.848 E18.92398
G1 X54.307 Y89.213 E18.94105
G1 X54.172 Y89.599 E18.9572
G1 X54.14 Y89.917 E18.96982
G1 X54.142 Y91.82 E19.045
G1 X54.324 Y92.41 E19.06939
G1 X54.361 Y92.454 E19.07166
G1 X54.182 Y92.83 E19.08811
G1 X54.14 Y93.225 E19.1038
G1 X54.14 Y97.775 E19.28353
G1 X55.916 Y99.655 E19.3857
G1 X56.615 Y99.887 E19.41479
G1 X57.07 Y99.954 E19.43296
G1 X61.693 Y99.953 E19.61558
G1 X62.166 Y99.851 E19.63469
G1 X62.582 Y99.605 E19.65378
G1 X62.909 Y99.278 E19.67205
G1 X62.995 Y99.192 E19.67685
G1 X63.14 Y98.827 E19.69237
G1 X63.252 Y98.942
G1 X63.336 Y99.029 E19.69645
G1 X63.957 Y99.669 E19.73168
G1 X64.645 Y99.889 E19.76021
G1 X65.095 Y99.954 E19.77817
G1 X70.045 Y99.951 E19.97371
G1 X70.674 Y99.726 E20.00009
G1 X71.178 Y99.246 E20.02759
G1 X71.434 Y98.686 E20.05191
G1 X71.476 Y98.301 E20.06721
G1 X71.473 Y89.729 E20.40582
G1 X71.32 Y89.175 E20.42853
G1 X70.933 Y88.665 E20.45382
G1 X70.517 Y88.409 E20.47311
G1 X70.148 Y88.282 E20.48853
G1 X69.833 Y88.25 E20.50103
G1 X67.93 Y88.251 E20.57621
G1 X67.481 Y88.364 E20.5945
G1 X67.104 Y88.576 E20.61158
G1 X66.798 Y88.868 E20.62829
G1 X66.57 Y89.241 E20.64556
G1 X66.452 Y89.637 E20.66188
G1 X66.428 Y89.925 E20.6733
G1 X66.427 Y90.81 E20.70826
G1 X65.172 Y90.81 E20.75783
G1 X64.708 Y90.868 E20.7763
G1 X64.094 Y91.068 E20.80181
G1 X64.011 Y91.095 E20.80526
G1 X63.539 Y91.565 E20.83157
G1 X63.539 Y91.096 E20.83468
G1 X63.539 Y91.008 E20.83786
G1 X63.537 Y89.71 E20.88913
G1 X63.363 Y89.133 E20.91294
G1 X62.981 Y88.666 E20.93677
G1 X62.588 Y88.408 E20.95534
G1 X62.183 Y88.276 E20.97217
G1 X61.875 Y88.25 E20.98438
G1 X55.703 Y88.254 E21.22818
G0 F810 X55.622 Y88.254
G0 X55.221 Y88.359
G1 F420 E19.72818
G0 F2250 X56.293 Y90.407
G0 X56.279 Y90.438
G0 X56.249 Y90.512
G0 X50.929 Y103.586
G0 X50.899 Y103.66
G0 X50.903 Y103.653
G0 X48.75 Y101.5
G1 F420 E21.24774
G1 F900 X48.75 Y116.75 E21.85015
G1 X76.875 Y116.75 E22.96114
G1 X76.875 Y101.5 E23.56355
G1 X49.245 Y101.5 E24.655
G0 F810 X48.75 Y101.5
G1 F420 E23.155
G0 F2250 X50.903 Y103.653
G0 X50.906 Y103.648
G0 X50.843 Y103.698
G0 X35.078 Y116.025
G0 X35.015 Y116.075
G0 X35.017 Y116.075
G0 X36.607 Y114.582
G1 F420 E24.67455
G1 F900 X35.784 Y113.901 E24.71675
G1 X34.817 Y113.447 E24.75895
G1 X33.768 Y113.245 E24.80115
G1 X32.701 Y113.314 E24.84338
G1 X31.686 Y113.644 E24.88554
G1 X30.782 Y114.216 E24.9278
G1 X30.051 Y114.996 E24.97003
G1 X29.596 Y115.827 E25.00745
G1 X29.538 Y115.933 E25.01199
G1 X29.272 Y116.965 E25.04072
G1 X29.272 Y118.035 E25.05988
G1 X29.538 Y119.067 E25.08861
G1 X29.596 Y119.173 E25.09314
G1 X30.051 Y120.004 E25.13057
G1 X30.782 Y120.784 E25.1728
G1 X31.686 Y121.356 E25.21505
G1 X32.701 Y121.686 E25.25721
G1 X33.768 Y121.755 E25.29945
G1 X34.817 Y121.553 E25.34165
G1 X35.784 Y121.099 E25.38385
G1 X36.607 Y120.418 E25.42605
G1 X37.235 Y119.553 E25.46827
G1 X37.629 Y118.559 E25.51051
G1 X37.762 Y117.5 E25.55267
G1 X37.629 Y116.441 E25.59483
G1 X37.235 Y115.447 E25.63707
G1 X36.898 Y114.982 E25.65975
G0 F810 X36.607 Y114.582
G1 F420 E24.15975
G0 F2250 X35.017 Y116.075
G0 X35.091 Y116.129
G0 X35.155 Y116.176
G0 X46.11 Y124.347
G0 X46.175 Y124.395
G0 X46.174 Y124.396
G0 X44.782 Y122.716
G1 F420 E25.67931
G1 F900 X44.051 Y123.496 E25.72154
G1 X43.538 Y124.433 E25.76373
G1 X43.272 Y125.465 E25.80583
G1 X43.272 Y126.535 E25.8481
G1 X43.538 Y127.567 E25.8902
G1 X44.051 Y128.504 E25.9324
G1 X44.782 Y129.284 E25.97462
G1 X45.686 Y129.856 E26.01688
G1 X46.701 Y130.186 E26.05904
G1 X47.768 Y130.255 E26.10128
G1 X48.817 Y130.053 E26.14348
G1 X49.784 Y129.599 E26.18568
G1 X50.607 Y128.918 E26.22787
G1 X51.235 Y128.053 E26.2701
G1 X51.629 Y127.059 E26.31234
G1 X51.762 Y126 E26.3545
G1 X51.629 Y124.941 E26.39666
G1 X51.235 Y123.947 E26.4389
G1 X50.607 Y123.082 E26.48112
G1 X49.784 Y122.401 E26.52332
G1 X48.817 Y121.947 E26.56552
G1 X47.768 Y121.745 E26.60772
G1 X46.701 Y121.814 E26.64995
G1 X45.686 Y122.144 E26.69211
G1 X45.2 Y122.452 E26.71484
G0 F810 X44.782 Y122.716
G1 F420 E25.21484
G0 F2250 X46.174 Y124.396
G0 X47.788 Y123.931
G0 X47.865 Y123.909
G0 X80.211 Y114.615
G0 X80.288 Y114.593
G0 X80.278 Y114.597
G0 X78.125 Y116.75
G1 F420 E26.7344
G1 F900 X106.25 Y116.75 E27.8454
G1 X106.25 Y101.5 E28.4478
G1 X78.125 Y101.5 E29.5588
G1 X78.125 Y116.255 E30.14166
G0 F810 X78.125 Y116.75
G1 F420 E28.64166
G0 F2250 X80.278 Y114.597
G0 X84.742 Y103.661
G0 X84.772 Y103.587
G0 X87.109 Y97.865
G0 X87.139 Y97.791
G0 X87.136 Y97.801
G0 X85.939 Y99.795
G1 F420 E30.16121
G1 F900 X86.308 Y99.922 E30.17663
G1 X86.622 Y99.954 E30.18909
G1 X88.382 Y99.954 E30.25862
G1 X88.702 Y99.922 E30.27132
G1 X89.19 Y99.774 E30.29146
G1 X89.554 Y99.568 E30.30799
G1 X90.294 Y98.985 E30.3452
G1 X90.957 Y99.669 E30.38283
G1 X91.645 Y99.889 E30.41136
G1 X92.095 Y99.954 E30.42932
G1 X96.906 Y99.953 E30.61937
G1 X97.337 Y99.866 E30.63674
G1 X97.784 Y99.632 E30.65667
G1 X98.224 Y99.184 E30.68147
G1 X98.441 Y98.623 E30.70523
G1 X98.476 Y98.298 E30.71815
G1 X98.473 Y89.729 E31.05664
G1 X98.32 Y89.175 E31.07934
G1 X97.933 Y88.665 E31.10463
G1 X97.517 Y88.409 E31.12393
G1 X97.148 Y88.282 E31.13934
G1 X96.833 Y88.25 E31.15185
G1 X94.93 Y88.251 E31.22702
G1 X94.481 Y88.364 E31.24531
G1 X94.104 Y88.576 E31.2624
G1 X93.798 Y88.868 E31.27911
G1 X93.57 Y89.241 E31.29638
G1 X93.452 Y89.637 E31.3127
G1 X93.428 Y89.925 E31.32411
G1 X93.427 Y90.81 E31.35907
G1 X92.172 Y90.81 E31.40865
G1 X91.708 Y90.868 E31.42712
G1 X91.011 Y91.095 E31.45608
G1 X90.538 Y91.565 E31.48242
G1 X90.027 Y92.073 E31.51088
G1 X90.027 Y91.353 E31.52619
G1 X90.027 Y91.352 E31.52623
G1 X90.027 Y89.864 E31.58501
G1 X89.958 Y89.392 E31.60385
G1 X89.68 Y88.889 E31.62655
G1 X89.335 Y88.56 E31.64538
G1 X88.973 Y88.37 E31.66153
G1 X88.64 Y88.275 E31.67521
G1 X88.378 Y88.25 E31.68561
G1 X86.452 Y88.253 E31.76169
G1 X85.874 Y88.414 E31.78539
G1 X85.365 Y88.832 E31.81141
G1 X85.115 Y89.259 E31.83095
G1 X85.004 Y89.635 E31.84644
G1 X84.98 Y89.923 E31.85786
G1 X84.983 Y98.475 E32.19568
G1 X85.136 Y99.029 E32.21838
G1 X85.519 Y99.534 E32.24342
G0 F810 X85.523 Y99.539
G0 X85.939 Y99.795
G1 F420 E30.74342
G0 F2250 X87.136 Y97.801
G0 X87.131 Y97.795
G0 X87.178 Y97.86
G0 X91.281 Y103.592
G0 X104.097 Y103.653
G0 X104.097 Y114.597
G0 X99.202 Y114.657
G0 X106.128 Y124.332
G0 X106.175 Y124.397
G0 X106.174 Y124.396
G0 X104.782 Y122.716
G1 F420 E32.26297
G1 F900 X104.051 Y123.496 E32.3052
G1 X103.538 Y124.433 E32.3474
G1 X103.272 Y125.465 E32.3895
G1 X103.272 Y126.535 E32.43177
G1 X103.538 Y127.567 E32.47386
G1 X104.051 Y128.504 E32.51606
G1 X104.782 Y129.284 E32.55829
G1 X105.686 Y129.856 E32.60055
G1 X106.701 Y130.186 E32.64271
G1 X107.768 Y130.255 E32.68494
G1 X108.817 Y130.053 E32.72714
G1 X109.784 Y129.599 E32.76934
G1 X110.607 Y128.918 E32.81154
G1 X111.235 Y128.053 E32.85376
G1 X111.629 Y127.059 E32.896
G1 X111.762 Y126 E32.93816
G1 X111.629 Y124.941 E32.98033
G1 X111.235 Y123.947 E33.02256
G1 X110.607 Y123.082 E33.06479
G1 X109.784 Y122.401 E33.10698
G1 X108.817 Y121.947 E33.14918
G1 X107.768 Y121.745 E33.19138
G1 X106.701 Y121.814 E33.23362
G1 X105.686 Y122.144 E33.27578
G1 X105.2 Y122.452 E33.29851
G0 F810 X104.782 Y122.716
G1 F420 E31.79851
G0 F2250 X106.174 Y124.396
G0 X107.2 Y123.925
G0 X107.273 Y123.891
G0 X119.492 Y118.296
G0 X119.564 Y118.263
G0 X119.565 Y118.264
G0 X117.538 Y119.067
G1 F420 E33.31806
G1 F900 X118.051 Y120.004 E33.36026
G1 X118.782 Y120.784 E33.40249
G1 X119.686 Y121.356 E33.44475
G1 X120.701 Y121.686 E33.48691
G1 X121.768 Y121.755 E33.52914
G1 X122.817 Y121.553 E33.57134
G1 X123.784 Y121.099 E33.61354
G1 X124.607 Y120.418 E33.65574
G1 X125.235 Y119.553 E33.69796
G1 X125.409 Y119.115 E33.71658
G1 X125.629 Y118.559 E33.73576
G1 X125.762 Y117.5 E33.75728
G1 X125.629 Y116.441 E33.77879
G1 X125.409 Y115.885 E33.79798
G1 X125.235 Y115.447 E33.81659
G1 X124.607 Y114.582 E33.85882
G1 X123.784 Y113.901 E33.90102
G1 X122.817 Y113.447 E33.94321
G1 X121.768 Y113.245 E33.98541
G1 X120.701 Y113.314 E34.02765
G1 X119.686 Y113.644 E34.06981
G1 X118.782 Y114.216 E34.11207
G1 X118.051 Y114.996 E34.1543
G1 X117.538 Y115.933 E34.1965
G1 X117.272 Y116.965 E34.23859
G1 X117.272 Y118.035 E34.28086
G1 X117.415 Y118.588 E34.30342
G0 F810 X117.538 Y119.067
G1 F420 E32.80342
G0 F2250 X119.565 Y118.264
G0 X119.618 Y116.593
G0 X119.621 Y116.513
G0 X121.629 Y54.654
G0 X121.631 Y54.574
G0 X121.632 Y54.577
G0 X121.768 Y56.755
G1 F420 E34.32298
G1 F900 X122.817 Y56.553 E34.36518
G1 X123.784 Y56.099 E34.40738
G1 X124.607 Y55.418 E34.44957
G1 X125.235 Y54.553 E34.4918
G1 X125.409 Y54.115 E34.51042
G1 X125.629 Y53.559 E34.5296
G1 X125.762 Y52.5 E34.55111
G1 X125.629 Y51.441 E34.57263
G1 X125.409 Y50.885 E34.59181
G1 X125.235 Y50.447 E34.61043
G1 X124.607 Y49.582 E34.65265
G1 X123.784 Y48.901 E34.69485
G1 X122.817 Y48.447 E34.73705
G1 X121.768 Y48.245 E34.77925
G1 X120.701 Y48.314 E34.82149
G1 X119.686 Y48.644 E34.86365
G1 X118.782 Y49.216 E34.9059
G1 X118.051 Y49.996 E34.94813
G1 X117.538 Y50.933 E34.99033
G1 X117.272 Y51.965 E35.03243
G1 X117.272 Y53.035 E35.0747
G1 X117.538 Y54.067 E35.11679
G1 X118.051 Y55.004 E35.15899
G1 X118.782 Y55.784 E35.20122
G1 X119.686 Y56.356 E35.24348
G1 X120.701 Y56.686 E35.28564
G1 X121.274 Y56.724 E35.30832
G0 F810 X121.768 Y56.755
G1 F420 E33.80832
G0 F2250 X121.632 Y54.577
G0 X119.907 Y51.177
G0 X119.871 Y51.106
G0 X108.178 Y28.048
G0 X108.142 Y27.977
G0 X108.143 Y27.978
G0 X108.817 Y30.053
G1 F420 E35.32788
G1 F900 X109.784 Y29.599 E35.37008
G1 X110.607 Y28.918 E35.41227
G1 X111.235 Y28.053 E35.4545
G1 X111.629 Y27.059 E35.49673
G1 X111.762 Y26 E35.5389
G1 X111.629 Y24.941 E35.58106
G1 X111.235 Y23.947 E35.62329
G1 X110.607 Y23.082 E35.66552
G1 X109.784 Y22.401 E35.70772
G1 X108.817 Y21.947 E35.74992
G1 X107.768 Y21.745 E35.79211
G1 X106.701 Y21.814 E35.83435
G1 X105.686 Y22.144 E35.87651
G1 X104.782 Y22.716 E35.91877
G1 X104.051 Y23.496 E35.961
G1 X103.538 Y24.433 E36.0032
G1 X103.272 Y25.465 E36.04529
G1 X103.272 Y26.535 E36.08756
G1 X103.538 Y27.567 E36.12966
G1 X104.051 Y28.504 E36.17186
G1 X104.782 Y29.284 E36.21409
G1 X105.686 Y29.856 E36.25634
G1 X106.701 Y30.186 E36.29851
G1 X107.768 Y30.255 E36.34074
G1 X108.331 Y30.146 E36.36339
G0 F810 X108.817 Y30.053
G0 F2250 X108.63 Y29.478
G1 F420 E36.38295
G1 F900 X109.46 Y29.088 E36.41917
G1 X110.166 Y28.504 E36.45537
G1 X110.705 Y27.762 E36.4916
