;Generated by Cura LulzBot Edition GCodeWriter Version: 2.6.66
;FLAVOR:RepRap
;TIME:13468
;Filament used: 8.66536m
;Layer height: 0.378
;Generated with Cura_SteamEngine 2.6.66
;This G-Code has been generated specifically for the LulzBot Mini with Aerostruder
G26 ; clear potential 'probe fail' condition
G21 ; set units to Millimetres
M107 ; disable fans
G90 ; absolute positioning
M82 ; set extruder to absolute mode
G92 E0 ; set extruder position to 0
M140 S115 ; start bed heating up
G28 ; home all axes
G0 X0 Y187 Z156 F200 ; move away from endstops
M109 R170 ; soften filament before retraction
G1 E-15 F75 ; retract filament
M109 R170 ; wait for extruder to reach wiping temp
G1 X45 Y173 F11520 ; move above wiper pad
G1 Z0 F1200 ; push nozzle into wiper
G1 X42 Y173 Z-.5 F4000 ; wiping
G1 X52 Y171 Z-.5 F4000 ; wiping
G1 X42 Y173 Z0 F4000 ; wiping
G1 X52 Y171 F4000 ; wiping
G1 X42 Y173 F4000 ; wiping
G1 X52 Y171 F4000 ; wiping
G1 X42 Y173 F4000 ; wiping
G1 X52 Y171 F4000 ; wiping
G1 X57 Y173 F4000 ; wiping
G1 X77 Y171 F4000 ; wiping
G1 X57 Y173 F4000 ; wiping
G1 X77 Y171 F4000 ; wiping
G1 X57 Y173 F4000 ; wiping
G1 X87 Y171 F4000 ; wiping
G1 X77 Y173 F4000 ; wiping
G1 X97 Y171 F4000 ; wiping
G1 X77 Y173 F4000 ; wiping
G1 X97 Y171 F4000 ; wiping
G1 X77 Y173 F4000 ; wiping
G1 X97 Y171 F4000 ; wiping
G1 X107 Y173 F4000 ; wiping
G1 X97 Y171 F4000 ; wiping
G1 X107 Y173 F4000 ; wiping
G1 X97 Y171 F4000 ; wiping
G1 X107 Y173 F4000 ; wiping
G1 X112 Y171 Z-0.5 F1000 ; wiping
G1 Z10 ; raise extruder
G28 X0 Y0 ; home X and Y
G0 X0 Y187 F200 ; move away from endstops
M109 R170 ; wait for extruder to reach probe temp
M204 S300 ; set probing acceleration
G29 ; start auto-leveling sequence
M204 S2000 ; restore standard acceleration
G28 X0 Y0 ; re-home to account for build variance of earlier mini builds
G0 X0 Y187 F200 ; move away from endstops
G0 Y152 F4000 ; move in front of wiper pad
G4 S1 ; pause
M400 ; wait for moves to finish
M117 Heating... ; progress indicator message on LCD
M109 R245 ; wait for extruder to reach printing temp
M190 S116 ; wait for bed to reach printing temp
G1 Z2 E0 F75 ; prime tiny bit of filament into the nozzle
M117 Mini Printing... ; progress indicator message on LCD



M221 S100
;LAYER_COUNT:74
;LAYER:0
M107
M204 S800
M205 X2
G0 F2250 X26.213 Y17.318 Z0.42
G0 X26.415 Y17.022
;TYPE:SKIRT
G1 F900 X27.053 Y16.186 E0.04154
G1 X27.395 Y15.803 E0.06183
G1 X27.659 Y15.576 E0.07558
G1 X28.475 Y14.946 E0.1163
G1 X28.905 Y14.665 E0.13659
G1 X29.212 Y14.517 E0.15006
G1 X30.174 Y14.112 E0.19129
G1 X30.661 Y13.95 E0.21156
G1 X31.074 Y13.875 E0.22814
G1 X32.375 Y13.724 E0.27988
G1 X32.756 Y13.702 E0.29496
G1 X124.776 Y13.737 E3.92994
G1 X125.247 Y13.771 E3.9486
G1 X125.973 Y13.876 E3.97758
G1 X126.474 Y13.989 E3.99786
G1 X126.74 Y14.083 E4.00901
G1 X127.713 Y14.477 E4.05048
G1 X128.172 Y14.706 E4.07074
G1 X128.468 Y14.906 E4.08485
G1 X129.299 Y15.536 E4.12604
G1 X129.682 Y15.877 E4.1463
G1 X129.913 Y16.144 E4.16025
G1 X130.549 Y16.964 E4.20124
G1 X130.831 Y17.392 E4.22149
G1 X130.982 Y17.705 E4.23521
G1 X131.384 Y18.659 E4.27611
G1 X131.546 Y19.146 E4.29638
G1 X131.62 Y19.555 E4.3128
G1 X131.776 Y20.882 E4.36558
G1 X131.799 Y21.267 E4.38082
G1 X131.787 Y133.034 E8.79586
G1 X131.758 Y133.468 E8.81304
G1 X131.63 Y134.433 E8.85149
G1 X131.523 Y134.935 E8.87177
G1 X131.418 Y135.238 E8.88443
G1 X131.023 Y136.213 E8.92599
G1 X130.793 Y136.673 E8.94631
G1 X130.594 Y136.968 E8.96036
G1 X129.964 Y137.799 E9.00156
G1 X129.623 Y138.182 E9.02181
G1 X129.356 Y138.413 E9.03576
G1 X128.537 Y139.048 E9.0767
G1 X128.108 Y139.33 E9.09698
G1 X127.798 Y139.48 E9.11058
G1 X126.843 Y139.883 E9.15153
G1 X126.356 Y140.046 E9.17181
G1 X125.945 Y140.12 E9.18831
G1 X124.618 Y140.276 E9.24109
G1 X124.233 Y140.299 E9.25632
G1 X32.456 Y140.286 E12.88172
G1 X32.017 Y140.257 E12.89909
G1 X31.049 Y140.127 E12.93768
G1 X30.547 Y140.019 E12.95796
G1 X30.239 Y139.911 E12.97085
G1 X29.275 Y139.517 E13.01199
G1 X28.817 Y139.286 E13.03225
G1 X28.522 Y139.085 E13.04635
G1 X27.686 Y138.447 E13.0879
G1 X27.303 Y138.105 E13.10818
G1 X27.076 Y137.841 E13.12193
G1 X26.445 Y137.024 E13.16271
G1 X26.164 Y136.595 E13.18297
G1 X26.015 Y136.286 E13.19652
G1 X25.611 Y135.325 E13.2377
G1 X25.449 Y134.838 E13.25797
G1 X25.375 Y134.426 E13.27451
G1 X25.224 Y133.125 E13.32625
G1 X25.202 Y132.746 E13.34124
G1 X25.2 Y127.229 E13.55918
G1 X25.043 Y121.695 E13.77787
G1 X24.581 Y116.258 E13.99342
G1 X23.81 Y110.85 E14.20921
G1 X22.265 Y103.204 E14.51734
G1 X22.2 Y102.549 E14.54334
G1 X22.21 Y68.389 E15.89274
G1 X22.286 Y67.687 E15.92063
G1 X23.573 Y61.785 E16.15925
G1 X24.022 Y59.156 E16.26461
G1 X24.721 Y53.714 E16.48134
G1 X25.112 Y48.228 E16.6986
G1 X25.201 Y44.079 E16.86253
G1 X25.235 Y20.751 E17.78404
G1 X25.268 Y20.292 E17.80222
G1 X25.377 Y19.525 E17.83282
G1 X25.488 Y19.024 E17.85309
G1 X25.589 Y18.742 E17.86493
G1 X25.983 Y17.777 E17.9061
G1 X26.152 Y17.44 E17.92099
G0 F810 X26.213 Y17.318
G0 X26.415 Y17.022
G1 F420 E16.42099
G0 F2250 X28.614 Y18.459
G0 X30.089 Y19.597
;TYPE:WALL-INNER
G1 F420 E17.94055
G1 F900 X30.529 Y19.027 E17.95951
G1 X31.113 Y18.582 E17.97884
G1 X31.784 Y18.305 E17.99796
G1 X32.58 Y18.2 E18.01911
G1 X124.42 Y18.2 E20.43769
G1 X125.222 Y18.306 E20.459
G1 X125.896 Y18.584 E20.4782
G1 X126.473 Y19.027 E20.49735
G1 X126.916 Y19.604 E20.51651
G1 X127.194 Y20.278 E20.53571
G1 X127.3 Y21.08 E20.55701
G1 X127.3 Y132.92 E23.5023
G1 X127.194 Y133.722 E23.5236
G1 X126.916 Y134.396 E23.5428
G1 X126.473 Y134.973 E23.56196
G1 X125.896 Y135.416 E23.58111
G1 X125.222 Y135.694 E23.60032
G1 X124.42 Y135.8 E23.62162
G1 X32.568 Y135.799 E26.04052
G1 X31.774 Y135.693 E26.06162
G1 X31.097 Y135.411 E26.08093
G1 X30.527 Y134.971 E26.09989
G1 X30.082 Y134.387 E26.11923
G1 X29.805 Y133.716 E26.13835
G1 X29.7 Y132.92 E26.15949
G1 X29.7 Y103.383 E26.93734
G1 X27.997 Y101.68 E27.00077
G1 X26.7 Y101.68 E27.03492
G1 X26.7 Y69.58 E27.88027
G1 X27.997 Y69.58 E27.91442
G1 X29.7 Y67.877 E27.97785
G1 X29.701 Y21.068 E29.21055
G1 X29.806 Y20.282 E29.23144
G0 F810 X29.807 Y20.274
G0 X30.089 Y19.597
G1 F420 E27.73144
G0 F2250 X28.614 Y18.459
G0 X28.613 Y18.457
G0 X28.686 Y18.489
G0 X46.492 Y26.203
G0 X46.566 Y26.235
G0 X46.565 Y26.236
G0 X44.818 Y25.544
G1 F420 E29.25098
G1 F900 X44.572 Y26.504 E29.27708
G1 X44.572 Y27.496 E29.3032
G1 X44.818 Y28.456 E29.3293
G1 X45.296 Y29.327 E29.35546
G1 X45.976 Y30.051 E29.38162
G1 X46.814 Y30.583 E29.40776
G1 X47.757 Y30.889 E29.43387
G1 X48.749 Y30.952 E29.46004
G1 X49.724 Y30.765 E29.48619
G1 X50.622 Y30.343 E29.51232
G1 X51.386 Y29.711 E29.53843
G1 X51.97 Y28.908 E29.56458
G1 X52.336 Y27.984 E29.59075
G1 X52.459 Y27 E29.61687
G1 X52.336 Y26.016 E29.64298
G1 X51.97 Y25.092 E29.66915
G1 X51.386 Y24.289 E29.6953
G1 X50.622 Y23.657 E29.72141
G1 X49.724 Y23.235 E29.74754
G1 X48.749 Y23.048 E29.77369
G1 X47.757 Y23.111 E29.79986
G1 X46.814 Y23.417 E29.82597
G1 X45.976 Y23.949 E29.85211
G1 X45.296 Y24.673 E29.87827
G1 X45.175 Y24.894 E29.88491
G0 F810 X44.818 Y25.544
G1 F420 E28.38491
G0 F2250 X46.565 Y26.236
G0 X46.487 Y26.405
G0 X46.454 Y26.478
G0 X35.174 Y51.449
G0 X35.141 Y51.522
G0 X35.143 Y51.522
G0 X35.724 Y49.735
G1 F420 E29.90445
G1 F900 X34.749 Y49.548 E29.93059
G1 X33.757 Y49.611 E29.95677
G1 X32.814 Y49.917 E29.98288
G1 X31.976 Y50.449 E30.00902
G1 X31.296 Y51.173 E30.03517
G1 X30.818 Y52.044 E30.06134
G1 X30.572 Y53.004 E30.08744
G1 X30.572 Y53.996 E30.11356
G1 X30.818 Y54.956 E30.13966
G1 X31.296 Y55.827 E30.16582
G1 X31.976 Y56.551 E30.19198
G1 X32.814 Y57.083 E30.21812
G1 X33.757 Y57.389 E30.24423
G1 X34.749 Y57.452 E30.27041
G1 X35.724 Y57.265 E30.29655
G1 X36.622 Y56.843 E30.32268
G1 X37.386 Y56.211 E30.34879
G1 X37.97 Y55.408 E30.37494
G1 X38.336 Y54.484 E30.40111
G1 X38.459 Y53.5 E30.42723
G1 X38.336 Y52.516 E30.45334
G1 X37.97 Y51.592 E30.47952
G1 X37.386 Y50.789 E30.50566
G1 X36.622 Y50.157 E30.53177
G1 X36.395 Y50.05 E30.53838
G0 F810 X35.724 Y49.735
G1 F420 E29.03838
G0 F2250 X35.143 Y51.522
G0 X36.526 Y54.013
G0 X36.565 Y54.083
G0 X57.258 Y91.344
G0 X57.297 Y91.414
G0 X57.293 Y91.407
G0 X56.331 Y89.639
G1 F420 E30.55792
G1 F900 X56.031 Y89.803 E30.56693
G1 X55.771 Y90.043 E30.57625
G1 X55.58 Y90.345 E30.58566
G1 X55.468 Y90.664 E30.59456
G1 X55.44 Y90.932 E30.60166
G1 X55.442 Y92.774 E30.65016
G1 X55.592 Y93.265 E30.66368
G1 X55.723 Y93.422 E30.66907
G1 X55.697 Y93.446 E30.67
G1 X55.476 Y93.912 E30.68358
G1 X55.44 Y94.24 E30.69227
G1 X55.44 Y98.655 E30.80854
G1 X57.083 Y100.394 E30.87154
G1 X57.685 Y100.594 E30.88825
G1 X58.092 Y100.654 E30.89908
G1 X62.794 Y100.651 E31.02291
G1 X63.305 Y100.448 E31.03739
G1 X63.702 Y100.07 E31.05183
G1 X63.889 Y99.671 E31.06343
G1 X63.915 Y99.615 E31.06506
G1 X63.956 Y99.289 E31.07371
G1 X63.956 Y99.207 E31.07587
G1 X63.996 Y99.248
G1 X64.139 Y99.395
G1 X64.182 Y99.439 E31.07734
G1 X65.121 Y100.405 E31.11282
G1 X65.713 Y100.595 E31.12919
G1 X66.117 Y100.654 E31.13995
G1 X70.994 Y100.651 E31.26838
G1 X71.513 Y100.465 E31.2829
G1 X71.929 Y100.068 E31.29804
G1 X72.141 Y99.605 E31.31145
G1 X72.176 Y99.284 E31.31996
G1 X72.175 Y90.885 E31.54114
G1 X72.116 Y90.49 E31.55166
G1 X71.888 Y90.074 E31.56415
G1 X71.606 Y89.806 E31.5744
G1 X71.308 Y89.649 E31.58327
G1 X71.031 Y89.571 E31.59085
G1 X70.813 Y89.55 E31.59662
G1 X68.967 Y89.551 E31.64523
G1 X68.593 Y89.644 E31.65538
G1 X68.284 Y89.819 E31.66473
G1 X68.033 Y90.058 E31.67386
G1 X67.846 Y90.364 E31.6833
G1 X67.749 Y90.692 E31.69231
G1 X67.728 Y90.938 E31.69881
G1 X67.727 Y92.11 E31.72968
G1 X66.19 Y92.11 E31.77015
G1 X65.773 Y92.162 E31.78122
G1 X65.172 Y92.358 E31.79787
G1 X64.579 Y92.948 E31.8199
G1 X64.239 Y93.286 E31.83252
G1 X64.239 Y92.807 E31.83932
G1 X64.239 Y92.806 E31.83934
G1 X64.237 Y90.754 E31.89338
G1 X64.093 Y90.277 E31.9065
G1 X63.779 Y89.891 E31.91961
G1 X63.456 Y89.681 E31.92975
G1 X63.123 Y89.572 E31.93898
G1 X62.863 Y89.55 E31.94585
G1 X57.063 Y89.554 E32.09859
G0 F810 X56.661 Y89.554
G0 X56.331 Y89.639
G1 F420 E30.59859
G0 F2250 X57.293 Y91.407
G0 X61.21 Y92.221
G0 X61.463 Y92.43
G0 X61.656 Y92.853
G0 X61.798 Y94.788
G0 X63.039 Y96.178
G1 F420 E32.11813
G1 F900 X63.376 Y95.878 E32.13001
G1 X63.376 Y96.362 E32.13691
G1 X63.376 Y96.49 E32.14028
G1 X63.205 Y96.362
G1 X62.939 Y96.267 E32.14772
G1 X63.039 Y96.178
G1 F420 E30.64772
G0 F2250 X61.798 Y94.788
G0 X58.451 Y95.224
G0 X58.233 Y95.305
G0 X58.012 Y95.478
G0 X57.861 Y95.689
G0 X57.771 Y95.976
G0 X57.794 Y97.422
G0 X58.114 Y98.772
G0 X57.907 Y98.665
G0 X51.96 Y104.595
G0 X51.904 Y104.651
G0 X51.903 Y104.653
G0 X50.05 Y102.8
G1 F420 E32.14772
G1 F900 X50.05 Y117.45 E32.53352
G1 X77.575 Y117.45 E33.25838
G1 X77.575 Y102.8 E33.64419
G1 X50.792 Y102.8 E34.34951
G0 F810 X50.05 Y102.8
G1 F420 E32.84951
G0 F2250 X51.903 Y104.653
G0 X51.906 Y104.648
G0 X51.843 Y104.698
G0 X36.078 Y117.025
G0 X36.015 Y117.075
G0 X36.017 Y117.075
G0 X37.386 Y115.789
G1 F420 E34.36905
G1 F900 X36.622 Y115.157 E34.39517
G1 X35.724 Y114.735 E34.4213
G1 X34.749 Y114.548 E34.44744
G1 X33.757 Y114.611 E34.47362
G1 X32.814 Y114.917 E34.49973
G1 X31.976 Y115.449 E34.52587
G1 X31.296 Y116.173 E34.55202
G1 X30.818 Y117.044 E34.57819
G1 X30.572 Y118.004 E34.60429
G1 X30.572 Y118.996 E34.63041
G1 X30.818 Y119.956 E34.65651
G1 X31.296 Y120.827 E34.68267
G1 X31.976 Y121.551 E34.70883
G1 X32.814 Y122.083 E34.73497
G1 X33.757 Y122.389 E34.76108
G1 X34.749 Y122.452 E34.78726
G1 X35.724 Y122.265 E34.8134
G1 X36.622 Y121.843 E34.83953
G1 X37.386 Y121.211 E34.86564
G1 X37.97 Y120.408 E34.89179
G1 X38.336 Y119.484 E34.91796
G1 X38.459 Y118.5 E34.94408
G1 X38.336 Y117.516 E34.97019
G1 X37.97 Y116.592 E34.99636
G1 X37.822 Y116.389 E35.00298
G0 F810 X37.386 Y115.789
G1 F420 E33.50298
G0 F2250 X36.017 Y117.075
G0 X36.09 Y117.129
G0 X36.154 Y117.176
G0 X47.11 Y125.347
G0 X47.174 Y125.395
G0 X47.174 Y125.396
G0 X45.976 Y123.949
G1 F420 E35.02252
G1 F900 X45.296 Y124.673 E35.04868
G1 X44.818 Y125.544 E35.07484
G1 X44.572 Y126.504 E35.10094
G1 X44.572 Y127.496 E35.12707
G1 X44.818 Y128.456 E35.15316
G1 X45.296 Y129.327 E35.17933
G1 X45.976 Y130.051 E35.20549
G1 X46.814 Y130.583 E35.23163
G1 X47.757 Y130.889 E35.25773
G1 X48.749 Y130.952 E35.28391
G1 X49.724 Y130.765 E35.31006
G1 X50.622 Y130.343 E35.33619
G1 X51.386 Y129.711 E35.3623
G1 X51.97 Y128.908 E35.38844
G1 X52.336 Y127.984 E35.41462
G1 X52.459 Y127 E35.44073
G1 X52.336 Y126.016 E35.46685
G1 X51.97 Y125.092 E35.49302
G1 X51.386 Y124.289 E35.51917
G1 X50.622 Y123.657 E35.54528
G1 X49.724 Y123.235 E35.57141
G1 X48.749 Y123.048 E35.59755
G1 X47.757 Y123.111 E35.62373
G1 X46.814 Y123.417 E35.64984
G1 X46.602 Y123.552 E35.65646
G0 F810 X45.976 Y123.949
G1 F420 E34.15646
G0 F2250 X47.174 Y125.396
G0 X48.788 Y124.931
G0 X48.865 Y124.909
G0 X81.211 Y115.615
G0 X81.288 Y115.593
G0 X81.278 Y115.597
G0 X79.425 Y117.45
G1 F420 E35.676
G1 F900 X106.95 Y117.45 E36.40086
G1 X106.95 Y102.8 E36.78667
G1 X79.425 Y102.8 E37.51153
G1 X79.425 Y116.708 E37.8778
G0 F810 X79.425 Y117.45
G1 F420 E36.3778
G0 F2250 X81.278 Y115.597
G0 X85.742 Y104.66
G0 X85.773 Y104.586
G0 X88.109 Y98.865
G0 X88.139 Y98.791
G0 X88.136 Y98.801
G0 X87.069 Y100.522
G1 F420 E37.89734
G1 F900 X87.373 Y100.626 E37.9058
G1 X87.637 Y100.654 E37.91279
G1 X89.366 Y100.654 E37.95832
G1 X89.644 Y100.627 E37.96568
G1 X90.072 Y100.496 E37.97747
G1 X90.386 Y100.318 E37.98697
G1 X91.146 Y99.72 E38.01244
G1 X91.292 Y99.552 E38.0183
G1 X91.304 Y99.564
G1 X92.121 Y100.405 E38.04918
G1 X92.713 Y100.595 E38.06555
G1 X93.117 Y100.654 E38.0763
G1 X97.994 Y100.651 E38.20474
G1 X98.513 Y100.465 E38.21926
G1 X98.929 Y100.068 E38.2344
G1 X99.141 Y99.605 E38.24781
G1 X99.176 Y99.284 E38.25631
G1 X99.173 Y90.77 E38.48053
G1 X99.045 Y90.311 E38.49308
G1 X98.729 Y89.89 E38.50694
G1 X98.387 Y89.682 E38.51748
G1 X98.083 Y89.578 E38.52594
G1 X97.819 Y89.55 E38.53293
G1 X95.967 Y89.551 E38.58171
G1 X95.593 Y89.644 E38.59186
G1 X95.284 Y89.819 E38.60121
G1 X95.033 Y90.058 E38.61033
G1 X94.846 Y90.364 E38.61978
G1 X94.749 Y90.692 E38.62879
G1 X94.728 Y90.938 E38.63529
G1 X94.727 Y92.11 E38.66615
G1 X93.19 Y92.11 E38.70663
G1 X92.773 Y92.162 E38.7177
G1 X92.172 Y92.358 E38.73434
G1 X91.067 Y93.457 E38.77538
G1 X90.727 Y93.795 E38.78801
G1 X90.727 Y93.316 E38.7948
G1 X90.727 Y93.315 E38.79483
G1 X90.725 Y90.77 E38.86185
G1 X90.597 Y90.311 E38.8744
G1 X90.281 Y89.89 E38.88826
G1 X89.94 Y89.682 E38.89878
G1 X89.634 Y89.577 E38.9073
G1 X89.368 Y89.55 E38.91434
G1 X87.492 Y89.553 E38.96375
G1 X87.015 Y89.686 E38.97679
G1 X86.598 Y90.029 E38.99101
G1 X86.393 Y90.379 E39.00169
G1 X86.301 Y90.69 E39.01023
G1 X86.28 Y90.936 E39.01673
G1 X86.283 Y99.434 E39.24053
G1 X86.411 Y99.893 E39.25308
G1 X86.522 Y100.041 E39.25795
G0 F810 X86.727 Y100.314
G0 X87.069 Y100.522
G1 F420 E37.75795
G0 F2250 X88.136 Y98.801
G0 X88.131 Y98.795
G0 X88.178 Y98.86
G0 X92.281 Y104.592
G0 X105.097 Y104.653
G0 X105.097 Y115.597
G0 X100.202 Y115.656
G0 X107.128 Y125.332
G0 X107.174 Y125.397
G0 X107.174 Y125.396
G0 X105.976 Y123.949
G1 F420 E39.27749
G1 F900 X105.296 Y124.673 E39.30364
G1 X104.818 Y125.544 E39.32981
G1 X104.572 Y126.504 E39.35591
G1 X104.572 Y127.496 E39.38203
G1 X104.818 Y128.456 E39.40813
G1 X105.296 Y129.327 E39.43429
G1 X105.976 Y130.051 E39.46045
G1 X106.814 Y130.583 E39.48659
G1 X107.757 Y130.889 E39.5127
G1 X108.749 Y130.952 E39.53888
G1 X109.724 Y130.765 E39.56502
G1 X110.622 Y130.343 E39.59115
G1 X111.386 Y129.711 E39.61726
G1 X111.97 Y128.908 E39.64341
G1 X112.336 Y127.984 E39.66958
G1 X112.459 Y127 E39.6957
G1 X112.336 Y126.016 E39.72181
G1 X111.97 Y125.092 E39.74799
G1 X111.386 Y124.289 E39.77413
G1 X110.622 Y123.657 E39.80025
G1 X109.724 Y123.235 E39.82638
G1 X108.749 Y123.048 E39.85252
G1 X107.757 Y123.111 E39.8787
G1 X106.814 Y123.417 E39.90481
G1 X106.602 Y123.552 E39.91142
G0 F810 X105.976 Y123.949
G1 F420 E38.41142
G0 F2250 X107.174 Y125.396
G0 X108.2 Y124.925
G0 X108.273 Y124.892
G0 X120.492 Y119.297
G0 X120.565 Y119.263
G0 X120.565 Y119.264
G0 X118.818 Y119.956
G1 F420 E39.93096
G1 F900 X119.296 Y120.827 E39.95713
G1 X119.976 Y121.551 E39.98329
G1 X120.814 Y122.083 E40.00943
G1 X121.757 Y122.389 E40.03554
