;Generated by Cura LulzBot Edition GCodeWriter Version: 3.2.13
;FLAVOR:Marlin
;TIME:2295
;Filament used: 0.648197m
;Layer height: 0.25
;Generated with Cura_SteamEngine 3.2.13
M82 ;absolute extrusion mode
;This G-Code has been generated specifically for the LulzBot Hibiscus
G26 					; clear potential 'probe fail' condition
G21 					; set units to Millimetres
M107 					; disable fans
G90 					; absolute positioning
M82 					; set extruder to absolute mode
G92 E0 					; set extruder position to 0
M140 S60 	; start bed heating up
G28 					; home all axes
G0 X0 Y187 Z156 F200 			; move away from endstops
M117 Hibiscus Wiping...			; progress indicator message on LCD
M109 R140 	; soften filament before retraction
G1 E-15 F75 				; retract filament
M109 R140 	; wait for extruder to reach wiping temp
G1 X45 Y176 F11520 			; move above wiper pad
G1 Z0 F1200 				; push nozzle into wiper
G1 X45 Y176 Z-.5 F4000		; wiping
G1 X55 Y174 Z-.5 F4000		; wiping
G1 X45 Y176 Z0 F4000		; wiping
G1 X55 Y174 F4000		; wiping
G1 X45 Y176 F4000		; wiping
G1 X55 Y174 F4000		; wiping
G1 X45 Y176 F4000		; wiping
G1 X55 Y174 F4000		; wiping
G1 X60 Y176 F4000		; wiping
G1 X80 Y174 F4000		; wiping
G1 X60 Y176 F4000		; wiping
G1 X80 Y174 F4000		; wiping
G1 X60 Y176 F4000		; wiping
G1 X90 Y174 F4000		; wiping
G1 X80 Y176 F4000		; wiping
G1 X100 Y174 F4000		; wiping
G1 X80 Y176 F4000		; wiping
G1 X100 Y174 F4000		; wiping
G1 X80 Y176 F4000		; wiping
G1 X100 Y174 F4000		; wiping
G1 X110 Y176 F4000		; wiping
G1 X100 Y174 F4000		; wiping
G1 X110 Y176 F4000		; wiping
G1 X100 Y174 F4000		; wiping
G1 X110 Y176 F4000		; wiping
G1 X115 Y174 Z-0.5 F1000	; wiping
G1 Z10					; raise extruder
G28 X0 Y0				; home X and Y
M109 R140	; wait for extruder to reach probe temp
M204 S300				; set probing acceleration
G29					; start auto-leveling sequence
M204 S2000				; restore standard acceleration
G1 X5 Y15 Z10 F5000			; move up off last probe point
G4 S1					; pause
M400					; wait for moves to finish
M117 Heating...				; progress indicator message on LCD
M109 R205	; wait for extruder to reach printing temp
M190 S60	; wait for bed to reach printing temp
G1 Z2 E0 F75				; prime tiny bit of filment into the nozzle
M117 Hibiscus Printing...		; progress indicator message on LCD

M221 S100
;LAYER_COUNT:74
;LAYER:0
M107
G0 F2625 X42.819 Y41.994 Z0.425
;TYPE:SKIRT
G1 F900 X43.539 Y41.356 E0.03204
G1 X44.159 Y40.84 E0.05891
G1 X45.046 Y40.153 E0.09629
G1 X46.228 Y39.383 E0.14328
G1 X47.541 Y38.608 E0.19406
G1 X48.527 Y38.072 E0.23145
G1 X49.794 Y37.509 E0.27763
G1 X50.556 Y37.21 E0.3049
G1 X51.728 Y36.803 E0.34622
G1 X58.01 Y34.893 E0.56494
G1 X62.436 Y33.241 E0.7223
G1 X66.824 Y31.313 E0.88196
G1 X70.718 Y29.357 E1.02711
G1 X71.738 Y28.89 E1.06448
G1 X73.152 Y28.379 E1.11456
G1 X74.214 Y28.052 E1.15158
G1 X75.298 Y27.761 E1.18896
G1 X76.4 Y27.547 E1.22636
G1 X77.823 Y27.388 E1.27405
G1 X78.911 Y27.317 E1.31037
G1 X80.033 Y27.284 E1.34776
G1 X81.155 Y27.331 E1.38517
G1 X82.453 Y27.486 E1.42871
G1 X83.596 Y27.671 E1.46728
G1 X84.697 Y27.89 E1.50468
G1 X85.78 Y28.187 E1.54208
G1 X87.111 Y28.67 E1.58925
G1 X88.761 Y29.354 E1.64875
G1 X89.701 Y29.78 E1.68312
G1 X94.374 Y32.087 E1.85672
G1 X98.742 Y33.945 E2.01483
G1 X103.244 Y35.565 E2.17421
G1 X108.336 Y37.084 E2.35121
G1 X109.399 Y37.443 E2.38859
G1 X110.017 Y37.691 E2.41077
G1 X111.247 Y38.216 E2.45532
G1 X112.263 Y38.693 E2.4927
G1 X113.242 Y39.242 E2.53009
G1 X113.929 Y39.684 E2.5573
G1 X114.443 Y40.034 E2.57802
G1 X115.347 Y40.698 E2.61538
G1 X116.58 Y41.782 E2.67007
G1 X117.673 Y42.849 E2.72095
G1 X118.448 Y43.661 E2.75834
G1 X119.163 Y44.526 E2.79572
G1 X119.924 Y45.609 E2.83981
G1 X120.281 Y46.165 E2.86182
G1 X120.854 Y47.131 E2.89923
G1 X121.356 Y48.134 E2.93659
G1 X121.712 Y48.978 E2.96711
G1 X122.034 Y49.808 E2.99676
G1 X122.53 Y51.306 E3.04933
G1 X123.348 Y54.262 E3.15149
G1 X124.85 Y58.879 E3.31322
G1 X126.574 Y63.309 E3.47156
G1 X128.615 Y67.784 E3.6354
G1 X130.384 Y71.31 E3.76681
G1 X130.851 Y72.33 E3.80417
G1 X131.244 Y73.382 E3.84158
G1 X131.633 Y74.747 E3.88886
G1 X131.928 Y75.994 E3.93155
G1 X132.147 Y77.095 E3.96894
G1 X132.288 Y78.208 E4.00631
G1 X132.35 Y79.774 E4.05851
G1 X132.339 Y80.901 E4.09606
G1 X132.288 Y82.022 E4.13344
G1 X132.135 Y83.278 E4.17558
G1 X131.988 Y84.181 E4.20606
G1 X131.769 Y85.281 E4.24342
G1 X131.392 Y86.61 E4.28944
G1 X131.178 Y87.255 E4.31207
G1 X130.787 Y88.307 E4.34946
G1 X130.321 Y89.328 E4.38684
G1 X130.057 Y89.835 E4.40588
G1 X128.499 Y92.693 E4.51431
G1 X126.309 Y97.092 E4.678
G1 X124.386 Y101.575 E4.84049
G1 X123.613 Y103.609 E4.91297
G1 X121.756 Y109.139 E5.10728
G1 X121.361 Y110.189 E5.14465
G1 X120.892 Y111.209 E5.18205
G1 X120.538 Y111.872 E5.20708
G1 X119.751 Y113.265 E5.26038
G1 X119.164 Y114.222 E5.29777
G1 X118.511 Y115.135 E5.33517
G1 X117.488 Y116.333 E5.38764
G1 X116.926 Y116.928 E5.4149
G1 X116.127 Y117.716 E5.45228
G1 X115.273 Y118.445 E5.48969
G1 X114.265 Y119.183 E5.5313
G1 X113.282 Y119.844 E5.57076
G1 X112.329 Y120.437 E5.60815
G1 X111.433 Y120.913 E5.64194
G1 X110.887 Y121.181 E5.6622
G1 X109.862 Y121.639 E5.6996
G1 X109.09 Y121.929 E5.72707
G1 X102.786 Y124.107 E5.94924
G1 X98.399 Y125.92 E6.10736
G1 X94.091 Y127.995 E6.26664
G1 X89.732 Y130.382 E6.43218
G1 X88.729 Y130.886 E6.46957
G1 X87.693 Y131.317 E6.50695
G1 X86.871 Y131.599 E6.5359
G1 X85.858 Y131.916 E6.57126
G1 X84.775 Y132.213 E6.60866
G1 X83.675 Y132.432 E6.64602
G1 X82.346 Y132.59 E6.69061
G1 X81.279 Y132.671 E6.72625
G1 X80.158 Y132.716 E6.76362
G1 X79.036 Y132.681 E6.80101
G1 X77.657 Y132.527 E6.84723
G1 X76.466 Y132.341 E6.88739
G1 X75.364 Y132.129 E6.92477
G1 X73.911 Y131.72 E6.97505
G1 X72.901 Y131.383 E7.01052
G1 X71.85 Y130.99 E7.04789
G1 X70.537 Y130.374 E7.0962
G1 X64.518 Y127.199 E7.32288
G1 X60.112 Y125.206 E7.48396
G1 X58.142 Y124.412 E7.55472
G1 X53.413 Y122.74 E7.7218
G1 X50.858 Y121.954 E7.81084
G1 X49.797 Y121.586 E7.84825
G1 X48.766 Y121.143 E7.88563
G1 X47.391 Y120.409 E7.93755
G1 X45.958 Y119.55 E7.9932
G1 X45.017 Y118.939 E8.03057
G1 X44.121 Y118.262 E8.06798
G1 X43.276 Y117.524 E8.10535
G1 X42.552 Y116.799 E8.13948
G1 X41.687 Y115.874 E8.18167
G1 X40.95 Y115.027 E8.21907
G1 X40.276 Y114.13 E8.25644
G1 X39.666 Y113.188 E8.29382
G1 X39.349 Y112.629 E8.31523
G1 X38.886 Y111.776 E8.34756
G1 X38.386 Y110.772 E8.38492
G1 X37.959 Y109.734 E8.42231
G1 X37.671 Y108.883 E8.45223
G1 X36.417 Y104.797 E8.59461
G1 X34.803 Y100.121 E8.75938
G1 X33.025 Y95.787 E8.91543
G1 X29.606 Y88.772 E9.17537
G1 X29.151 Y87.746 E9.21276
G1 X28.816 Y86.832 E9.24519
G1 X28.591 Y86.154 E9.26898
G1 X28.275 Y85.077 E9.30637
G1 X28.038 Y83.98 E9.34375
G1 X27.876 Y82.846 E9.38191
G1 X27.714 Y81.311 E9.43333
G1 X27.636 Y80.191 E9.47072
G1 X27.638 Y79.069 E9.5081
G1 X27.679 Y78.377 E9.53119
G1 X27.735 Y77.691 E9.55412
G1 X27.866 Y76.576 E9.59151
G1 X28.117 Y75.299 E9.63486
G1 X28.423 Y74.023 E9.67857
G1 X28.724 Y72.942 E9.71595
G1 X29.1 Y71.885 E9.75332
G1 X29.533 Y70.895 E9.78932
G1 X32.424 Y64.855 E10.01237
G1 X34.216 Y60.461 E10.17044
G1 X35.795 Y55.864 E10.33235
G1 X37.207 Y51.069 E10.49885
G1 X37.562 Y50.004 E10.53625
G1 X38.051 Y48.841 E10.57827
G1 X38.536 Y47.805 E10.61638
G1 X39.047 Y46.806 E10.65375
G1 X39.629 Y45.847 E10.69112
G1 X40.485 Y44.665 E10.73974
G1 X41.299 Y43.644 E10.78323
G1 X42.029 Y42.792 E10.8206
G1 X42.819 Y41.994 E10.85801
G0 F2625 X43.187 Y42.334
G1 F900 X43.859 Y41.74 E10.88788
G1 X44.479 Y41.224 E10.91475
G1 X45.352 Y40.549 E10.95151
G1 X46.482 Y39.813 E10.99643
G1 X47.795 Y39.038 E11.04722
G1 X48.766 Y38.512 E11.084
G1 X49.977 Y37.975 E11.12813
G1 X50.739 Y37.676 E11.1554
G1 X51.873 Y37.281 E11.1954
G1 X58.187 Y35.362 E11.41522
G1 X62.617 Y33.708 E11.57273
G1 X67.042 Y31.763 E11.73374
G1 X70.943 Y29.804 E11.87915
G1 X71.947 Y29.345 E11.91592
G1 X73.299 Y28.857 E11.9638
G1 X74.361 Y28.53 E12.00082
G1 X75.428 Y28.244 E12.03761
G1 X76.512 Y28.035 E12.07439
G1 X77.856 Y27.887 E12.11943
G1 X78.944 Y27.816 E12.15575
G1 X80.048 Y27.784 E12.19254
G1 X81.151 Y27.832 E12.22931
G1 X82.374 Y27.98 E12.27035
G1 X83.517 Y28.165 E12.30892
G1 X84.6 Y28.381 E12.3457
G1 X85.664 Y28.674 E12.38247
G1 X86.92 Y29.131 E12.42699
G1 X88.57 Y29.815 E12.48648
G1 X89.48 Y30.228 E12.51977
G1 X94.173 Y32.544 E12.6941
G1 X98.551 Y34.407 E12.85258
G1 X103.095 Y36.043 E13.01346
G1 X108.193 Y37.563 E13.19066
G1 X109.239 Y37.917 E13.22745
G1 X109.821 Y38.151 E13.24834
G1 X111.051 Y38.676 E13.29289
G1 X112.05 Y39.146 E13.32966
G1 X113.013 Y39.687 E13.36646
G1 X113.647 Y40.097 E13.39161
G1 X114.161 Y40.447 E13.41232
G1 X115.051 Y41.101 E13.44911
G1 X116.231 Y42.14 E13.50148
G1 X117.324 Y43.207 E13.55236
G1 X118.086 Y44.006 E13.58914
G1 X118.788 Y44.859 E13.62594
G1 X119.503 Y45.879 E13.66743
G1 X119.86 Y46.435 E13.68944
G1 X120.423 Y47.386 E13.72626
G1 X120.916 Y48.374 E13.76304
G1 X121.246 Y49.159 E13.7914
G1 X121.568 Y49.989 E13.82106
G1 X122.048 Y51.44 E13.87197
G1 X122.865 Y54.393 E13.97403
G1 X124.382 Y59.058 E14.13743
G1 X126.113 Y63.504 E14.29636
G1 X128.16 Y67.993 E14.4607
G1 X129.937 Y71.534 E14.59267
G1 X130.396 Y72.539 E14.62947
G1 X130.781 Y73.574 E14.66626
G1 X131.146 Y74.862 E14.71085
G1 X131.441 Y76.109 E14.75354
G1 X131.657 Y77.192 E14.79032
G1 X131.793 Y78.288 E14.82711
G1 X131.85 Y79.769 E14.87648
G1 X131.839 Y80.896 E14.91402
G1 X131.789 Y81.999 E14.9508
G1 X131.642 Y83.197 E14.99101
G1 X131.495 Y84.1 E15.02148
G1 X131.278 Y85.183 E15.05827
G1 X130.917 Y86.452 E15.10222
G1 X130.703 Y87.097 E15.12486
G1 X130.318 Y88.132 E15.16164
G1 X129.618 Y89.596 E15.2157
G1 X128.048 Y92.476 E15.32496
G1 X125.859 Y96.873 E15.48857
G1 X123.927 Y101.378 E15.65185
G1 X123.138 Y103.454 E15.72583
G1 X121.282 Y108.98 E15.92001
G1 X120.892 Y110.013 E15.95679
G1 X120.429 Y111.016 E15.99359
G1 X120.103 Y111.626 E16.01663
G1 X119.316 Y113.019 E16.06992
G1 X118.738 Y113.961 E16.10673
G1 X118.094 Y114.858 E16.14352
G1 X117.124 Y115.99 E16.19317
G1 X116.562 Y116.585 E16.22044
G1 X115.776 Y117.359 E16.25718
G1 X114.935 Y118.075 E16.29397
G1 X113.986 Y118.768 E16.33312
G1 X113.003 Y119.429 E16.37258
G1 X112.064 Y120.012 E16.40939
G1 X111.213 Y120.464 E16.44149
G1 X110.667 Y120.732 E16.46175
G1 X109.658 Y121.182 E16.49855
G1 X108.926 Y121.456 E16.52459
G1 X102.613 Y123.637 E16.74707
G1 X98.207 Y125.459 E16.90589
G1 X93.865 Y127.549 E17.06641
G1 X89.492 Y129.944 E17.23249
G1 X88.505 Y130.439 E17.26927
G1 X87.484 Y130.861 E17.30607
G1 X86.721 Y131.122 E17.33293
G1 X85.708 Y131.439 E17.36829
G1 X84.643 Y131.73 E17.40506
G1 X83.56 Y131.944 E17.44184
G1 X82.308 Y132.091 E17.48383
G1 X81.241 Y132.172 E17.51947
G1 X80.138 Y132.216 E17.55624
G1 X79.034 Y132.18 E17.59304
G1 X77.734 Y132.033 E17.63662
G1 X76.543 Y131.847 E17.67677
G1 X75.459 Y131.638 E17.71354
G1 X74.069 Y131.246 E17.76165
G1 X73.059 Y130.909 E17.79712
G1 X72.025 Y130.522 E17.83389
G1 X70.771 Y129.931 E17.88007
G1 X64.761 Y126.76 E18.10642
G1 X60.299 Y124.742 E18.26955
G1 X58.322 Y123.946 E18.34054
G1 X53.562 Y122.263 E18.50872
G1 X51.005 Y121.476 E18.59783
G1 X49.961 Y121.113 E18.63465
G1 X48.947 Y120.676 E18.67143
G1 X47.648 Y119.98 E18.72052
G1 X46.215 Y119.121 E18.77618
G1 X45.289 Y118.519 E18.81297
G1 X44.409 Y117.852 E18.84975
G1 X43.58 Y117.123 E18.88652
G1 X42.917 Y116.457 E18.91782
G1 X42.052 Y115.532 E18.96001
G1 X41.328 Y114.699 E18.99677
G1 X40.665 Y113.815 E19.03358
G1 X40.069 Y112.886 E19.07035
G1 X39.788 Y112.391 E19.08931
G1 X39.325 Y111.538 E19.12164
G1 X38.834 Y110.549 E19.15842
G1 X38.415 Y109.527 E19.19521
G1 X38.149 Y108.736 E19.22301
G1 X36.891 Y104.636 E19.36587
G1 X35.278 Y99.963 E19.53054
G1 X33.471 Y95.558 E19.68913
G1 X30.056 Y88.552 E19.94876
G1 X29.608 Y87.543 E19.98553
G1 X29.29 Y86.674 E20.01635
G1 X29.065 Y85.996 E20.04015
G1 X28.756 Y84.936 E20.07693
G1 X28.523 Y83.857 E20.1137
G1 X28.373 Y82.794 E20.14946
G1 X28.211 Y81.259 E20.20087
G1 X28.135 Y80.157 E20.23767
G1 X28.139 Y79.052 E20.27448
G1 X28.178 Y78.417 E20.29567
G1 X28.234 Y77.731 E20.3186
G1 X28.363 Y76.635 E20.35536
G1 X28.603 Y75.416 E20.39674
G1 X28.909 Y74.14 E20.44045
G1 X29.206 Y73.076 E20.47725
G1 X29.578 Y72.036 E20.51404
G1 X29.984 Y71.111 E20.54769
G1 X32.882 Y65.057 E20.77126
G1 X34.686 Y60.633 E20.93041
G1 X36.264 Y56.037 E21.09228
G1 X37.686 Y51.21 E21.2599
G1 X38.037 Y50.163 E21.29668
G1 X38.504 Y49.053 E21.33679
G1 X38.989 Y48.017 E21.3749
G1 X39.493 Y47.035 E21.41167
G1 X40.067 Y46.091 E21.44847
G1 X40.876 Y44.976 E21.49435
G1 X41.69 Y43.955 E21.53785
G1 X42.409 Y43.117 E21.57463
G1 X43.187 Y42.334 E21.6114
G1 F600 E19.8614
G0 F2625 X54.727 Y51.843
G0 X55.417 Y53.149
G0 X54.889 Y53.408
G0 X54.425 Y53.736
G0 X54.043 Y54.145
G0 X53.747 Y54.624
G0 X53.298 Y55.777
G0 X53.098 Y56.48
G0 X52.982 Y57.343
G0 X53.042 Y58.348
G0 X53.262 Y59.405
G0 X53.634 Y60.471
G0 X54.12 Y61.492
G0 X54.691 Y62.414
G0 X55.392 Y63.321
G0 X56.278 Y64.316
G0 X57.297 Y65.304
G0 X58.386 Y66.168
G0 X59.506 Y66.807
G0 X88.599 Y77.321
G0 X88.695 Y77.294
;TYPE:WALL-INNER
G1 F600 E21.6114
G1 F900 X89.006 Y77.412 E21.62248
G1 X89.91 Y77.758 E21.65472
G1 X90.217 Y77.86 E21.6655
G1 X91.195 Y78.161 E21.69958
G1 X92.283 Y78.669 E21.73958
G1 X93.371 Y79.338 E21.78213
G1 X94.416 Y80.161 E21.82643
G1 X95.281 Y80.856 E21.8634
G1 X95.475 Y81 E21.87144
G1 X96.279 Y81.491 E21.90282
G1 X96.498 Y81.615 E21.91121
G1 X97.441 Y82.017 E21.94535
G1 X98.323 Y82.259 E21.97582
G1 X99.228 Y82.318 E22.00603
G1 X100.218 Y82.2 E22.03924
G1 X101.25 Y81.85 E22.07554
G1 X101.275 Y81.842 E22.07641
G1 X101.962 Y81.432 E22.10306
G1 X102.322 Y81.216 E22.11705
G1 X102.825 Y80.846 E22.13785
G1 X103.239 Y80.542 E22.15496
G1 X103.63 Y80.239 E22.17144
G1 X103.967 Y79.977 E22.18565
G1 X104.45 Y79.564 E22.20682
G1 X104.611 Y79.426 E22.21389
G1 X105.244 Y78.826 E22.24294
G1 X106.605 Y77.469 E22.30696
G1 X106.793 Y77.299 E22.3154
G1 X107.34 Y76.807 E22.33991
G1 X107.467 Y76.717 E22.34509
G1 X108.057 Y76.297 E22.36922
G1 X108.157 Y76.246 E22.37296
G1 X108.849 Y75.887 E22.39893
G1 X108.891 Y75.872 E22.40041
G1 X109.745 Y75.568 E22.43061
G1 X109.805 Y75.56 E22.43262
G1 X110.741 Y75.424 E22.46413
G1 X110.894 Y75.438 E22.46925
G1 X111.882 Y75.533 E22.50231
G1 X112.049 Y75.586 E22.50814
G1 X113 Y75.889 E22.54139
G1 X113.164 Y75.99 E22.54781
G1 X113.985 Y76.495 E22.57992
G1 X114.139 Y76.637 E22.58689
G1 X114.757 Y77.209 E22.61494
G1 X114.888 Y77.387 E22.6223
G1 X114.726 Y77.246
G1 X114.089 Y76.693 E22.62578
G1 X113.926 Y76.597
G1 X113.095 Y76.104 E22.63385
G1 X112.946 Y76.056
G1 X111.999 Y75.746 E22.64518
G1 X111.868 Y75.737
G1 X110.874 Y75.661 E22.65938
G1 X110.797 Y75.677
G1 X109.853 Y75.882 E22.67833
G1 X109.019 Y76.229 E22.69971
G1 X108.323 Y76.565 E22.71872
G1 X108.255 Y76.608 E22.72004
G1 X107.659 Y76.986 E22.73636
G1 X107.558 Y77.07 E22.73776
G1 X107.001 Y77.529 E22.75332
G1 X106.815 Y77.698 E22.75727
G1 X105.397 Y78.993 E22.79155
G1 X104.753 Y79.581 E22.80421
G1 X104.592 Y79.729
G1 X104.142 Y80.16 E22.81386
G1 X103.814 Y80.475 E22.82243
G1 X103.464 Y80.79 E22.83222
G1 X103.055 Y81.158 E22.84561
G1 X102.571 Y81.535 E22.86173
G1 X102.198 Y81.826 E22.87546
G1 X101.546 Y82.254 E22.90017
G1 X101.524 Y82.268 E22.90104
G1 X101.26 Y82.443 E22.91159
G1 X100.306 Y82.941 E22.94743
G1 X99.371 Y83.293 E22.98071
G1 X98.474 Y83.484 E23.01126
G1 X97.563 Y83.54 E23.04167
G1 X96.642 Y83.469 E23.07244
G1 X95.798 Y83.3 E23.10111
G1 X95.071 Y83.056 E23.12665
G1 X93.005 Y82.15 E23.2018
G1 X91.686 Y81.683 E23.24841
G1 X90.598 Y81.598 E23.28476
G1 X89.811 Y81.776 E23.31164
G1 X89.181 Y82.114 E23.33545
G1 X88.833 Y82.841 E23.3623
G1 X88.984 Y83.231 E23.37623
G1 X89.058 Y83.492 E23.38527
G1 X89.266 Y83.724 E23.39565
G1 X89.392 Y83.898 E23.4028
G1 X89.592 Y84.073 E23.41165
G1 X89.706 Y84.183 E23.41693
G1 X90.209 Y84.738 E23.44188
G1 X92.441 Y87.66 E23.56436
G1 X93.66 Y89.169 E23.62898
G1 X94.041 Y89.594 E23.64799
G1 X94.947 Y90.579 E23.69257
G1 X96.358 Y91.873 E23.75634
G1 X97.793 Y92.972 E23.81655
G1 X99.213 Y93.871 E23.87254
G1 X99.569 Y94.066 E23.88606
G1 X100.553 Y94.582 E23.92307
G1 X100.938 Y94.758 E23.93717
G1 X101.716 Y95.094 E23.9654
G1 X102.765 Y95.567 E24.00373
G1 X103.822 Y96.191 E24.04461
G1 X104.724 Y96.828 E24.0814
