;Generated by Cura LulzBot Edition GCodeWriter Version: 3.2.18
;FLAVOR:Marlin
;TIME:2457
;Filament used: 0.745946m
;Layer height: 0.25
;Generated with Cura_SteamEngine 3.2.18
M82 ;absolute extrusion mode
;This G-Code has been generated specifically for the LulzBot Hibiscus
G26 					; clear potential 'probe fail' condition
G21 					; set units to Millimetres
M107 					; disable fans
G90 					; absolute positioning
M82 					; set extruder to absolute mode
G92 E0 					; set extruder position to 0
M140 S60 	; start bed heating up
G28 					; home all axes
G0 X0 Y187 Z156 F200 			; move away from endstops
M117 Hibiscus Wiping...			; progress indicator message on LCD
M109 R140 	; soften filament before retraction
G1 E-15 F75 				; retract filament
M109 R140 	; wait for extruder to reach wiping temp
G1 X45 Y176 F11520 			; move above wiper pad
G1 Z0 F1200 				; push nozzle into wiper
G1 X45 Y176 Z-.5 F4000		; wiping
G1 X55 Y174 Z-.5 F4000		; wiping
G1 X45 Y176 Z0 F4000		; wiping
G1 X55 Y174 F4000		; wiping
G1 X45 Y176 F4000		; wiping
G1 X55 Y174 F4000		; wiping
G1 X45 Y176 F4000		; wiping
G1 X55 Y174 F4000		; wiping
G1 X60 Y176 F4000		; wiping
G1 X80 Y174 F4000		; wiping
G1 X60 Y176 F4000		; wiping
G1 X80 Y174 F4000		; wiping
G1 X60 Y176 F4000		; wiping
G1 X90 Y174 F4000		; wiping
G1 X80 Y176 F4000		; wiping
G1 X100 Y174 F4000		; wiping
G1 X80 Y176 F4000		; wiping
G1 X100 Y174 F4000		; wiping
G1 X80 Y176 F4000		; wiping
G1 X100 Y174 F4000		; wiping
G1 X110 Y176 F4000		; wiping
G1 X100 Y174 F4000		; wiping
G1 X110 Y176 F4000		; wiping
G1 X100 Y174 F4000		; wiping
G1 X110 Y176 F4000		; wiping
G1 X115 Y174 Z-0.5 F1000	; wiping
G1 Z10					; raise extruder
G28 X0 Y0				; home X and Y
M109 R140	; wait for extruder to reach probe temp
M204 S300				; set probing acceleration
G29					; start auto-leveling sequence
M204 S2000				; restore standard acceleration
G1 X5 Y15 Z10 F5000			; move up off last probe point
G4 S1					; pause
M400					; wait for moves to finish
M117 Heating...				; progress indicator message on LCD
M109 R205	; wait for extruder to reach printing temp
M190 S60 ; wait for bed to reach printing temp
G1 Z2 E0 F75				; prime tiny bit of filment into the nozzle
M117 Hibiscus Printing...		; progress indicator message on LCD

M221 S100
;LAYER_COUNT:74
;LAYER:0
M107
G0 F2625 X46.431 Y48.795 Z0.425
;TYPE:SKIRT
G1 F900 X47.119 Y48.173 E0.03089
G1 X48.112 Y47.442 E0.07197
G1 X49.273 Y46.686 E0.11812
G1 X50.071 Y46.214 E0.149
G1 X51.109 Y45.728 E0.18718
G1 X53.899 Y44.6 E0.28742
G1 X58.632 Y42.485 E0.46011
G1 X63.159 Y40.148 E0.62981
G1 X65.269 Y38.941 E0.71078
G1 X69.323 Y36.433 E0.86958
G1 X70.131 Y35.98 E0.90043
G1 X70.918 Y35.621 E0.92925
G1 X71.673 Y35.313 E0.95641
G1 X72.546 Y35.001 E0.98729
G1 X73.344 Y34.786 E1.01482
G1 X74.256 Y34.578 E1.04598
G1 X75.168 Y34.411 E1.07686
G1 X76.304 Y34.314 E1.11484
G1 X77.843 Y34.265 E1.16613
G1 X78.77 Y34.276 E1.19701
G1 X79.693 Y34.366 E1.2279
G1 X80.692 Y34.556 E1.26178
G1 X82.093 Y34.892 E1.30977
G1 X82.984 Y35.147 E1.34064
G1 X83.538 Y35.349 E1.36028
G1 X86.34 Y36.457 E1.46065
G1 X91.177 Y38.141 E1.63126
G1 X96.124 Y39.555 E1.80264
G1 X98.468 Y40.119 E1.88295
G1 X103.169 Y41.079 E2.04277
G1 X104.233 Y41.354 E2.07938
G1 X104.836 Y41.543 E2.10043
G1 X105.708 Y41.858 E2.13131
G1 X106.387 Y42.165 E2.15614
G1 X107.505 Y42.718 E2.19768
G1 X108.318 Y43.165 E2.22859
G1 X109.217 Y43.775 E2.26478
G1 X109.756 Y44.182 E2.28728
G1 X110.471 Y44.772 E2.31815
G1 X110.893 Y45.173 E2.33755
G1 X111.462 Y45.744 E2.3644
G1 X112.087 Y46.428 E2.39526
G1 X112.673 Y47.194 E2.42739
G1 X113.358 Y48.179 E2.46735
G1 X113.854 Y48.963 E2.49825
G1 X114.28 Y49.786 E2.52912
G1 X114.545 Y50.404 E2.55152
G1 X116.328 Y54.967 E2.71471
G1 X117.29 Y57.259 E2.79751
G1 X119.466 Y61.879 E2.96762
G1 X121.863 Y66.3 E3.13514
G1 X125.277 Y71.777 E3.35012
G1 X125.843 Y72.806 E3.38924
G1 X126.29 Y73.736 E3.42361
G1 X126.655 Y74.588 E3.45448
G1 X126.946 Y75.469 E3.48539
G1 X127.201 Y76.371 E3.51661
G1 X127.414 Y77.273 E3.54748
G1 X127.533 Y78.047 E3.57357
G1 X127.627 Y78.851 E3.60053
G1 X127.695 Y79.775 E3.6314
G1 X127.687 Y80.633 E3.65998
G1 X127.627 Y81.839 E3.7002
G1 X127.541 Y82.762 E3.73108
G1 X127.317 Y83.922 E3.77043
G1 X127.004 Y85.169 E3.81326
G1 X126.739 Y86.058 E3.84416
G1 X126.475 Y86.746 E3.86871
G1 X126.236 Y87.31 E3.88911
G1 X125.858 Y88.109 E3.91855
G1 X122.685 Y94.16 E4.14614
G1 X120.643 Y98.729 E4.31285
G1 X118.607 Y104.071 E4.50328
G1 X118.24 Y104.922 E4.53415
G1 X118.008 Y105.374 E4.55107
G1 X117.323 Y106.635 E4.59887
G1 X116.846 Y107.43 E4.62976
G1 X116.302 Y108.181 E4.66065
G1 X115.675 Y108.903 E4.6925
G1 X114.729 Y109.9 E4.73828
G1 X114.063 Y110.545 E4.76916
G1 X113.343 Y111.129 E4.80005
G1 X112.391 Y111.761 E4.83811
G1 X104.949 Y116.149 E5.12589
G1 X100.798 Y118.973 E5.29312
G1 X96.766 Y122.061 E5.4623
G1 X95.665 Y122.991 E5.5103
G1 X95.578 Y123.063 E5.51406
G1 X94.318 Y124.105 E5.56853
G1 X93.579 Y124.665 E5.59941
G1 X93.179 Y124.928 E5.61536
G1 X92.055 Y125.633 E5.65956
G1 X91.249 Y126.091 E5.69044
G1 X90.404 Y126.48 E5.72142
G1 X89.85 Y126.706 E5.74135
G1 X88.977 Y127.018 E5.77223
G1 X87.863 Y127.3 E5.81051
G1 X86.612 Y127.546 E5.85298
G1 X85.696 Y127.685 E5.88384
G1 X84.77 Y127.745 E5.91475
G1 X83.713 Y127.716 E5.94998
G1 X82.336 Y127.61 E5.99598
G1 X81.415 Y127.499 E6.02688
G1 X80.508 Y127.309 E6.05775
G1 X79.671 Y127.06 E6.08684
G1 X78.357 Y126.609 E6.13311
G1 X77.494 Y126.27 E6.164
G1 X76.839 Y125.953 E6.18824
G1 X73.216 Y124.046 E6.32462
G1 X68.604 Y121.889 E6.49422
G1 X63.816 Y119.972 E6.66602
G1 X61.568 Y119.183 E6.74538
G1 X56.29 Y117.523 E6.92968
G1 X55.419 Y117.206 E6.96055
G1 X54.577 Y116.816 E6.99146
G1 X54.169 Y116.594 E7.00694
G1 X53.072 Y115.965 E7.04906
G1 X52.288 Y115.469 E7.07996
G1 X51.787 Y115.099 E7.10071
G1 X51.079 Y114.544 E7.13067
G1 X50.375 Y113.941 E7.16155
G1 X49.67 Y113.218 E7.19519
G1 X48.836 Y112.278 E7.23705
G1 X48.251 Y111.559 E7.26792
G1 X47.56 Y110.507 E7.30985
G1 X46.171 Y108.094 E7.40259
G1 X43.45 Y103.763 E7.57297
G1 X40.462 Y99.554 E7.74491
G1 X37.16 Y95.271 E7.92505
G1 X36.626 Y94.513 E7.95594
G1 X36.16 Y93.712 E7.98681
G1 X35.616 Y92.504 E8.03094
G1 X35.159 Y91.293 E8.07406
G1 X34.87 Y90.412 E8.10494
G1 X34.657 Y89.509 E8.13585
G1 X34.526 Y88.626 E8.16558
G1 X34.363 Y87.083 E8.21726
G1 X34.306 Y86.158 E8.24813
G1 X34.328 Y85.231 E8.27902
G1 X34.424 Y84.351 E8.30851
G1 X34.603 Y83.164 E8.3485
G1 X34.781 Y82.254 E8.37938
G1 X35.036 Y81.363 E8.41025
G1 X35.236 Y80.815 E8.42969
G1 X36.373 Y77.938 E8.53273
G1 X38.126 Y73.014 E8.70684
G1 X39.549 Y68.167 E8.87511
G1 X40.701 Y63.227 E9.04407
G1 X41.683 Y57.546 E9.23612
G1 X41.978 Y56.293 E9.279
G1 X42.251 Y55.381 E9.31071
G1 X42.554 Y54.505 E9.34158
G1 X42.955 Y53.614 E9.37413
G1 X43.322 Y52.888 E9.40123
G1 X43.776 Y52.08 E9.4321
G1 X44.247 Y51.381 E9.46018
G1 X44.885 Y50.511 E9.49611
G1 X45.465 Y49.788 E9.52699
G1 X46.007 Y49.213 E9.55331
G1 X46.431 Y48.795 E9.57314
G0 F2625 X46.782 Y49.151
G1 F900 X47.454 Y48.544 E9.60331
G1 X48.385 Y47.861 E9.64177
G1 X49.546 Y47.105 E9.68792
G1 X50.326 Y46.644 E9.7181
G1 X51.297 Y46.191 E9.75379
G1 X54.114 Y45.052 E9.85501
G1 X58.834 Y42.943 E10.02721
G1 X63.404 Y40.584 E10.19853
G1 X65.545 Y39.359 E10.28069
G1 X69.586 Y36.859 E10.43898
G1 X70.376 Y36.417 E10.46913
G1 X71.107 Y36.084 E10.49589
G1 X71.862 Y35.776 E10.52305
G1 X72.715 Y35.472 E10.55321
G1 X73.455 Y35.274 E10.57873
G1 X74.367 Y35.066 E10.60989
G1 X75.257 Y34.903 E10.64003
G1 X76.32 Y34.814 E10.67556
G1 X77.859 Y34.765 E10.72685
G1 X78.764 Y34.776 E10.757
G1 X79.665 Y34.867 E10.78716
G1 X80.575 Y35.043 E10.81804
G1 X81.976 Y35.379 E10.86603
G1 X82.847 Y35.628 E10.89621
G1 X83.355 Y35.814 E10.91423
G1 X86.173 Y36.928 E11.01516
G1 X91.032 Y38.62 E11.18655
G1 X95.985 Y40.036 E11.35815
G1 X98.365 Y40.609 E11.43969
G1 X103.069 Y41.569 E11.59961
G1 X104.084 Y41.831 E11.63453
G1 X104.687 Y42.02 E11.65558
G1 X105.538 Y42.329 E11.68574
G1 X106.165 Y42.613 E11.70867
G1 X107.283 Y43.166 E11.75021
G1 X108.076 Y43.603 E11.78037
G1 X108.916 Y44.174 E11.81421
G1 X109.455 Y44.581 E11.83671
G1 X110.152 Y45.158 E11.86685
G1 X110.539 Y45.526 E11.88464
G1 X111.108 Y46.097 E11.91149
G1 X111.718 Y46.766 E11.94164
G1 X112.262 Y47.48 E11.97154
G1 X112.947 Y48.465 E12.01151
G1 X113.431 Y49.23 E12.04166
G1 X113.845 Y50.035 E12.07182
G1 X114.079 Y50.586 E12.09176
G1 X115.863 Y55.15 E12.25499
G1 X116.829 Y57.452 E12.33815
G1 X119.018 Y62.099 E12.50925
G1 X121.432 Y66.553 E12.67801
G1 X124.853 Y72.041 E12.89342
G1 X125.392 Y73.023 E12.93074
G1 X125.839 Y73.953 E12.96511
G1 X126.195 Y74.785 E12.99525
G1 X126.464 Y75.605 E13.024
G1 X126.719 Y76.507 E13.05522
G1 X126.927 Y77.388 E13.08538
G1 X127.037 Y78.105 E13.10954
G1 X127.131 Y78.909 E13.1365
G1 X127.196 Y79.812 E13.16666
G1 X127.187 Y80.608 E13.19318
G1 X127.127 Y81.814 E13.2334
G1 X127.042 Y82.716 E13.26358
G1 X126.832 Y83.8 E13.30036
G1 X126.519 Y85.047 E13.34319
G1 X126.26 Y85.915 E13.37336
G1 X126.015 Y86.551 E13.39606
G1 X125.776 Y87.115 E13.41647
G1 X125.415 Y87.877 E13.44455
G1 X122.238 Y93.934 E13.67238
G1 X120.179 Y98.542 E13.8405
G1 X118.14 Y103.893 E14.03125
G1 X117.781 Y104.724 E14.0614
G1 X117.569 Y105.136 E14.07684
G1 X116.884 Y106.397 E14.12464
G1 X116.417 Y107.172 E14.15478
G1 X115.884 Y107.904 E14.18494
G1 X115.313 Y108.559 E14.21389
G1 X114.367 Y109.556 E14.25967
G1 X113.715 Y110.185 E14.28984
G1 X113.011 Y110.753 E14.31998
G1 X112.137 Y111.33 E14.35486
G1 X104.68 Y115.727 E14.64322
G1 X100.51 Y118.564 E14.81123
G1 X96.448 Y121.674 E14.98164
G1 X95.342 Y122.609 E15.02988
G1 X95.259 Y122.678 E15.03347
G1 X93.999 Y123.72 E15.08794
G1 X92.913 Y124.504 E15.13255
G1 X91.789 Y125.209 E15.17675
G1 X91.002 Y125.656 E15.2069
G1 X90.215 Y126.017 E15.23574
G1 X89.661 Y126.243 E15.25567
G1 X88.808 Y126.547 E15.28584
G1 X87.767 Y126.809 E15.32159
G1 X86.516 Y127.055 E15.36406
G1 X85.621 Y127.191 E15.39422
G1 X84.717 Y127.246 E15.42439
G1 X83.751 Y127.218 E15.45658
G1 X82.374 Y127.112 E15.50258
G1 X81.476 Y127.002 E15.53272
G1 X80.59 Y126.814 E15.56289
G1 X79.833 Y126.587 E15.58921
G1 X78.519 Y126.136 E15.63549
G1 X77.677 Y125.804 E15.66564
G1 X77.072 Y125.511 E15.68803
G1 X73.429 Y123.593 E15.82517
G1 X68.807 Y121.432 E15.99513
G1 X63.99 Y119.503 E16.16797
G1 X61.725 Y118.709 E16.24792
G1 X56.44 Y117.046 E16.43248
G1 X55.589 Y116.736 E16.46265
G1 X54.417 Y116.16 E16.50614
G1 X53.32 Y115.531 E16.54827
G1 X52.556 Y115.046 E16.57841
G1 X52.095 Y114.706 E16.59749
G1 X51.387 Y114.151 E16.62746
G1 X50.7 Y113.561 E16.65762
G1 X50.044 Y112.887 E16.68895
G1 X49.21 Y111.947 E16.73081
G1 X48.639 Y111.244 E16.76098
G1 X47.994 Y110.258 E16.80023
G1 X46.608 Y107.851 E16.89275
G1 X43.857 Y103.472 E17.06501
G1 X40.875 Y99.271 E17.23662
G1 X37.556 Y94.966 E17.41769
G1 X37.036 Y94.225 E17.44784
G1 X36.583 Y93.442 E17.47798
G1 X36.084 Y92.327 E17.51867
G1 X35.627 Y91.116 E17.56178
G1 X35.345 Y90.256 E17.59193
G1 X35.14 Y89.374 E17.62209
G1 X35.024 Y88.574 E17.64902
G1 X34.861 Y87.031 E17.7007
G1 X34.805 Y86.127 E17.73087
G1 X34.83 Y85.222 E17.76103
G1 X34.919 Y84.426 E17.78771
G1 X35.098 Y83.239 E17.8277
G1 X35.272 Y82.35 E17.85787
G1 X35.524 Y81.481 E17.88801
G1 X35.701 Y80.999 E17.90512
G1 X36.838 Y78.124 E18.0081
G1 X38.605 Y73.159 E18.18365
G1 X40.032 Y68.296 E18.35247
G1 X41.192 Y63.325 E18.5225
G1 X42.176 Y57.631 E18.71498
G1 X42.457 Y56.437 E18.75584
G1 X42.73 Y55.525 E18.78755
G1 X43.027 Y54.67 E18.8177
G1 X43.401 Y53.84 E18.84803
G1 X43.768 Y53.114 E18.87512
G1 X44.212 Y52.325 E18.90528
G1 X44.65 Y51.677 E18.93133
G1 X45.288 Y50.807 E18.96727
G1 X45.855 Y50.101 E18.99743
G1 X46.358 Y49.569 E19.02182
G1 X46.782 Y49.151 E19.04165
G1 F600 E17.29165
G0 F2625 X56.088 Y54.638
G0 X56.483 Y56.018
G0 X61.733 Y57.591
G0 X62.999 Y67.9
G0 X63.337 Y69.199
G0 X63.521 Y69.625
G0 X63.782 Y70.027
G0 X64.548 Y70.748
G0 X65.077 Y71.07
G0 X65.715 Y71.322
G0 X89.435 Y74.696
G0 X89.532 Y74.676
;TYPE:WALL-INNER
G1 F600 E19.04165
G1 F900 X89.755 Y74.814 E19.05039
G1 X90.301 Y75.151 E19.07176
G1 X90.433 Y75.212 E19.07661
G1 X90.552 Y75.281 E19.08119
G1 X90.742 Y75.36 E19.08804
G1 X90.858 Y75.44 E19.09274
G1 X91.147 Y75.564 E19.10321
G1 X91.443 Y75.631 E19.11332
G1 X92.38 Y75.65 E19.14454
G1 X92.718 Y75.688 E19.15587
G1 X93.057 Y75.752 E19.16736
G1 X94.691 Y76 E19.22241
G1 X95.275 Y76.106 E19.24219
G1 X95.847 Y76.229 E19.26167
G1 X96.384 Y76.362 E19.2801
G1 X96.926 Y76.52 E19.29891
G1 X97.501 Y76.71 E19.31908
G1 X98.69 Y77.131 E19.3611
G1 X99.298 Y77.361 E19.38275
G1 X99.904 Y77.607 E19.40453
G1 X100.496 Y77.88 E19.42625
G1 X100.986 Y78.137 E19.44468
G1 X101.505 Y78.456 E19.46497
G1 X102.043 Y78.82 E19.48661
G1 X102.561 Y79.206 E19.50813
G1 X102.98 Y79.556 E19.52632
G1 X103.319 Y79.89 E19.54217
G1 X103.658 Y80.276 E19.55928
G1 X104.01 Y80.697 E19.57756
G1 X104.386 Y81.108 E19.59612
G1 X104.773 Y81.5 E19.61446
G1 X105.177 Y81.877 E19.63287
G1 X105.584 Y82.239 E19.65101
G1 X106.383 Y82.917 E19.68592
G1 X106.813 Y83.267 E19.70439
G1 X107.268 Y83.607 E19.72331
G1 X107.719 Y83.878 E19.74084
G1 X108.533 Y84.293 E19.77127
G1 X108.961 Y84.48 E19.78683
G1 X109.378 Y84.614 E19.80142
G1 X109.796 Y84.706 E19.81568
G1 X110.252 Y84.775 E19.83104
G1 X110.729 Y84.821 E19.847
G1 X111.168 Y84.818 E19.86162
G1 X111.599 Y84.78 E19.87604
G1 X112.075 Y84.71 E19.89206
G1 X112.584 Y84.607 E19.90936
G1 X113.093 Y84.466 E19.92696
G1 X113.431 Y84.351 E19.93885
G1 X113.575 Y84.302 E19.94392
G1 X113.672 Y84.262 E19.94741
G1 X114.022 Y84.117 E19.96003
G1 X114.046 Y84.104 E19.96094
G1 X114.446 Y83.893 E19.976
G1 X114.838 Y83.604 E19.99223
G1 X115.19 Y83.225 E20.00946
G1 X115.198 Y83.212 E20.00996
G1 X115.486 Y82.754 E20.02799
G1 X115.725 Y82.257 E20.04636
G1 X115.908 Y81.767 E20.06378
G1 X115.914 Y81.752 E20.06432
G1 X116.044 Y81.278 E20.08069
G1 X116.055 Y81.24 E20.08201
G1 X116.131 Y80.762 E20.09813
G1 X116.136 Y80.736 E20.09901
G1 X116.168 Y80.253 E20.11514
G1 X116.168 Y80.227 E20.116
G1 X116.159 Y79.775 E20.13106
G1 X116.152 Y79.709 E20.13327
G1 X116.115 Y79.395 E20.1438
G1 X116.176 Y79.705
G1 X116.181 Y79.772
G1 X116.217 Y80.226
G1 X116.217 Y80.253
G1 X116.208 Y80.737
G1 X116.207 Y80.774
G1 X116.153 Y81.251
G1 X116.146 Y81.305
G1 X116.045 Y81.78 E20.14758
G1 X116.037 Y81.815
G1 X115.877 Y82.306 E20.15259
G1 X115.872 Y82.32 E20.15291
G1 X115.657 Y82.824 E20.15912
G1 X115.646 Y82.844 E20.15964
G1 X115.373 Y83.321 E20.16669
G1 X115.351 Y83.349 E20.16703
G1 X115.036 Y83.756 E20.17496
G1 X115.013 Y83.785 E20.17589
G1 X114.681 Y84.123 E20.18495
G1 X114.619 Y84.186 E20.1874
G1 X114.28 Y84.449 E20.19813
G1 X114.244 Y84.477 E20.19938
G1 X114.235 Y84.482 E20.19955
G1 X113.855 Y84.703 E20.21282
G1 X113.783 Y84.737 E20.21529
G1 X113.645 Y84.802 E20.2203
G1 X113.397 Y84.921 E20.22946
G1 X112.895 Y85.114 E20.24738
G1 X112.396 Y85.278 E20.26488
G1 X111.83 Y85.427 E20.28437
G1 X111.318 Y85.526 E20.30174
G1 X110.832 Y85.575 E20.31801
G1 X110.382 Y85.57 E20.333
G1 X109.917 Y85.522 E20.34858
G1 X109.401 Y85.448 E20.36594
G1 X108.907 Y85.339 E20.38279
G1 X108.419 Y85.177 E20.39992
G1 X107.926 Y84.974 E20.41768
G1 X107.393 Y84.74 E20.43707
G1 X106.882 Y84.496 E20.45593
G1 X106.397 Y84.252 E20.47402
G1 X105.909 Y83.981 E20.49261
G1 X105.467 Y83.706 E20.50995
G1 X105.012 Y83.391 E20.52838
G1 X104.149 Y82.739 E20.56441
G1 X103.279 Y82.117 E20.60004
G1 X101.509 Y80.884 E20.67189
G1 X101.056 Y80.622 E20.68932
G1 X100.603 Y80.386 E20.70634
G1 X100.107 Y80.15 E20.72463
G1 X99.569 Y79.923 E20.74409
G1 X99.021 Y79.75 E20.76323
G1 X97.496 Y79.337 E20.81586
G1 X96.978 Y79.218 E20.83356
G1 X96.445 Y79.119 E20.85162
G1 X95.884 Y79.047 E20.87046
G1 X95.33 Y78.994 E20.889
G1 X94.791 Y78.954 E20.907
G1 X94.248 Y78.929 E20.92511
G1 X93.695 Y78.923 E20.94353
G1 X92.801 Y78.94 E20.97331
G1 X92.517 Y78.964 E20.98281
G1 X91.846 Y78.98 E21.00517
G1 X91.734 Y79.003 E21.00897
G1 X91.505 Y79.027 E21.01664
G1 X91.213 Y79.16 E21.02733
G1 X90.996 Y79.334 E21.0366
G1 X90.908 Y79.448 E21.04139
G1 X90.849 Y79.5 E21.04401
G1 X90.71 Y79.646 E21.05073
G1 X90.575 Y79.815 E21.05793
G1 X90.367 Y80.057 E21.06856
G1 X90.055 Y80.518 E21.08711
G1 X90.433 Y81.545 E21.12356
