;Generated by Cura LulzBot Edition GCodeWriter Version: 3.2.15
;FLAVOR:Marlin
;TIME:2344
;Filament used: 0.646255m
;Layer height: 0.25
;Generated with Cura_SteamEngine 3.2.15
M82 ;absolute extrusion mode
;This G-Code has been generated specifically for the LulzBot Hibiscus
G26 					; clear potential 'probe fail' condition
G21 					; set units to Millimetres
M107 					; disable fans
G90 					; absolute positioning
M82 					; set extruder to absolute mode
G92 E0 					; set extruder position to 0
M140 S60 	; start bed heating up
G28 					; home all axes
G0 X0 Y187 Z156 F200 			; move away from endstops
M117 Hibiscus Wiping...			; progress indicator message on LCD
M109 R140 	; soften filament before retraction
G1 E-15 F75 				; retract filament
M109 R140 	; wait for extruder to reach wiping temp
G1 X45 Y176 F11520 			; move above wiper pad
G1 Z0 F1200 				; push nozzle into wiper
G1 X45 Y176 Z-.5 F4000		; wiping
G1 X55 Y174 Z-.5 F4000		; wiping
G1 X45 Y176 Z0 F4000		; wiping
G1 X55 Y174 F4000		; wiping
G1 X45 Y176 F4000		; wiping
G1 X55 Y174 F4000		; wiping
G1 X45 Y176 F4000		; wiping
G1 X55 Y174 F4000		; wiping
G1 X60 Y176 F4000		; wiping
G1 X80 Y174 F4000		; wiping
G1 X60 Y176 F4000		; wiping
G1 X80 Y174 F4000		; wiping
G1 X60 Y176 F4000		; wiping
G1 X90 Y174 F4000		; wiping
G1 X80 Y176 F4000		; wiping
G1 X100 Y174 F4000		; wiping
G1 X80 Y176 F4000		; wiping
G1 X100 Y174 F4000		; wiping
G1 X80 Y176 F4000		; wiping
G1 X100 Y174 F4000		; wiping
G1 X110 Y176 F4000		; wiping
G1 X100 Y174 F4000		; wiping
G1 X110 Y176 F4000		; wiping
G1 X100 Y174 F4000		; wiping
G1 X110 Y176 F4000		; wiping
G1 X115 Y174 Z-0.5 F1000	; wiping
G1 Z10					; raise extruder
G28 X0 Y0				; home X and Y
M109 R140	; wait for extruder to reach probe temp
M204 S300				; set probing acceleration
G29					; start auto-leveling sequence
M204 S2000				; restore standard acceleration
G1 X5 Y15 Z10 F5000			; move up off last probe point
G4 S1					; pause
M400					; wait for moves to finish
M117 Heating...				; progress indicator message on LCD
M109 R205	; wait for extruder to reach printing temp
M190 S60 ; wait for bed to reach printing temp
G1 Z2 E0 F75				; prime tiny bit of filment into the nozzle
M900 K50
M117 Hibiscus Printing...		; progress indicator message on LCD

M221 S100
;LAYER_COUNT:74
;LAYER:0
M107
G0 F2625 X45.817 Y46.061 Z0.425
;TYPE:SKIRT
G1 F900 X46.737 Y45.199 E0.042
G1 X47.357 Y44.683 E0.06886
G1 X48.095 Y44.121 E0.09976
G1 X48.77 Y43.688 E0.12648
G1 X50.083 Y42.913 E0.17726
G1 X50.901 Y42.477 E0.20814
G1 X51.62 Y42.164 E0.23426
G1 X52.382 Y41.865 E0.26153
G1 X53.182 Y41.587 E0.28974
G1 X59.619 Y39.63 E0.51385
G1 X64.313 Y37.878 E0.68074
G1 X68.963 Y35.834 E0.84994
G1 X72.962 Y33.826 E0.999
G1 X73.808 Y33.446 E1.02989
G1 X74.624 Y33.158 E1.05872
G1 X75.686 Y32.831 E1.09573
G1 X76.583 Y32.597 E1.12661
G1 X77.496 Y32.44 E1.15747
G1 X78.149 Y32.378 E1.17932
G1 X79.237 Y32.307 E1.21564
G1 X80.164 Y32.286 E1.24652
G1 X81.089 Y32.346 E1.2774
G1 X81.655 Y32.422 E1.29642
G1 X82.798 Y32.607 E1.33499
G1 X83.706 Y32.795 E1.36588
G1 X84.594 Y33.06 E1.39675
G1 X85.197 Y33.288 E1.41822
G1 X86.847 Y33.972 E1.47772
G1 X87.488 Y34.263 E1.50117
G1 X92.295 Y36.635 E1.67973
G1 X96.907 Y38.598 E1.84669
G1 X101.685 Y40.317 E2.01583
G1 X106.907 Y41.875 E2.19736
G1 X108.054 Y42.29 E2.23799
G1 X109.284 Y42.815 E2.28254
G1 X110.12 Y43.215 E2.31341
G1 X111.115 Y43.816 E2.35213
G1 X111.629 Y44.166 E2.37284
G1 X112.372 Y44.721 E2.40373
G1 X113.087 Y45.36 E2.43568
G1 X114.18 Y46.427 E2.48656
G1 X114.815 Y47.102 E2.51743
G1 X115.39 Y47.83 E2.54833
G1 X115.717 Y48.311 E2.5677
G1 X116.074 Y48.867 E2.58971
G1 X116.541 Y49.668 E2.6206
G1 X117.05 Y50.787 E2.66155
G1 X117.372 Y51.617 E2.6912
G1 X117.711 Y52.639 E2.72707
G1 X118.555 Y55.69 E2.83252
G1 X120.141 Y60.566 E3.00331
G1 X121.968 Y65.258 E3.17104
G1 X124.114 Y69.964 E3.34332
G1 X125.914 Y73.552 E3.47704
G1 X126.294 Y74.398 E3.50793
G1 X126.599 Y75.274 E3.53883
G1 X126.767 Y75.898 E3.56036
G1 X127.062 Y77.145 E3.60304
G1 X127.237 Y78.056 E3.63394
G1 X127.332 Y78.978 E3.66482
G1 X127.35 Y79.725 E3.68971
G1 X127.339 Y80.852 E3.72725
G1 X127.29 Y81.778 E3.75814
G1 X127.2 Y82.474 E3.78151
G1 X127.053 Y83.377 E3.81199
G1 X126.865 Y84.285 E3.84288
G1 X126.646 Y85.035 E3.8689
G1 X126.432 Y85.68 E3.89154
G1 X126.102 Y86.547 E3.92244
G1 X125.667 Y87.441 E3.95556
G1 X124.07 Y90.37 E4.06668
G1 X121.767 Y94.997 E4.23885
G1 X119.751 Y99.696 E4.40917
G1 X118.903 Y101.929 E4.48873
G1 X117.016 Y107.547 E4.68615
G1 X116.683 Y108.412 E4.71702
G1 X116.185 Y109.413 E4.75426
G1 X115.398 Y110.806 E4.80756
G1 X114.907 Y111.593 E4.83846
G1 X114.351 Y112.334 E4.86932
G1 X113.853 Y112.9 E4.89443
G1 X113.291 Y113.495 E4.92169
G1 X112.626 Y114.141 E4.95257
G1 X111.908 Y114.727 E4.98345
G1 X111.475 Y115.034 E5.00113
G1 X110.492 Y115.695 E5.04058
G1 X109.701 Y116.178 E5.07146
G1 X109.23 Y116.424 E5.08916
G1 X108.684 Y116.692 E5.10942
G1 X107.457 Y117.203 E5.15369
G1 X101.007 Y119.431 E5.381
G1 X96.367 Y121.349 E5.54825
G1 X91.807 Y123.545 E5.71684
G1 X87.33 Y125.997 E5.88687
G1 X86.499 Y126.407 E5.91774
G1 X85.377 Y126.827 E5.95764
G1 X84.364 Y127.144 E5.993
G1 X83.469 Y127.383 E6.02386
G1 X82.555 Y127.543 E6.05477
G1 X81.968 Y127.604 E6.07442
G1 X80.901 Y127.685 E6.11007
G1 X79.974 Y127.715 E6.14096
G1 X79.048 Y127.666 E6.17185
G1 X78.428 Y127.587 E6.19267
G1 X77.237 Y127.401 E6.23282
G1 X76.328 Y127.219 E6.2637
G1 X75.494 Y126.977 E6.29263
G1 X74.484 Y126.64 E6.3281
G1 X73.618 Y126.309 E6.35898
G1 X72.87 Y125.951 E6.3866
G1 X66.724 Y122.709 E6.61807
G1 X62.078 Y120.607 E6.78793
G1 X59.91 Y119.734 E6.86578
G1 X54.984 Y117.992 E7.03982
G1 X52.328 Y117.175 E7.13239
G1 X51.454 Y116.864 E7.16329
G1 X50.611 Y116.479 E7.19416
G1 X49.962 Y116.12 E7.21887
G1 X48.529 Y115.261 E7.27452
G1 X47.755 Y114.751 E7.30539
G1 X47.028 Y114.175 E7.33629
G1 X46.204 Y113.383 E7.37436
G1 X45.339 Y112.458 E7.41655
G1 X44.736 Y111.755 E7.4474
G1 X44.195 Y111.001 E7.47831
G1 X43.743 Y110.244 E7.50768
G1 X43.28 Y109.391 E7.54001
G1 X42.873 Y108.558 E7.57089
G1 X42.451 Y107.416 E7.61145
G1 X41.176 Y103.262 E7.75619
G1 X39.479 Y98.344 E7.92949
G1 X37.588 Y93.736 E8.0954
G1 X34.101 Y86.581 E8.36054
G1 X33.731 Y85.731 E8.39142
G1 X33.561 Y85.257 E8.40819
G1 X33.336 Y84.579 E8.43199
G1 X33.082 Y83.687 E8.46288
G1 X32.848 Y82.321 E8.50904
G1 X32.686 Y80.786 E8.56046
G1 X32.629 Y79.861 E8.59133
G1 X32.663 Y78.783 E8.62726
G1 X32.719 Y78.097 E8.65018
G1 X32.834 Y77.177 E8.68107
G1 X32.979 Y76.465 E8.70527
G1 X33.285 Y75.189 E8.74898
G1 X33.54 Y74.298 E8.77985
G1 X34.043 Y73.054 E8.82455
G1 X36.998 Y66.881 E9.05252
G1 X38.899 Y62.219 E9.22023
G1 X40.558 Y57.389 E9.39034
G1 X42.003 Y52.482 E9.56074
G1 X42.303 Y51.604 E9.59164
G1 X42.579 Y50.961 E9.61495
G1 X43.064 Y49.925 E9.65305
G1 X43.493 Y49.103 E9.68394
G1 X43.991 Y48.321 E9.71482
G1 X44.394 Y47.782 E9.73724
G1 X45.208 Y46.761 E9.78074
G1 X45.817 Y46.061 E9.81164
G0 F2625 X46.194 Y46.39
G1 F900 X47.057 Y45.584 E9.85098
G1 X47.677 Y45.068 E9.87785
G1 X48.398 Y44.52 E9.90801
G1 X49.024 Y44.119 E9.93278
G1 X50.337 Y43.344 E9.98356
G1 X51.136 Y42.919 E10.01371
G1 X51.803 Y42.629 E10.03794
G1 X52.565 Y42.33 E10.0652
G1 X53.328 Y42.065 E10.09211
G1 X59.777 Y40.104 E10.31664
G1 X64.501 Y38.341 E10.4846
G1 X69.174 Y36.288 E10.65462
G1 X73.187 Y34.272 E10.80421
G1 X74.013 Y33.902 E10.83436
G1 X74.771 Y33.636 E10.86112
G1 X75.833 Y33.309 E10.89813
G1 X76.709 Y33.081 E10.92829
G1 X77.602 Y32.931 E10.95845
G1 X78.182 Y32.877 E10.97785
G1 X79.27 Y32.806 E11.01417
G1 X80.175 Y32.787 E11.04432
G1 X81.078 Y32.848 E11.07447
G1 X81.575 Y32.916 E11.09118
G1 X82.718 Y33.101 E11.12975
G1 X83.604 Y33.285 E11.15989
G1 X84.471 Y33.546 E11.19005
G1 X85.005 Y33.75 E11.20909
G1 X86.655 Y34.434 E11.26859
G1 X87.267 Y34.712 E11.29098
G1 X92.079 Y37.087 E11.46973
G1 X96.731 Y39.066 E11.63813
G1 X101.536 Y40.796 E11.80825
G1 X106.764 Y42.355 E11.98997
G1 X107.858 Y42.75 E12.02871
G1 X109.088 Y43.275 E12.07326
G1 X109.904 Y43.667 E12.10342
G1 X110.833 Y44.23 E12.1396
G1 X111.347 Y44.58 E12.16032
G1 X112.072 Y45.122 E12.19047
G1 X112.738 Y45.717 E12.22022
G1 X113.831 Y46.784 E12.2711
G1 X114.45 Y47.445 E12.30126
G1 X115.009 Y48.157 E12.33142
G1 X115.296 Y48.581 E12.34847
G1 X115.653 Y49.137 E12.37048
G1 X116.108 Y49.92 E12.40065
G1 X116.584 Y50.968 E12.43899
G1 X116.906 Y51.798 E12.46864
G1 X117.229 Y52.772 E12.50282
G1 X118.079 Y55.847 E12.60909
G1 X119.666 Y60.723 E12.7799
G1 X121.509 Y65.459 E12.94918
G1 X123.649 Y70.151 E13.12097
G1 X125.468 Y73.776 E13.25607
G1 X125.837 Y74.603 E13.28623
G1 X126.133 Y75.459 E13.3164
G1 X126.281 Y76.013 E13.3355
G1 X126.576 Y77.26 E13.37819
G1 X126.745 Y78.15 E13.40836
G1 X126.835 Y79.05 E13.43849
G1 X126.851 Y79.72 E13.46082
G1 X126.84 Y80.847 E13.49836
G1 X126.791 Y81.751 E13.52851
G1 X126.707 Y82.394 E13.55012
G1 X126.56 Y83.297 E13.58059
G1 X126.375 Y84.183 E13.61074
G1 X126.172 Y84.878 E13.63486
G1 X125.958 Y85.523 E13.6575
G1 X125.635 Y86.369 E13.68766
G1 X125.228 Y87.202 E13.71854
G1 X123.619 Y90.153 E13.8305
G1 X121.32 Y94.772 E14.00237
G1 X119.289 Y99.507 E14.17399
G1 X118.427 Y101.773 E14.25475
G1 X116.542 Y107.388 E14.45204
G1 X116.216 Y108.233 E14.48221
G1 X115.749 Y109.167 E14.517
G1 X114.962 Y110.56 E14.57029
G1 X114.483 Y111.328 E14.60044
G1 X113.937 Y112.05 E14.6306
G1 X113.49 Y112.556 E14.65309
G1 X112.928 Y113.151 E14.68035
G1 X112.277 Y113.781 E14.71052
G1 X111.574 Y114.352 E14.74069
G1 X111.196 Y114.619 E14.75611
G1 X110.213 Y115.28 E14.79557
G1 X109.44 Y115.751 E14.82572
G1 X109.009 Y115.975 E14.8419
G1 X108.463 Y116.243 E14.86216
G1 X107.294 Y116.73 E14.90434
G1 X100.835 Y118.961 E15.13197
G1 X96.169 Y120.89 E15.30015
G1 X91.566 Y123.107 E15.47034
G1 X87.09 Y125.558 E15.64033
G1 X86.278 Y125.958 E15.67048
G1 X85.228 Y126.35 E15.70781
G1 X84.215 Y126.667 E15.74317
G1 X83.34 Y126.899 E15.77332
G1 X82.448 Y127.053 E15.80347
G1 X81.93 Y127.106 E15.82082
G1 X80.863 Y127.187 E15.85646
G1 X79.958 Y127.215 E15.88662
G1 X79.054 Y127.164 E15.91678
G1 X78.505 Y127.093 E15.93522
G1 X77.314 Y126.907 E15.97538
G1 X76.427 Y126.728 E16.00552
G1 X75.652 Y126.503 E16.0324
G1 X74.642 Y126.166 E16.06787
G1 X73.796 Y125.842 E16.09804
G1 X73.104 Y125.509 E16.12363
G1 X66.954 Y122.265 E16.35524
G1 X62.257 Y120.14 E16.52696
G1 X60.106 Y119.273 E16.60421
G1 X55.125 Y117.512 E16.7802
G1 X52.475 Y116.697 E16.87255
G1 X51.622 Y116.393 E16.90271
G1 X50.8 Y116.014 E16.93287
G1 X50.219 Y115.691 E16.95501
G1 X48.786 Y114.832 E17.01066
G1 X48.031 Y114.333 E17.04081
G1 X47.323 Y113.769 E17.07096
G1 X46.569 Y113.042 E17.10585
G1 X45.704 Y112.117 E17.14803
G1 X45.116 Y111.429 E17.17818
G1 X44.59 Y110.692 E17.20834
G1 X44.182 Y110.006 E17.23493
G1 X43.719 Y109.153 E17.26726
G1 X43.323 Y108.339 E17.29741
G1 X42.929 Y107.27 E17.33536
G1 X41.645 Y103.084 E17.48121
G1 X39.956 Y98.191 E17.65364
G1 X38.042 Y93.526 E17.8216
G1 X34.55 Y86.362 E18.08708
G1 X34.19 Y85.531 E18.11724
G1 X34.036 Y85.099 E18.13252
G1 X33.811 Y84.421 E18.15631
G1 X33.564 Y83.55 E18.18647
G1 X33.346 Y82.269 E18.22976
G1 X33.184 Y80.734 E18.28117
G1 X33.128 Y79.83 E18.31134
G1 X33.161 Y78.824 E18.34487
G1 X33.217 Y78.138 E18.3678
G1 X33.33 Y77.24 E18.39795
G1 X33.466 Y76.582 E18.42033
G1 X33.772 Y75.306 E18.46404
G1 X34.021 Y74.436 E18.49418
G1 X34.494 Y73.27 E18.53609
G1 X37.456 Y67.083 E18.76459
G1 X39.367 Y62.397 E18.93316
G1 X41.036 Y57.534 E19.10442
G1 X42.483 Y52.623 E19.27496
G1 X42.777 Y51.767 E19.30511
G1 X43.032 Y51.173 E19.32664
G1 X43.517 Y50.137 E19.36475
G1 X43.937 Y49.335 E19.3949
G1 X44.425 Y48.573 E19.42504
G1 X44.785 Y48.093 E19.44503
G1 X45.599 Y47.072 E19.48853
G1 X46.194 Y46.39 E19.51867
G1 F600 E17.76867
G0 F2625 X53.726 Y52.487
G0 X54.657 Y53.596
G0 X54.546 Y53.651
G0 X54.043 Y54.145
G0 X53.747 Y54.624
G0 X53.298 Y55.777
G0 X53.098 Y56.48
G0 X52.982 Y57.343
G0 X53.042 Y58.348
G0 X53.262 Y59.405
G0 X53.634 Y60.471
G0 X54.12 Y61.492
G0 X54.691 Y62.414
G0 X55.392 Y63.321
G0 X56.278 Y64.316
G0 X57.297 Y65.304
G0 X58.386 Y66.168
G0 X59.506 Y66.807
G0 X88.599 Y77.321
G0 X88.695 Y77.294
;TYPE:WALL-INNER
G1 F600 E19.51867
G1 F900 X89.006 Y77.412 E19.52975
G1 X89.91 Y77.758 E19.562
G1 X90.217 Y77.86 E19.57277
G1 X91.195 Y78.161 E19.60686
G1 X92.283 Y78.669 E19.64686
G1 X93.371 Y79.338 E19.6894
G1 X94.416 Y80.161 E19.73371
G1 X95.281 Y80.856 E19.77067
G1 X95.475 Y81 E19.77872
G1 X96.279 Y81.491 E19.8101
G1 X96.498 Y81.615 E19.81848
G1 X97.441 Y82.017 E19.85263
G1 X98.323 Y82.259 E19.8831
G1 X99.228 Y82.318 E19.91331
G1 X100.218 Y82.2 E19.94652
G1 X101.25 Y81.85 E19.98282
G1 X101.275 Y81.842 E19.98369
G1 X101.962 Y81.432 E20.01034
G1 X102.322 Y81.216 E20.02432
G1 X102.825 Y80.846 E20.04512
G1 X103.239 Y80.542 E20.06223
G1 X103.63 Y80.239 E20.07871
G1 X103.967 Y79.977 E20.09293
G1 X104.45 Y79.564 E20.1141
G1 X104.611 Y79.426 E20.12116
G1 X105.244 Y78.826 E20.15021
G1 X106.605 Y77.469 E20.21423
G1 X106.793 Y77.299 E20.22268
G1 X107.34 Y76.807 E20.24718
G1 X107.467 Y76.717 E20.25237
G1 X108.057 Y76.297 E20.27649
G1 X108.157 Y76.246 E20.28023
G1 X108.849 Y75.887 E20.3062
G1 X108.891 Y75.872 E20.30769
G1 X109.745 Y75.568 E20.33788
G1 X109.805 Y75.56 E20.3399
G1 X110.741 Y75.424 E20.3714
G1 X110.894 Y75.438 E20.37652
G1 X111.882 Y75.533 E20.40958
G1 X112.049 Y75.586 E20.41542
G1 X113 Y75.889 E20.44867
G1 X113.164 Y75.99 E20.45508
G1 X113.985 Y76.495 E20.48719
G1 X114.139 Y76.637 E20.49417
G1 X114.757 Y77.209 E20.52222
G1 X114.888 Y77.387 E20.52958
G1 X114.726 Y77.246
G1 X114.089 Y76.693 E20.53305
G1 X113.926 Y76.597
G1 X113.095 Y76.104 E20.54112
G1 X112.946 Y76.056
G1 X111.999 Y75.746 E20.55245
G1 X111.868 Y75.737
G1 X110.874 Y75.661 E20.56666
G1 X110.797 Y75.677
G1 X109.853 Y75.882 E20.5856
G1 X109.019 Y76.229 E20.60698
G1 X108.323 Y76.565 E20.626
G1 X108.255 Y76.608 E20.62732
G1 X107.659 Y76.986 E20.64363
G1 X107.558 Y77.07 E20.64503
G1 X107.001 Y77.529 E20.6606
G1 X106.815 Y77.698 E20.66455
G1 X105.397 Y78.993 E20.69882
G1 X104.753 Y79.581 E20.71149
G1 X104.592 Y79.729
G1 X104.142 Y80.16 E20.72114
G1 X103.814 Y80.475 E20.72971
G1 X103.464 Y80.79 E20.73949
G1 X103.055 Y81.158 E20.75288
G1 X102.571 Y81.535 E20.76901
G1 X102.198 Y81.826 E20.78273
G1 X101.546 Y82.254 E20.80745
G1 X101.524 Y82.268 E20.80831
G1 X101.26 Y82.443 E20.81886
G1 X100.306 Y82.941 E20.85471
G1 X99.371 Y83.293 E20.88799
G1 X98.474 Y83.484 E20.91854
G1 X97.563 Y83.54 E20.94894
G1 X96.642 Y83.469 E20.97971
G1 X95.798 Y83.3 E21.00838
G1 X95.071 Y83.056 E21.03393
G1 X93.005 Y82.15 E21.10907
G1 X91.686 Y81.683 E21.15568
G1 X90.598 Y81.598 E21.19203
G1 X89.811 Y81.776 E21.21891
G1 X89.181 Y82.114 E21.24273
G1 X88.833 Y82.841 E21.26957
G1 X88.984 Y83.231 E21.28351
G1 X89.058 Y83.492 E21.29254
G1 X89.266 Y83.724 E21.30292
G1 X89.392 Y83.898 E21.31008
G1 X89.592 Y84.073 E21.31893
G1 X89.706 Y84.183 E21.32421
G1 X90.209 Y84.738 E21.34916
G1 X92.441 Y87.66 E21.47164
G1 X93.66 Y89.169 E21.53625
G1 X94.041 Y89.594 E21.55527
G1 X94.947 Y90.579 E21.59985
G1 X96.358 Y91.873 E21.66362
G1 X97.793 Y92.972 E21.72383
G1 X99.213 Y93.871 E21.77981
G1 X99.569 Y94.066 E21.79333
G1 X100.553 Y94.582 E21.83034
G1 X100.938 Y94.758 E21.84444
G1 X101.716 Y95.094 E21.87267
G1 X102.765 Y95.567 E21.911
G1 X103.822 Y96.191 E21.95189
G1 X104.724 Y96.828 E21.98867
G1 X105.312 Y97.348 E22.01482
G1 X105.703 Y97.833 E22.03557
G1 X106.011 Y98.387 E22.05669
G1 X106.248 Y98.981 E22.07799
G1 X106.286 Y99.115 E22.08263
G1 X106.41 Y99.566 E22.09821
G1 X106.415 Y99.583 E22.0988
G1 X106.419 Y99.61 E22.09971
G1 X106.516 Y100.212 E22.12002
G1 X106.53 Y100.299 E22.12296
G1 X106.579 Y100.895 E22.14288
G1 X106.602 Y101.174 E22.1522
G1 X106.591 Y101.707 E22.16996
G1 X106.581 Y102.124 E22.18385
G1 X106.504 Y102.549 E22.19824
G1 X106.42 Y103.006 E22.21372
G1 X106.323 Y103.296 E22.2239
G1 X106.141 Y103.837 E22.24292
G1 X106.084 Y103.952 E22.24719
G1 X106.125 Y103.832
G1 X106.31 Y103.292 E22.24771
G1 X106.358 Y102.996
G1 X106.434 Y102.537
G1 X106.436 Y102.123
G1 X106.44 Y101.704
G1 X106.39 Y101.194 E22.25371
G1 X106.362 Y100.913 E22.25374
G1 X106.244 Y100.36 E22.26308
G1 X106.222 Y100.26 E22.26393
G1 X106.026 Y99.726 E22.27713
