;Generated by Cura LulzBot Edition GCodeWriter Version: 3.2.19
;FLAVOR:Marlin
;TIME:2458
;Filament used: 0.745962m
;Layer height: 0.25
;Generated with Cura_SteamEngine 3.2.19
M82 ;absolute extrusion mode
;This G-Code has been generated specifically for the LulzBot Hibiscus
M75 					; Start GLCD Print Timer
G26 					; clear potential 'probe fail' condition
G21 					; set units to Millimetres
M107 					; disable fans
G90 					; absolute positioning
M82 					; set extruder to absolute mode
G92 E0 					; set extruder position to 0
M140 S60 	; start bed heating up
G28 					; home all axes
G0 X0 Y187 Z156 F200 			; move away from endstops
M117 Hibiscus Wiping...			; progress indicator message on LCD
M109 R140 	; soften filament before retraction
G1 E-15 F75 				; retract filament
M109 R140 	; wait for extruder to reach wiping temp
G1 X45 Y176 F11520 			; move above wiper pad
G1 Z0 F1200 				; push nozzle into wiper
G1 X45 Y178 Z-.5 F4000		; wiping
G1 X55 Y176 Z-.5 F4000		; wiping
G1 X45 Y177 Z0 F4000		; wiping
G1 X55 Y176 F4000		; wiping
G1 X45 Y178 F4000		; wiping
G1 X55 Y176 F4000		; wiping
G1 X45 Y178 F4000		; wiping
G1 X55 Y176 F4000		; wiping
G1 X60 Y178 F4000		; wiping
G1 X80 Y176 F4000		; wiping
G1 X60 Y178 F4000		; wiping
G1 X80 Y176 F4000		; wiping
G1 X60 Y178 F4000		; wiping
G1 X90 Y176 F4000		; wiping
G1 X80 Y178 F4000		; wiping
G1 X100 Y176 F4000		; wiping
G1 X80 Y178 F4000		; wiping
G1 X100 Y176 F4000		; wiping
G1 X80 Y178 F4000		; wiping
G1 X100 Y176 F4000		; wiping
G1 X110 Y178 F4000		; wiping
G1 X100 Y176 F4000		; wiping
G1 X110 Y178 F4000		; wiping
G1 X100 Y176 F4000		; wiping
G1 X110 Y178 F4000		; wiping
G1 X115 Y176 Z-0.5 F1000	; wiping
G1 Z10					; raise extruder
G28 X0 Y0				; home X and Y
M109 R140	; wait for extruder to reach probe temp
M204 S300				; set probing acceleration
G29					; start auto-leveling sequence
M204 S2000				; restore standard acceleration
G1 X5 Y15 Z10 F5000			; move up off last probe point
G4 S1					; pause
M400					; wait for moves to finish
M117 Heating...				; progress indicator message on LCD
M109 R205	; wait for extruder to reach printing temp
M190 S60 ; wait for bed to reach printing temp
G1 Z2 E0 F75				; prime tiny bit of filment into the nozzle
M117 Mini 2 Printing...		; progress indicator message on LCD

M221 S100
;LAYER_COUNT:74
;LAYER:0
M107
G0 F2625 X46.431 Y48.795 Z0.425
;TYPE:SKIRT
G1 F900 X47.119 Y48.173 E0.03089
G1 X48.112 Y47.442 E0.07197
G1 X49.273 Y46.686 E0.11812
G1 X50.071 Y46.214 E0.149
G1 X51.106 Y45.729 E0.18707
G1 X53.965 Y44.572 E0.28981
G1 X58.653 Y42.474 E0.4609
G1 X63.212 Y40.118 E0.63184
G1 X65.325 Y38.909 E0.71293
G1 X69.291 Y36.451 E0.86835
G1 X70.099 Y35.997 E0.89923
G1 X70.68 Y35.724 E0.92061
G1 X71.317 Y35.448 E0.94373
G1 X72.183 Y35.117 E0.97462
G1 X72.965 Y34.888 E1.00176
G1 X73.858 Y34.663 E1.03243
G1 X74.765 Y34.475 E1.06329
G1 X75.508 Y34.381 E1.08824
G1 X76.638 Y34.278 E1.12603
G1 X77.564 Y34.234 E1.15691
G1 X78.733 Y34.292 E1.1959
G1 X79.851 Y34.409 E1.23334
G1 X80.768 Y34.546 E1.26423
G1 X81.696 Y34.768 E1.29601
G1 X82.55 Y35.013 E1.32561
G1 X83.538 Y35.349 E1.36037
G1 X86.34 Y36.457 E1.46074
G1 X91.177 Y38.141 E1.63135
G1 X96.124 Y39.555 E1.80273
G1 X98.468 Y40.119 E1.88304
G1 X103.169 Y41.079 E2.04286
G1 X104.233 Y41.354 E2.07947
G1 X104.836 Y41.543 E2.10052
G1 X105.708 Y41.858 E2.1314
G1 X106.387 Y42.165 E2.15622
G1 X107.505 Y42.718 E2.19777
G1 X108.318 Y43.165 E2.22868
G1 X109.217 Y43.775 E2.26487
G1 X109.756 Y44.182 E2.28736
G1 X110.471 Y44.772 E2.31824
G1 X110.893 Y45.173 E2.33763
G1 X111.462 Y45.744 E2.36449
G1 X112.087 Y46.428 E2.39535
G1 X112.673 Y47.194 E2.42748
G1 X113.358 Y48.179 E2.46744
G1 X113.854 Y48.963 E2.49834
G1 X114.28 Y49.786 E2.52921
G1 X114.545 Y50.404 E2.55161
G1 X116.328 Y54.967 E2.7148
G1 X117.29 Y57.259 E2.7976
G1 X119.466 Y61.879 E2.96771
G1 X121.863 Y66.3 E3.13522
G1 X125.277 Y71.777 E3.35021
G1 X125.843 Y72.806 E3.38933
G1 X126.29 Y73.736 E3.4237
G1 X126.655 Y74.588 E3.45457
G1 X126.946 Y75.469 E3.48548
G1 X127.201 Y76.371 E3.5167
G1 X127.414 Y77.273 E3.54757
G1 X127.533 Y78.047 E3.57366
G1 X127.627 Y78.851 E3.60062
G1 X127.695 Y79.775 E3.63148
G1 X127.687 Y80.633 E3.66007
G1 X127.627 Y81.839 E3.70029
G1 X127.541 Y82.762 E3.73117
G1 X127.317 Y83.922 E3.77052
G1 X127.004 Y85.169 E3.81335
G1 X126.739 Y86.058 E3.84425
G1 X126.475 Y86.746 E3.86879
G1 X126.236 Y87.31 E3.8892
G1 X125.858 Y88.109 E3.91864
G1 X122.685 Y94.16 E4.14623
G1 X120.643 Y98.729 E4.31294
G1 X118.607 Y104.071 E4.50337
G1 X118.24 Y104.922 E4.53424
G1 X118.008 Y105.374 E4.55116
G1 X117.323 Y106.635 E4.59896
G1 X116.846 Y107.43 E4.62985
G1 X116.302 Y108.181 E4.66074
G1 X115.675 Y108.903 E4.69259
G1 X114.729 Y109.9 E4.73837
G1 X114.063 Y110.545 E4.76925
G1 X113.343 Y111.129 E4.80013
G1 X112.391 Y111.761 E4.8382
G1 X104.949 Y116.149 E5.12598
G1 X100.798 Y118.973 E5.29321
G1 X96.766 Y122.061 E5.46238
G1 X95.665 Y122.991 E5.51039
G1 X95.578 Y123.063 E5.51415
G1 X94.318 Y124.105 E5.56862
G1 X93.579 Y124.665 E5.5995
G1 X93.179 Y124.928 E5.61545
G1 X92.055 Y125.633 E5.65965
G1 X91.249 Y126.091 E5.69053
G1 X90.404 Y126.48 E5.72151
G1 X89.85 Y126.706 E5.74144
G1 X88.977 Y127.018 E5.77232
G1 X87.863 Y127.3 E5.8106
G1 X86.612 Y127.546 E5.85307
G1 X85.696 Y127.685 E5.88393
G1 X84.77 Y127.745 E5.91484
G1 X83.713 Y127.716 E5.95007
G1 X82.336 Y127.61 E5.99607
G1 X81.415 Y127.499 E6.02697
G1 X80.508 Y127.309 E6.05784
G1 X79.671 Y127.06 E6.08693
G1 X78.357 Y126.609 E6.1332
G1 X77.494 Y126.27 E6.16409
G1 X76.839 Y125.953 E6.18833
G1 X73.216 Y124.046 E6.32471
G1 X68.604 Y121.889 E6.49431
G1 X63.816 Y119.972 E6.66611
G1 X61.568 Y119.183 E6.74547
G1 X56.29 Y117.523 E6.92977
G1 X55.419 Y117.206 E6.96064
G1 X54.577 Y116.816 E6.99155
G1 X54.169 Y116.594 E7.00703
G1 X53.072 Y115.965 E7.04915
G1 X52.288 Y115.469 E7.08005
G1 X51.787 Y115.099 E7.1008
G1 X51.079 Y114.544 E7.13076
G1 X50.375 Y113.941 E7.16164
G1 X49.67 Y113.218 E7.19528
G1 X48.836 Y112.278 E7.23714
G1 X48.251 Y111.559 E7.26801
G1 X47.56 Y110.507 E7.30994
G1 X46.171 Y108.094 E7.40268
G1 X43.45 Y103.763 E7.57306
G1 X40.462 Y99.554 E7.745
G1 X37.16 Y95.271 E7.92514
G1 X36.626 Y94.513 E7.95603
G1 X36.16 Y93.712 E7.9869
G1 X35.616 Y92.504 E8.03103
G1 X35.159 Y91.293 E8.07414
G1 X34.87 Y90.412 E8.10503
G1 X34.657 Y89.509 E8.13593
G1 X34.526 Y88.626 E8.16567
G1 X34.363 Y87.083 E8.21735
G1 X34.306 Y86.158 E8.24822
G1 X34.328 Y85.231 E8.27911
G1 X34.424 Y84.351 E8.3086
G1 X34.603 Y83.164 E8.34858
G1 X34.781 Y82.254 E8.37947
G1 X35.036 Y81.363 E8.41034
G1 X35.236 Y80.815 E8.42977
G1 X36.373 Y77.938 E8.53282
G1 X38.126 Y73.014 E8.70692
G1 X39.549 Y68.167 E8.87519
G1 X40.701 Y63.227 E9.04416
G1 X41.683 Y57.546 E9.23621
G1 X41.978 Y56.293 E9.27908
G1 X42.251 Y55.381 E9.3108
G1 X42.554 Y54.505 E9.34167
G1 X42.955 Y53.614 E9.37422
G1 X43.322 Y52.888 E9.40132
G1 X43.776 Y52.08 E9.43219
G1 X44.247 Y51.381 E9.46026
G1 X44.885 Y50.511 E9.4962
G1 X45.465 Y49.788 E9.52708
G1 X46.007 Y49.213 E9.5534
G1 X46.431 Y48.795 E9.57323
G0 F2625 X46.782 Y49.151
G1 F900 X47.454 Y48.544 E9.6034
G1 X48.385 Y47.861 E9.64186
G1 X49.546 Y47.105 E9.68801
G1 X50.326 Y46.644 E9.71819
G1 X51.294 Y46.193 E9.75376
G1 X54.133 Y45.044 E9.85578
G1 X58.885 Y42.918 E10.02919
G1 X63.439 Y40.564 E10.19995
G1 X65.579 Y39.34 E10.28207
G1 X69.554 Y36.876 E10.43786
G1 X70.344 Y36.433 E10.46803
G1 X70.879 Y36.183 E10.4877
G1 X71.516 Y35.907 E10.51082
G1 X72.362 Y35.584 E10.54099
G1 X73.087 Y35.373 E10.56614
G1 X73.98 Y35.148 E10.59682
G1 X74.866 Y34.965 E10.62695
G1 X75.554 Y34.879 E10.65005
G1 X76.684 Y34.776 E10.68785
G1 X77.588 Y34.734 E10.71799
G1 X78.681 Y34.79 E10.75445
G1 X79.799 Y34.907 E10.79189
G1 X80.694 Y35.041 E10.82204
G1 X81.559 Y35.248 E10.85166
G1 X82.413 Y35.493 E10.88126
G1 X83.355 Y35.814 E10.91441
G1 X86.173 Y36.928 E11.01534
G1 X91.032 Y38.62 E11.18673
G1 X95.985 Y40.036 E11.35833
G1 X98.365 Y40.609 E11.43987
G1 X103.069 Y41.569 E11.59979
G1 X104.084 Y41.831 E11.63471
G1 X104.687 Y42.02 E11.65576
G1 X105.538 Y42.329 E11.68592
G1 X106.165 Y42.613 E11.70885
G1 X107.283 Y43.166 E11.7504
G1 X108.076 Y43.603 E11.78056
G1 X108.916 Y44.174 E11.81439
G1 X109.455 Y44.581 E11.83689
G1 X110.152 Y45.158 E11.86703
G1 X110.539 Y45.526 E11.88482
G1 X111.108 Y46.097 E11.91167
G1 X111.718 Y46.766 E11.94183
G1 X112.262 Y47.48 E11.97173
G1 X112.947 Y48.465 E12.01169
G1 X113.431 Y49.23 E12.04184
G1 X113.845 Y50.035 E12.072
G1 X114.079 Y50.586 E12.09194
G1 X115.863 Y55.15 E12.25517
G1 X116.829 Y57.452 E12.33833
G1 X119.018 Y62.099 E12.50943
G1 X121.432 Y66.553 E12.67819
G1 X124.853 Y72.041 E12.8936
G1 X125.392 Y73.023 E12.93092
G1 X125.839 Y73.953 E12.96529
G1 X126.195 Y74.785 E12.99544
G1 X126.464 Y75.605 E13.02418
G1 X126.719 Y76.507 E13.05541
G1 X126.927 Y77.388 E13.08556
G1 X127.037 Y78.105 E13.10972
G1 X127.131 Y78.909 E13.13669
G1 X127.196 Y79.812 E13.16684
G1 X127.187 Y80.608 E13.19336
G1 X127.127 Y81.814 E13.23358
G1 X127.042 Y82.716 E13.26376
G1 X126.832 Y83.8 E13.30054
G1 X126.519 Y85.047 E13.34337
G1 X126.26 Y85.915 E13.37354
G1 X126.015 Y86.551 E13.39624
G1 X125.776 Y87.115 E13.41665
G1 X125.415 Y87.877 E13.44473
G1 X122.238 Y93.934 E13.67256
G1 X120.179 Y98.542 E13.84068
G1 X118.14 Y103.893 E14.03143
G1 X117.781 Y104.724 E14.06158
G1 X117.569 Y105.136 E14.07702
G1 X116.884 Y106.397 E14.12482
G1 X116.417 Y107.172 E14.15496
G1 X115.884 Y107.904 E14.18512
G1 X115.313 Y108.559 E14.21407
G1 X114.367 Y109.556 E14.25985
G1 X113.715 Y110.185 E14.29003
G1 X113.011 Y110.753 E14.32016
G1 X112.137 Y111.33 E14.35504
G1 X104.68 Y115.727 E14.6434
G1 X100.51 Y118.564 E14.81141
G1 X96.448 Y121.674 E14.98182
G1 X95.342 Y122.609 E15.03006
G1 X95.259 Y122.678 E15.03366
G1 X93.999 Y123.72 E15.08812
G1 X92.913 Y124.504 E15.13274
G1 X91.789 Y125.209 E15.17693
G1 X91.002 Y125.656 E15.20708
G1 X90.215 Y126.017 E15.23592
G1 X89.661 Y126.243 E15.25585
G1 X88.808 Y126.547 E15.28602
G1 X87.767 Y126.809 E15.32177
G1 X86.516 Y127.055 E15.36424
G1 X85.621 Y127.191 E15.3944
G1 X84.717 Y127.246 E15.42457
G1 X83.751 Y127.218 E15.45676
G1 X82.374 Y127.112 E15.50276
G1 X81.476 Y127.002 E15.5329
G1 X80.59 Y126.814 E15.56307
G1 X79.833 Y126.587 E15.58939
G1 X78.519 Y126.136 E15.63567
G1 X77.677 Y125.804 E15.66582
G1 X77.072 Y125.511 E15.68821
G1 X73.429 Y123.593 E15.82535
G1 X68.807 Y121.432 E15.99531
G1 X63.99 Y119.503 E16.16815
G1 X61.725 Y118.709 E16.2481
G1 X56.44 Y117.046 E16.43266
G1 X55.589 Y116.736 E16.46283
G1 X54.417 Y116.16 E16.50633
G1 X53.32 Y115.531 E16.54845
G1 X52.556 Y115.046 E16.57859
G1 X52.095 Y114.706 E16.59767
G1 X51.387 Y114.151 E16.62764
G1 X50.7 Y113.561 E16.6578
G1 X50.044 Y112.887 E16.68913
G1 X49.21 Y111.947 E16.73099
G1 X48.639 Y111.244 E16.76116
G1 X47.994 Y110.258 E16.80041
G1 X46.608 Y107.851 E16.89293
G1 X43.857 Y103.472 E17.06519
G1 X40.875 Y99.271 E17.2368
G1 X37.556 Y94.966 E17.41787
G1 X37.036 Y94.225 E17.44802
G1 X36.583 Y93.442 E17.47816
G1 X36.084 Y92.327 E17.51885
G1 X35.627 Y91.116 E17.56196
G1 X35.345 Y90.256 E17.59211
G1 X35.14 Y89.374 E17.62227
G1 X35.024 Y88.574 E17.6492
G1 X34.861 Y87.031 E17.70088
G1 X34.805 Y86.127 E17.73105
G1 X34.83 Y85.222 E17.76121
G1 X34.919 Y84.426 E17.78789
G1 X35.098 Y83.239 E17.82788
G1 X35.272 Y82.35 E17.85805
G1 X35.524 Y81.481 E17.88819
G1 X35.701 Y80.999 E17.9053
G1 X36.838 Y78.124 E18.00828
G1 X38.605 Y73.159 E18.18383
G1 X40.032 Y68.296 E18.35265
G1 X41.192 Y63.325 E18.52268
G1 X42.176 Y57.631 E18.71516
G1 X42.457 Y56.437 E18.75602
G1 X42.73 Y55.525 E18.78773
G1 X43.027 Y54.67 E18.81788
G1 X43.401 Y53.84 E18.84821
G1 X43.768 Y53.114 E18.8753
G1 X44.212 Y52.325 E18.90546
G1 X44.65 Y51.677 E18.93152
G1 X45.288 Y50.807 E18.96745
G1 X45.855 Y50.101 E18.99762
G1 X46.358 Y49.569 E19.022
G1 X46.782 Y49.151 E19.04184
G1 F600 E17.29184
G0 F2625 X56.088 Y54.638
G0 X56.483 Y56.018
G0 X61.733 Y57.591
G0 X62.999 Y67.9
G0 X63.337 Y69.199
G0 X63.521 Y69.625
G0 X63.782 Y70.027
G0 X64.548 Y70.748
G0 X65.077 Y71.07
G0 X65.715 Y71.322
G0 X89.409 Y74.696
G0 X89.506 Y74.676
;TYPE:WALL-INNER
G1 F600 E19.04184
G1 F900 X89.739 Y74.816 E19.05089
G1 X90.314 Y75.162 E19.07324
G1 X90.442 Y75.216 E19.07787
G1 X90.55 Y75.281 E19.08207
G1 X90.742 Y75.361 E19.089
G1 X90.858 Y75.44 E19.09367
G1 X91.147 Y75.564 E19.10415
G1 X91.443 Y75.631 E19.11426
G1 X92.38 Y75.65 E19.14548
G1 X92.718 Y75.688 E19.15681
G1 X93.057 Y75.752 E19.1683
G1 X94.691 Y76 E19.22335
G1 X95.275 Y76.106 E19.24312
G1 X95.847 Y76.229 E19.26261
G1 X96.384 Y76.362 E19.28104
G1 X96.926 Y76.52 E19.29985
G1 X97.501 Y76.71 E19.32002
G1 X98.69 Y77.131 E19.36203
G1 X99.298 Y77.361 E19.38369
G1 X99.904 Y77.607 E19.40547
G1 X100.496 Y77.88 E19.42719
G1 X100.986 Y78.137 E19.44562
G1 X101.505 Y78.456 E19.46591
G1 X102.043 Y78.82 E19.48755
G1 X102.561 Y79.206 E19.50907
G1 X102.98 Y79.556 E19.52725
G1 X103.319 Y79.89 E19.54311
G1 X103.658 Y80.276 E19.56022
G1 X104.01 Y80.697 E19.5785
G1 X104.386 Y81.108 E19.59705
G1 X104.773 Y81.5 E19.6154
G1 X105.177 Y81.877 E19.63381
G1 X105.584 Y82.239 E19.65195
G1 X106.383 Y82.917 E19.68686
G1 X106.813 Y83.267 E19.70533
G1 X107.268 Y83.607 E19.72425
G1 X107.719 Y83.878 E19.74177
G1 X108.533 Y84.293 E19.77221
G1 X108.961 Y84.48 E19.78777
G1 X109.378 Y84.614 E19.80236
G1 X109.796 Y84.706 E19.81661
G1 X110.252 Y84.775 E19.83198
G1 X110.729 Y84.821 E19.84794
G1 X111.168 Y84.818 E19.86256
G1 X111.599 Y84.78 E19.87697
G1 X112.075 Y84.71 E19.893
G1 X112.584 Y84.607 E19.9103
G1 X113.093 Y84.466 E19.92789
G1 X113.431 Y84.351 E19.93979
G1 X113.575 Y84.302 E19.94485
G1 X113.672 Y84.262 E19.94835
G1 X114.022 Y84.117 E19.96097
G1 X114.046 Y84.104 E19.96188
G1 X114.446 Y83.893 E19.97694
G1 X114.838 Y83.604 E19.99316
G1 X115.19 Y83.225 E20.01039
G1 X115.198 Y83.212 E20.0109
G1 X115.486 Y82.754 E20.02892
G1 X115.725 Y82.257 E20.04729
G1 X115.908 Y81.767 E20.06472
G1 X115.914 Y81.752 E20.06525
G1 X116.044 Y81.278 E20.08163
G1 X116.055 Y81.24 E20.08294
G1 X116.131 Y80.762 E20.09907
G1 X116.136 Y80.736 E20.09995
G1 X116.168 Y80.253 E20.11607
G1 X116.168 Y80.227 E20.11694
G1 X116.159 Y79.775 E20.132
G1 X116.152 Y79.709 E20.13421
G1 X116.115 Y79.395 E20.14474
G1 X116.176 Y79.705
G1 X116.181 Y79.772
G1 X116.217 Y80.226
G1 X116.217 Y80.253
G1 X116.208 Y80.737
G1 X116.207 Y80.774
G1 X116.153 Y81.251
G1 X116.146 Y81.305
G1 X116.045 Y81.78 E20.14851
G1 X116.037 Y81.815
G1 X115.877 Y82.306 E20.15352
G1 X115.872 Y82.32 E20.15385
G1 X115.657 Y82.824 E20.16006
G1 X115.646 Y82.844 E20.16058
G1 X115.373 Y83.321 E20.16763
G1 X115.351 Y83.349 E20.16797
G1 X115.036 Y83.756 E20.1759
G1 X115.013 Y83.785 E20.17682
G1 X114.681 Y84.123 E20.18589
G1 X114.619 Y84.186 E20.18834
G1 X114.28 Y84.449 E20.19907
G1 X114.244 Y84.477 E20.20032
G1 X114.235 Y84.482 E20.20049
G1 X113.855 Y84.703 E20.21376
G1 X113.783 Y84.737 E20.21623
G1 X113.645 Y84.802 E20.22124
G1 X113.397 Y84.921 E20.2304
G1 X112.895 Y85.114 E20.24832
G1 X112.396 Y85.278 E20.26581
G1 X111.83 Y85.427 E20.28531
G1 X111.318 Y85.526 E20.30268
G1 X110.832 Y85.575 E20.31895
G1 X110.382 Y85.57 E20.33394
G1 X109.917 Y85.522 E20.34951
G1 X109.401 Y85.448 E20.36688
G1 X108.907 Y85.339 E20.38373
G1 X108.419 Y85.177 E20.40086
G1 X107.926 Y84.974 E20.41862
G1 X107.393 Y84.74 E20.43801
G1 X106.882 Y84.496 E20.45687
G1 X106.397 Y84.252 E20.47495
G1 X105.909 Y83.981 E20.49355
G1 X105.467 Y83.706 E20.51089
G1 X105.012 Y83.391 E20.52932
G1 X104.149 Y82.739 E20.56535
G1 X103.279 Y82.117 E20.60097
G1 X101.509 Y80.884 E20.67283
G1 X101.056 Y80.622 E20.69026
G1 X100.603 Y80.386 E20.70728
G1 X100.107 Y80.15 E20.72557
G1 X99.569 Y79.923 E20.74502
G1 X99.021 Y79.75 E20.76417
G1 X97.496 Y79.337 E20.81679
G1 X96.978 Y79.218 E20.8345
G1 X96.445 Y79.119 E20.85256
G1 X95.884 Y79.047 E20.8714
G1 X95.33 Y78.994 E20.88993
G1 X94.791 Y78.954 E20.90794
G1 X94.248 Y78.929 E20.92604
G1 X93.695 Y78.923 E20.94447
G1 X92.801 Y78.94 E20.97425
G1 X92.517 Y78.964 E20.98375
G1 X91.846 Y78.98 E21.0061
G1 X91.734 Y79.003 E21.00991
G1 X91.505 Y79.027 E21.01758
G1 X91.213 Y79.16 E21.02827
G1 X90.996 Y79.334 E21.03753
G1 X90.908 Y79.448 E21.04233
G1 X90.849 Y79.5 E21.04495
G1 X90.709 Y79.646 E21.05169
G1 X90.577 Y79.815 E21.05883
