;Generated by Cura LulzBot Edition GCodeWriter Version: 2.6.66
;FLAVOR:RepRap
;TIME:309
;Filament used: 0.125691m
;Layer height: 0.2592
;Generated with Cura_SteamEngine 2.6.69
;This G-Code has been generated specifically for the LulzBot Mini with Aerostruder
G26 ; clear potential 'probe fail' condition
G21 ; set units to Millimetres
M107 ; disable fans
G90 ; absolute positioning
M82 ; set extruder to absolute mode
G92 E0 ; set extruder position to 0
M140 S115 ; start bed heating up
G28 ; home all axes
G0 X0 Y187 Z156 F200 ; move away from endstops
M109 R170 ; soften filament before retraction
G1 E-15 F75 ; retract filament
M109 R170 ; wait for extruder to reach wiping temp
G1 X45 Y173 F11520 ; move above wiper pad
G1 Z0 F1200 ; push nozzle into wiper
G1 X42 Y173 Z-.5 F4000 ; wiping
G1 X52 Y171 Z-.5 F4000 ; wiping
G1 X42 Y173 Z0 F4000 ; wiping
G1 X52 Y171 F4000 ; wiping
G1 X42 Y173 F4000 ; wiping
G1 X52 Y171 F4000 ; wiping
G1 X42 Y173 F4000 ; wiping
G1 X52 Y171 F4000 ; wiping
G1 X57 Y173 F4000 ; wiping
G1 X77 Y171 F4000 ; wiping
G1 X57 Y173 F4000 ; wiping
G1 X77 Y171 F4000 ; wiping
G1 X57 Y173 F4000 ; wiping
G1 X87 Y171 F4000 ; wiping
G1 X77 Y173 F4000 ; wiping
G1 X97 Y171 F4000 ; wiping
G1 X77 Y173 F4000 ; wiping
G1 X97 Y171 F4000 ; wiping
G1 X77 Y173 F4000 ; wiping
G1 X97 Y171 F4000 ; wiping
G1 X107 Y173 F4000 ; wiping
G1 X97 Y171 F4000 ; wiping
G1 X107 Y173 F4000 ; wiping
G1 X97 Y171 F4000 ; wiping
G1 X107 Y173 F4000 ; wiping
G1 X112 Y171 Z-0.5 F1000 ; wiping
G1 Z10 ; raise extruder
G28 X0 Y0 ; home X and Y
G0 X0 Y187 F200 ; move away from endstops
M109 R170 ; wait for extruder to reach probe temp
M204 S300 ; set probing acceleration
G29 ; start auto-leveling sequence
M204 S2000 ; restore standard acceleration
G28 X0 Y0 ; re-home to account for build variance of earlier mini builds
G0 X0 Y187 F200 ; move away from endstops
G0 Y152 F4000 ; move in front of wiper pad
G4 S1 ; pause
M400 ; wait for moves to finish
M117 Heating... ; progress indicator message on LCD
M109 R245 ; wait for extruder to reach printing temp
M190 S116 ; wait for bed to reach printing temp
G1 Z2 E0 F75 ; prime tiny bit of filament into the nozzle
M117 Mini Printing... ; progress indicator message on LCD

G92 E0
M221 S100
;LAYER_COUNT:3
;LAYER:0
M107
M204 S1000
M205 X10
G0 F2250 X12.108 Y78.229
G0 F2250 Z0.42
G0 X12.418 Y78.213
;TYPE:SKIRT
G1 F900 X17.993 Y78.232 E0.22023
G1 X18.472 Y78.274 E0.23922
G1 X19.106 Y78.458 E0.2653
G1 X20.434 Y79.016 E0.3222
G1 X20.902 Y79.266 E0.34316
G1 X22.334 Y80.206 E0.41082
G1 X22.719 Y80.507 E0.43013
G1 X23.672 Y81.394 E0.48156
G1 X24.002 Y81.759 E0.50099
G1 X25.029 Y83.106 E0.56791
G1 X25.325 Y83.584 E0.59011
G1 X26.106 Y85.171 E0.65999
G1 X26.288 Y85.638 E0.67978
G1 X26.65 Y86.877 E0.73077
G1 X26.747 Y87.357 E0.75012
G1 X26.945 Y89.068 E0.81816
G1 X26.955 Y89.631 E0.8404
G1 X26.818 Y91.35 E0.90852
G1 X26.738 Y91.833 E0.92786
G1 X26.422 Y93.078 E0.9786
G1 X26.261 Y93.542 E0.998
G1 X25.553 Y95.136 E1.0669
G1 X25.273 Y95.63 E1.08933
G1 X24.287 Y97.028 E1.15691
G1 X23.921 Y97.453 E1.17906
G1 X22.669 Y98.65 E1.24749
G1 X22.294 Y98.953 E1.26653
G1 X21.285 Y99.638 E1.3147
G1 X20.875 Y99.871 E1.33333
G1 X19.331 Y100.586 E1.40055
G1 X18.798 Y100.772 E1.42285
G1 X17.111 Y101.183 E1.49144
G1 X16.549 Y101.262 E1.51385
G1 X14.817 Y101.336 E1.58233
G1 X14.259 Y101.306 E1.60441
G1 X12.549 Y101.047 E1.67273
G1 X12.141 Y100.955 E1.68925
G1 X11.347 Y100.714 E1.72203
G1 X11.012 Y100.589 E1.73615
G1 X9.794 Y100.048 E1.7888
G1 X9.361 Y99.81 E1.80832
G1 X7.942 Y98.863 E1.87571
G1 X7.508 Y98.508 E1.89785
G1 X6.271 Y97.279 E1.96674
G1 X5.909 Y96.84 E1.98921
G1 X4.942 Y95.402 E2.05767
G1 X4.675 Y94.909 E2.07981
G1 X4.008 Y93.324 E2.14774
G1 X3.856 Y92.853 E2.16729
G1 X3.558 Y91.565 E2.21952
G1 X3.493 Y91.147 E2.23623
G1 X3.39 Y89.886 E2.2862
G1 X3.386 Y89.46 E2.30303
G1 X3.473 Y88.134 E2.35552
G1 X3.548 Y87.644 E2.37511
G1 X3.952 Y85.968 E2.44321
G1 X4.106 Y85.505 E2.46248
G1 X4.608 Y84.335 E2.51278
G1 X4.801 Y83.961 E2.5294
G1 X5.482 Y82.851 E2.58084
G1 X5.732 Y82.505 E2.5977
G1 X6.574 Y81.501 E2.64947
G1 X6.815 Y81.246 E2.66333
G1 X7.447 Y80.655 E2.69751
G1 X7.718 Y80.431 E2.71139
G1 X8.748 Y79.679 E2.76177
G1 X9.234 Y79.392 E2.78407
G1 X11.184 Y78.484 E2.86904
G1 X11.635 Y78.318 E2.88802
G1 X11.927 Y78.263 E2.89976
G0 F810 X12.108 Y78.229
G0 X12.418 Y78.213
G0 F2250 X12.416 Y78.813
G1 F420 E2.91931
G1 F900 X17.991 Y78.832 E3.13954
G1 X18.417 Y78.873 E3.15644
G1 X18.874 Y79.012 E3.17531
G1 X20.202 Y79.57 E3.23221
G1 X20.573 Y79.767 E3.24881
G1 X22.005 Y80.707 E3.31647
G1 X22.31 Y80.946 E3.33178
G1 X23.263 Y81.833 E3.38321
G1 X23.525 Y82.122 E3.39862
G1 X24.552 Y83.469 E3.46553
G1 X24.787 Y83.848 E3.48314
G1 X25.568 Y85.435 E3.55301
G1 X25.712 Y85.806 E3.56874
G1 X26.074 Y87.045 E3.61972
G1 X26.151 Y87.426 E3.63508
G1 X26.349 Y89.137 E3.70312
G1 X26.357 Y89.584 E3.72078
G1 X26.22 Y91.303 E3.7889
G1 X26.156 Y91.686 E3.80424
G1 X25.84 Y92.931 E3.85498
G1 X25.713 Y93.299 E3.87036
G1 X25.005 Y94.893 E3.93925
G1 X24.783 Y95.285 E3.95705
G1 X23.797 Y96.683 E4.02463
G1 X23.506 Y97.019 E4.04218
G1 X22.254 Y98.216 E4.11061
G1 X21.957 Y98.457 E4.12572
G1 X20.948 Y99.142 E4.17389
G1 X20.622 Y99.326 E4.18868
G1 X19.078 Y100.041 E4.25589
G1 X18.656 Y100.189 E4.27356
G1 X16.969 Y100.6 E4.34215
G1 X16.523 Y100.663 E4.35994
G1 X14.791 Y100.737 E4.42842
G1 X14.349 Y100.713 E4.44591
G1 X12.639 Y100.454 E4.51423
G1 X12.315 Y100.381 E4.52735
G1 X11.521 Y100.14 E4.56012
G1 X11.255 Y100.041 E4.57133
G1 X10.037 Y99.5 E4.62398
G1 X9.694 Y99.311 E4.63945
G1 X8.275 Y98.364 E4.70684
G1 X7.931 Y98.083 E4.72439
G1 X6.694 Y96.854 E4.79327
G1 X6.406 Y96.505 E4.81114
G1 X5.439 Y95.067 E4.8796
G1 X5.228 Y94.676 E4.89715
G1 X4.561 Y93.091 E4.96508
G1 X4.44 Y92.717 E4.9806
G1 X4.142 Y91.429 E5.03283
G1 X4.091 Y91.098 E5.04606
G1 X3.988 Y89.837 E5.09603
G1 X3.985 Y89.499 E5.10939
G1 X4.072 Y88.173 E5.16188
G1 X4.131 Y87.785 E5.17738
G1 X4.535 Y86.109 E5.24548
G1 X4.657 Y85.741 E5.2608
G1 X5.159 Y84.571 E5.31109
G1 X5.313 Y84.275 E5.32427
G1 X5.994 Y83.165 E5.37571
G1 X6.192 Y82.89 E5.3891
G1 X7.034 Y81.886 E5.44086
G1 X7.225 Y81.684 E5.45184
G1 X7.857 Y81.093 E5.48602
G1 X8.072 Y80.915 E5.49705
G1 X9.102 Y80.163 E5.54742
G1 X9.487 Y79.936 E5.56508
G1 X11.437 Y79.028 E5.65005
G1 X11.841 Y78.884 E5.66699
G1 X11.925 Y78.873 E5.67034
G0 F810 X12.416 Y78.813
G1 F420 E4.67034
G0 F2250 X11.228 Y80.848
G0 X11.526 Y82.441
;TYPE:WALL-INNER
G1 F420 E5.68989
G1 F900 X11.854 Y82.282 E5.70429
G1 X12.074 Y82.943 E5.73181
G1 X11.763 Y83.096 E5.7455
G1 X11.4 Y83.301 E5.76197
G1 X11.047 Y83.526 E5.77851
G1 X10.708 Y83.773 E5.79507
G1 X10.385 Y84.038 E5.81158
G1 X10.076 Y84.321 E5.82813
G1 X9.785 Y84.621 E5.84464
G1 X9.512 Y84.937 E5.86114
G1 X9.257 Y85.268 E5.87764
G1 X9.019 Y85.614 E5.89423
G1 X8.805 Y85.974 E5.91077
G1 X8.611 Y86.342 E5.92721
G1 X8.436 Y86.722 E5.94373
G1 X8.284 Y87.115 E5.96038
G1 X8.157 Y87.513 E5.97688
G1 X8.051 Y87.917 E5.99338
G1 X7.968 Y88.326 E6.00987
G1 X7.91 Y88.74 E6.02638
G1 X7.874 Y89.156 E6.04287
G1 X7.863 Y89.577 E6.05951
G1 X7.876 Y89.995 E6.07603
G1 X7.913 Y90.411 E6.09253
G1 X7.973 Y90.825 E6.10905
G1 X8.058 Y91.235 E6.12559
G1 X8.165 Y91.639 E6.1421
G1 X8.295 Y92.035 E6.15857
G1 X8.448 Y92.426 E6.17515
G1 X8.623 Y92.806 E6.19168
G1 X8.819 Y93.174 E6.20815
G1 X9.036 Y93.533 E6.22472
G1 X9.274 Y93.877 E6.24124
G1 X9.529 Y94.207 E6.25772
G1 X9.805 Y94.524 E6.27432
G1 X10.098 Y94.822 E6.29083
G1 X10.406 Y95.104 E6.30732
G1 X10.733 Y95.368 E6.32393
G1 X11.072 Y95.612 E6.34043
G1 X11.424 Y95.836 E6.35691
G1 X11.789 Y96.04 E6.37342
G1 X12.166 Y96.224 E6.39
G1 X12.552 Y96.384 E6.4065
G1 X12.945 Y96.523 E6.42297
G1 X13.349 Y96.64 E6.43958
G1 X13.757 Y96.732 E6.4561
G1 X14.168 Y96.801 E6.47257
G1 X14.585 Y96.847 E6.48914
G1 X15.002 Y96.869 E6.50563
G1 X15.42 Y96.867 E6.52215
G1 X15.838 Y96.841 E6.53869
G1 X16.254 Y96.791 E6.55524
G1 X16.669 Y96.717 E6.57189
G1 X17.077 Y96.618 E6.58848
G1 X17.479 Y96.498 E6.60505
G1 X17.874 Y96.354 E6.62166
G1 X18.26 Y96.187 E6.63827
G1 X18.635 Y95.999 E6.65484
G1 X18.997 Y95.79 E6.67136
G1 X19.35 Y95.561 E6.68798
G1 X19.688 Y95.31 E6.70461
G1 X20.012 Y95.041 E6.72124
G1 X20.317 Y94.753 E6.73781
G1 X20.607 Y94.45 E6.75438
G1 X20.879 Y94.129 E6.771
G1 X21.132 Y93.795 E6.78755
G1 X21.365 Y93.445 E6.80416
G1 X21.578 Y93.084 E6.82072
G1 X21.77 Y92.71 E6.83733
G1 X21.94 Y92.326 E6.85391
G1 X22.088 Y91.931 E6.87058
G1 X22.212 Y91.53 E6.88716
G1 X22.314 Y91.123 E6.90373
G1 X22.391 Y90.711 E6.92029
G1 X22.446 Y90.295 E6.93686
G1 X22.476 Y89.875 E6.9535
G1 X22.482 Y89.455 E6.97009
G1 X22.464 Y89.035 E6.9867
G1 X22.422 Y88.618 E7.00325
G1 X22.356 Y88.202 E7.01989
G1 X22.265 Y87.791 E7.03652
G1 X22.152 Y87.388 E7.05305
G1 X22.016 Y86.991 E7.06963
G1 X21.857 Y86.601 E7.08627
G1 X21.676 Y86.223 E7.10282
G1 X21.474 Y85.855 E7.11941
G1 X21.251 Y85.498 E7.13603
G1 X21.005 Y85.156 E7.15267
G1 X20.744 Y84.829 E7.1692
G1 X20.462 Y84.517 E7.18581
G1 X20.163 Y84.22 E7.20246
G1 X19.904 Y83.996 E7.21599
G1 X19.523 Y82.849 E7.26373
G1 X19.799 Y83.034 E7.27686
G1 X20.093 Y83.253 E7.29134
G1 X20.408 Y83.512 E7.30745
G1 X20.696 Y83.773 E7.3228
G1 X20.96 Y84.037 E7.33755
G1 X21.22 Y84.324 E7.35285
G1 X21.477 Y84.637 E7.36885
G1 X21.693 Y84.927 E7.38313
G1 X21.935 Y85.286 E7.40023
G1 X22.129 Y85.609 E7.41512
G1 X22.298 Y85.923 E7.4292
G1 X22.472 Y86.288 E7.44517
G1 X22.617 Y86.633 E7.45996
G1 X22.76 Y87.025 E7.47644
G1 X22.866 Y87.368 E7.49062
G1 X22.967 Y87.76 E7.50661
G1 X23.051 Y88.168 E7.52307
G1 X23.105 Y88.521 E7.53717
G1 X23.147 Y88.924 E7.55318
G1 X23.168 Y89.311 E7.56849
G1 X23.172 Y89.674 E7.58283
G1 X23.156 Y90.076 E7.59872
G1 X23.118 Y90.489 E7.61511
G1 X23.07 Y90.836 E7.62894
G1 X22.995 Y91.235 E7.64498
G1 X22.902 Y91.624 E7.66078
G1 X22.794 Y91.993 E7.67597
G1 X22.676 Y92.336 E7.6903
G1 X22.526 Y92.71 E7.70621
G1 X22.355 Y93.084 E7.72246
G1 X22.189 Y93.405 E7.73673
G1 X21.988 Y93.749 E7.75247
G1 X21.767 Y94.089 E7.76849
G1 X21.552 Y94.388 E7.78304
G1 X21.309 Y94.694 E7.79847
G1 X21.056 Y94.982 E7.81362
G1 X20.775 Y95.272 E7.82957
G1 X20.503 Y95.527 E7.8443
G1 X20.188 Y95.794 E7.86061
G1 X19.893 Y96.019 E7.87526
G1 X19.573 Y96.242 E7.89067
G1 X19.308 Y96.409 E7.90304
G1 X18.988 Y96.593 E7.91763
G1 X18.653 Y96.764 E7.93248
G1 X18.27 Y96.937 E7.94908
G1 X17.916 Y97.076 E7.96411
G1 X17.565 Y97.195 E7.97875
G1 X17.172 Y97.308 E7.9949
G1 X16.806 Y97.393 E8.00974
G1 X16.425 Y97.462 E8.02504
G1 X16.034 Y97.515 E8.04063
G1 X15.652 Y97.546 E8.05577
G1 X15.248 Y97.561 E8.07174
G1 X14.861 Y97.554 E8.08703
G1 X14.472 Y97.53 E8.10242
G1 X14.09 Y97.488 E8.1176
G1 X13.702 Y97.425 E8.13313
G1 X13.322 Y97.344 E8.14848
G1 X12.967 Y97.251 E8.16297
G1 X12.576 Y97.127 E8.17918
G1 X12.214 Y96.993 E8.19443
G1 X11.848 Y96.836 E8.21016
G1 X11.482 Y96.659 E8.22622
G1 X11.169 Y96.487 E8.24032
G1 X10.832 Y96.28 E8.25595
G1 X10.501 Y96.054 E8.27178
G1 X10.193 Y95.821 E8.28704
G1 X9.903 Y95.58 E8.30193
G1 X9.609 Y95.309 E8.31773
G1 X9.333 Y95.028 E8.33328
G1 X9.063 Y94.726 E8.34929
G1 X8.84 Y94.45 E8.3633
G1 X8.596 Y94.116 E8.37964
G1 X8.391 Y93.804 E8.39439
G1 X8.188 Y93.46 E8.41017
G1 X8.005 Y93.114 E8.42563
G1 X7.847 Y92.774 E8.44044
G1 X7.694 Y92.4 E8.4564
G1 X7.565 Y92.035 E8.47169
G1 X7.452 Y91.656 E8.48732
G1 X7.362 Y91.289 E8.50224
G1 X7.29 Y90.922 E8.51702
G1 X7.228 Y90.498 E8.53394
G1 X7.193 Y90.129 E8.54859
G1 X7.175 Y89.751 E8.56354
G1 X7.176 Y89.348 E8.57945
G1 X7.195 Y88.973 E8.59429
G1 X7.235 Y88.567 E8.6104
G1 X7.29 Y88.199 E8.6251
G1 X7.366 Y87.812 E8.64068
G1 X7.462 Y87.428 E8.65632
G1 X7.576 Y87.054 E8.67176
G1 X7.702 Y86.699 E8.68664
G1 X7.847 Y86.346 E8.70172
G1 X8.015 Y85.989 E8.7173
G1 X8.205 Y85.633 E8.73324
G1 X8.405 Y85.296 E8.74872
G1 X8.603 Y84.996 E8.76292
G1 X8.853 Y84.656 E8.77959
G1 X9.088 Y84.368 E8.79427
G1 X9.358 Y84.067 E8.81025
G1 X9.612 Y83.81 E8.82452
G1 X9.91 Y83.536 E8.84051
G1 X10.222 Y83.278 E8.85651
G1 X10.519 Y83.054 E8.8712
G1 X10.842 Y82.835 E8.88662
G1 X11.094 Y82.682 E8.89826
G0 F810 X11.186 Y82.626
G0 X11.526 Y82.441
G0 F2250 X11.255 Y81.906
;TYPE:WALL-OUTER
G1 F420 E8.91781
G1 F900 X11.633 Y81.723 E8.9344
G1 X12.014 Y81.562 E8.95074
G1 X12.222 Y81.487 E8.95948
G1 X12.818 Y83.28 E9.03412
G1 X12.387 Y83.457 E9.05252
G1 X12.043 Y83.627 E9.06768
G1 X11.709 Y83.815 E9.08282
G1 X11.386 Y84.022 E9.09797
G1 X11.075 Y84.248 E9.11316
G1 X10.778 Y84.491 E9.12832
G1 X10.495 Y84.751 E9.1435
G1 X10.228 Y85.026 E9.15864
G1 X9.977 Y85.317 E9.17382
G1 X9.742 Y85.621 E9.189
G1 X9.525 Y85.938 E9.20417
G1 X9.328 Y86.268 E9.21936
G1 X9.149 Y86.607 E9.2345
G1 X8.989 Y86.956 E9.24966
G1 X8.85 Y87.315 E9.26487
G1 X8.733 Y87.68 E9.28001
G1 X8.636 Y88.052 E9.2952
G1 X8.56 Y88.428 E9.31035
G1 X8.506 Y88.808 E9.32551
G1 X8.473 Y89.19 E9.34066
G1 X8.463 Y89.575 E9.35587
G1 X8.475 Y89.959 E9.37105
G1 X8.509 Y90.341 E9.3862
G1 X8.564 Y90.721 E9.40137
G1 X8.642 Y91.097 E9.41654
G1 X8.74 Y91.468 E9.43169
G1 X8.86 Y91.832 E9.44683
G1 X9 Y92.191 E9.46205
G1 X9.161 Y92.539 E9.4772
G1 X9.341 Y92.878 E9.49236
G1 X9.54 Y93.207 E9.50755
G1 X9.758 Y93.523 E9.52272
G1 X9.993 Y93.826 E9.53786
G1 X10.246 Y94.116 E9.55307
G1 X10.515 Y94.39 E9.56823
G1 X10.798 Y94.649 E9.58339
G1 X11.097 Y94.891 E9.59858
G1 X11.409 Y95.115 E9.61376
G1 X11.732 Y95.321 E9.62889
G1 X12.067 Y95.508 E9.64404
G1 X12.413 Y95.677 E9.65926
G1 X12.767 Y95.824 E9.6744
G1 X13.129 Y95.952 E9.68956
G1 X13.498 Y96.059 E9.70474
G1 X13.873 Y96.143 E9.71992
G1 X14.251 Y96.207 E9.73507
G1 X14.633 Y96.249 E9.75025
G1 X15.016 Y96.269 E9.7654
G1 X15.4 Y96.267 E9.78057
G1 X15.783 Y96.243 E9.79572
G1 X16.165 Y96.197 E9.81092
G1 X16.546 Y96.129 E9.82621
G1 X16.92 Y96.039 E9.84141
G1 X17.29 Y95.928 E9.85667
G1 X17.652 Y95.796 E9.87189
G1 X18.006 Y95.643 E9.88712
G1 X18.35 Y95.47 E9.90233
G1 X18.684 Y95.278 E9.91755
G1 X19.007 Y95.068 E9.93277
G1 X19.317 Y94.838 E9.94802
G1 X19.614 Y94.591 E9.96328
G1 X19.895 Y94.327 E9.97851
G1 X20.161 Y94.049 E9.9937
G1 X20.41 Y93.754 E10.00895
G1 X20.643 Y93.447 E10.02418
G1 X20.856 Y93.126 E10.0394
G1 X21.052 Y92.794 E10.05463
G1 X21.228 Y92.451 E10.06985
G1 X21.384 Y92.099 E10.08506
G1 X21.52 Y91.737 E10.10034
G1 X21.634 Y91.369 E10.11556
G1 X21.727 Y90.995 E10.13078
G1 X21.798 Y90.616 E10.14601
G1 X21.849 Y90.234 E10.16124
G1 X21.876 Y89.849 E10.17648
G1 X21.882 Y89.464 E10.19169
G1 X21.865 Y89.078 E10.20696
G1 X21.827 Y88.695 E10.22216
G1 X21.766 Y88.314 E10.2374
G1 X21.683 Y87.937 E10.25265
G1 X21.579 Y87.567 E10.26783
G1 X21.454 Y87.202 E10.28307
G1 X21.308 Y86.844 E10.29835
G1 X21.142 Y86.497 E10.31354
G1 X20.956 Y86.159 E10.32878
G1 X20.752 Y85.832 E10.34401
G1 X20.527 Y85.518 E10.35926
G1 X20.287 Y85.218 E10.37444
G1 X20.028 Y84.931 E10.38971
G1 X19.755 Y84.66 E10.40491
G1 X19.387 Y84.341 E10.42415
G1 X18.486 Y81.628 E10.53707
G1 X18.691 Y81.714 E10.54585
G1 X19.069 Y81.894 E10.56239
G1 X19.424 Y82.085 E10.57831
G1 X19.794 Y82.308 E10.59538
G1 X20.142 Y82.541 E10.61192
G1 X20.466 Y82.783 E10.6279
G1 X20.8 Y83.057 E10.64496
G1 X21.099 Y83.328 E10.6609
G1 X21.405 Y83.634 E10.678
G1 X21.675 Y83.932 E10.69388
G1 X21.941 Y84.256 E10.71044
G1 X22.191 Y84.592 E10.72699
G1 X22.433 Y84.951 E10.74409
G1 X22.648 Y85.309 E10.76058
G1 X22.839 Y85.664 E10.77651
G1 X23.019 Y86.041 E10.79301
G1 X23.181 Y86.427 E10.80955
G1 X23.324 Y86.819 E10.82603
G1 X23.447 Y87.219 E10.84256
G1 X23.555 Y87.639 E10.85969
G1 X23.639 Y88.047 E10.87615
G1 X23.701 Y88.446 E10.8921
G1 X23.744 Y88.862 E10.90862
G1 X23.768 Y89.294 E10.92571
G1 X23.772 Y89.698 E10.94167
G1 X23.755 Y90.115 E10.95815
G1 X23.716 Y90.544 E10.97517
G1 X23.66 Y90.947 E10.99124
G1 X23.583 Y91.357 E11.00772
G1 X23.482 Y91.776 E11.02475
G1 X23.365 Y92.179 E11.04132
G1 X23.233 Y92.56 E11.05725
G1 X23.077 Y92.948 E11.07377
G1 X22.897 Y93.342 E11.09088
G1 X22.712 Y93.7 E11.1068
G1 X22.501 Y94.061 E11.12332
G1 X22.265 Y94.424 E11.14042
G1 X22.029 Y94.752 E11.15638
G1 X21.76 Y95.09 E11.17345
G1 X21.494 Y95.393 E11.18938
G1 X21.203 Y95.693 E11.20589
G1 X20.898 Y95.979 E11.2224
G1 X20.568 Y96.259 E11.2395
G1 X20.247 Y96.504 E11.25545
G1 X19.893 Y96.75 E11.27248
G1 X19.628 Y96.917 E11.28485
