;Generated by Cura LulzBot Edition GCodeWriter Version: 2.6.66
;FLAVOR:RepRap
;TIME:2382
;Filament used: 1.31993m
;Layer height: 0.378
;Generated with Cura_SteamEngine 2.6.66
;This G-Code has been generated specifically for the LulzBot Mini with Aerostruder
G26 ; clear potential 'probe fail' condition
G21 ; set units to Millimetres
M107 ; disable fans
G90 ; absolute positioning
M82 ; set extruder to absolute mode
G92 E0 ; set extruder position to 0
M140 S115 ; start bed heating up
G28 ; home all axes
G0 X0 Y187 Z156 F200 ; move away from endstops
M109 R170 ; soften filament before retraction
G1 E-15 F75 ; retract filament
M109 R170 ; wait for extruder to reach wiping temp
G1 X45 Y173 F11520 ; move above wiper pad
G1 Z0 F1200 ; push nozzle into wiper
G1 X42 Y173 Z-.5 F4000 ; wiping
G1 X52 Y171 Z-.5 F4000 ; wiping
G1 X42 Y173 Z0 F4000 ; wiping
G1 X52 Y171 F4000 ; wiping
G1 X42 Y173 F4000 ; wiping
G1 X52 Y171 F4000 ; wiping
G1 X42 Y173 F4000 ; wiping
G1 X52 Y171 F4000 ; wiping
G1 X57 Y173 F4000 ; wiping
G1 X77 Y171 F4000 ; wiping
G1 X57 Y173 F4000 ; wiping
G1 X77 Y171 F4000 ; wiping
G1 X57 Y173 F4000 ; wiping
G1 X87 Y171 F4000 ; wiping
G1 X77 Y173 F4000 ; wiping
G1 X97 Y171 F4000 ; wiping
G1 X77 Y173 F4000 ; wiping
G1 X97 Y171 F4000 ; wiping
G1 X77 Y173 F4000 ; wiping
G1 X97 Y171 F4000 ; wiping
G1 X107 Y173 F4000 ; wiping
G1 X97 Y171 F4000 ; wiping
G1 X107 Y173 F4000 ; wiping
G1 X97 Y171 F4000 ; wiping
G1 X107 Y173 F4000 ; wiping
G1 X112 Y171 Z-0.5 F1000 ; wiping
G1 Z10 ; raise extruder
G28 X0 Y0 ; home X and Y
G0 X0 Y187 F200 ; move away from endstops
M109 R170 ; wait for extruder to reach probe temp
M204 S300 ; set probing acceleration
G29 ; start auto-leveling sequence
M204 S2000 ; restore standard acceleration
G28 X0 Y0 ; re-home to account for build variance of earlier mini builds
G0 X0 Y187 F200 ; move away from endstops
G0 Y152 F4000 ; move in front of wiper pad
G4 S1 ; pause
M400 ; wait for moves to finish
M117 Heating... ; progress indicator message on LCD
M109 R245 ; wait for extruder to reach printing temp
M190 S116 ; wait for bed to reach printing temp
G1 Z2 E0 F75 ; prime tiny bit of filament into the nozzle
M117 Mini Printing... ; progress indicator message on LCD


M221 S100
;LAYER_COUNT:3
;LAYER:0
M107
M204 S1000
M205 X10
G0 F2250 X9.689 Y13.528 Z0.42
;TYPE:SKIRT
G1 F900 X9.893 Y13.385 E0.00984
G1 X11.382 Y12.543 E0.07741
G1 X11.555 Y12.462 E0.08496
G1 X12.379 Y12.145 E0.11983
G1 X12.528 Y12.097 E0.12602
G1 X13.778 Y11.782 E0.17694
G1 X13.976 Y11.749 E0.18487
G1 X15.425 Y11.615 E0.24235
G1 X15.484 Y11.61 E0.24469
G1 X22.835 Y11.267 E0.53539
G1 X23.017 Y11.272 E0.54258
G1 X26.856 Y11.629 E0.69488
G1 X32.461 Y11.952 E0.91666
G1 X38.051 Y11.956 E1.13748
G1 X51.734 Y11.268 E1.67867
G1 X51.919 Y11.272 E1.68598
G1 X55.834 Y11.634 E1.84129
G1 X61.44 Y11.953 E2.06309
G1 X67.029 Y11.955 E2.28387
G1 X80.643 Y11.268 E2.82234
G1 X80.829 Y11.272 E2.82969
G1 X84.717 Y11.632 E2.98393
G1 X90.323 Y11.953 E3.20574
G1 X95.913 Y11.955 E3.42656
G1 X109.557 Y11.268 E3.96621
G1 X109.743 Y11.272 E3.97356
G1 X113.582 Y11.629 E4.12586
G1 X119.187 Y11.952 E4.34764
G1 X124.777 Y11.956 E4.56846
G1 X138.46 Y11.268 E5.10965
G1 X138.701 Y11.278 E5.11917
G1 X140.796 Y11.564 E5.2027
G1 X141.013 Y11.613 E5.21149
G1 X141.874 Y11.886 E5.24717
G1 X142.052 Y11.957 E5.25474
G1 X143.608 Y12.717 E5.32314
G1 X143.796 Y12.829 E5.33179
G1 X144.816 Y13.562 E5.3814
G1 X144.983 Y13.706 E5.39011
G1 X146.219 Y14.961 E5.4597
G1 X146.379 Y15.159 E5.46975
G1 X147.322 Y16.593 E5.53755
G1 X147.44 Y16.816 E5.54751
G1 X148.1 Y18.434 E5.61654
G1 X148.172 Y18.676 E5.62652
G1 X148.499 Y20.355 E5.69409
G1 X148.523 Y20.608 E5.70413
G1 X148.517 Y22.396 E5.77476
G1 X148.512 Y22.503 E5.77899
G1 X148.248 Y25.574 E5.90075
G1 X148.013 Y31.169 E6.12195
G1 X148.094 Y36.747 E6.34232
G1 X148.55 Y43.07 E6.59274
G1 X148.55 Y43.245 E6.59966
G1 X148.091 Y50.511 E6.88725
G1 X148.015 Y56.108 E7.10836
G1 X148.255 Y61.71 E7.32986
G1 X148.559 Y65.666 E7.48659
G1 X148.559 Y65.867 E7.49453
G1 X148.248 Y69.867 E7.65301
G1 X148.013 Y75.465 E7.87434
G1 X148.094 Y81.043 E8.09471
G1 X148.552 Y87.391 E8.34612
G1 X148.552 Y87.567 E8.35307
G1 X148.091 Y94.809 E8.63973
G1 X148.015 Y100.404 E8.86076
G1 X148.254 Y106.003 E9.08214
G1 X148.56 Y109.941 E9.23816
G1 X148.56 Y110.142 E9.2461
G1 X148.249 Y114.147 E9.40479
G1 X148.013 Y119.761 E9.62675
G1 X148.094 Y125.339 E9.84711
G1 X148.552 Y131.687 E10.09853
G1 X148.553 Y131.847 E10.10485
G1 X148.464 Y133.578 E10.17331
G1 X148.429 Y133.817 E10.18286
G1 X148.061 Y135.334 E10.24452
G1 X147.997 Y135.531 E10.2527
G1 X147.477 Y136.771 E10.30582
G1 X147.402 Y136.92 E10.31241
G1 X146.964 Y137.675 E10.34689
G1 X146.86 Y137.829 E10.35423
G1 X145.801 Y139.168 E10.42166
G1 X145.625 Y139.351 E10.43169
G1 X144.311 Y140.472 E10.49992
G1 X144.161 Y140.582 E10.50727
G1 X143.434 Y141.041 E10.54123
G1 X143.294 Y141.118 E10.54754
G1 X142.108 Y141.677 E10.59934
G1 X141.9 Y141.754 E10.6081
G1 X140.25 Y142.21 E10.67572
G1 X140.024 Y142.251 E10.68479
G1 X138.575 Y142.385 E10.74228
G1 X138.516 Y142.39 E10.74461
G1 X131.165 Y142.733 E11.03531
G1 X130.983 Y142.728 E11.0425
G1 X127.144 Y142.371 E11.19481
G1 X121.539 Y142.048 E11.41658
G1 X115.949 Y142.044 E11.6374
G1 X102.266 Y142.732 E12.17859
G1 X102.081 Y142.728 E12.1859
G1 X98.166 Y142.366 E12.34121
G1 X92.56 Y142.047 E12.56302
G1 X86.971 Y142.045 E12.7838
G1 X73.357 Y142.732 E13.32226
G1 X73.171 Y142.728 E13.32961
G1 X69.283 Y142.368 E13.48385
G1 X63.677 Y142.047 E13.70567
G1 X58.087 Y142.045 E13.92648
G1 X44.443 Y142.732 E14.46613
G1 X44.257 Y142.728 E14.47348
G1 X40.418 Y142.371 E14.62579
G1 X34.813 Y142.048 E14.84756
G1 X29.223 Y142.044 E15.06838
G1 X15.54 Y142.732 E15.60957
G1 X15.299 Y142.722 E15.6191
G1 X13.197 Y142.434 E15.70291
G1 X12.98 Y142.385 E15.7117
G1 X12.126 Y142.114 E15.74709
G1 X11.948 Y142.043 E15.75466
G1 X10.386 Y141.279 E15.82335
G1 X10.198 Y141.166 E15.83201
G1 X9.183 Y140.436 E15.8814
G1 X9.016 Y140.293 E15.89008
G1 X7.781 Y139.039 E15.95961
G1 X7.621 Y138.841 E15.96966
G1 X6.678 Y137.407 E16.03746
G1 X6.56 Y137.184 E16.04743
G1 X5.9 Y135.566 E16.11645
G1 X5.828 Y135.324 E16.12643
G1 X5.501 Y133.645 E16.194
G1 X5.477 Y133.392 E16.20404
G1 X5.483 Y131.604 E16.27467
G1 X5.488 Y131.497 E16.2789
G1 X5.752 Y128.426 E16.40066
G1 X5.987 Y122.831 E16.62187
G1 X5.906 Y117.253 E16.84223
G1 X5.45 Y110.93 E17.09265
G1 X5.45 Y110.755 E17.09957
G1 X5.909 Y103.489 E17.38716
G1 X5.985 Y97.892 E17.60828
G1 X5.745 Y92.278 E17.83024
G1 X5.441 Y88.324 E17.9869
G1 X5.441 Y88.123 E17.99484
G1 X5.752 Y84.133 E18.15293
G1 X5.987 Y78.535 E18.37426
G1 X5.906 Y72.957 E18.59462
G1 X5.45 Y66.634 E18.84504
G1 X5.45 Y66.459 E18.85196
G1 X5.909 Y59.193 E19.13955
G1 X5.985 Y53.596 E19.36067
G1 X5.745 Y47.982 E19.58263
G1 X5.44 Y44.059 E19.73807
G1 X5.44 Y43.858 E19.74601
G1 X5.752 Y39.839 E19.90524
G1 X5.987 Y34.239 E20.12665
G1 X5.906 Y28.661 E20.34702
G1 X5.448 Y22.313 E20.59843
G1 X5.447 Y22.153 E20.60475
G1 X5.536 Y20.422 E20.67322
G1 X5.571 Y20.183 E20.68276
G1 X5.939 Y18.666 E20.74442
G1 X6.003 Y18.469 E20.75261
G1 X6.523 Y17.229 E20.80572
G1 X6.598 Y17.08 E20.81231
G1 X7.036 Y16.325 E20.84679
G1 X7.14 Y16.171 E20.85413
G1 X8.199 Y14.832 E20.92157
G1 X8.375 Y14.649 E20.9316
G1 X9.313 Y13.849 E20.9803
G0 F810 X9.689 Y13.528
G1 F420 E19.9803
G0 F2250 X10.073 Y14.018
G0 X10.909 Y15.245
G0 X11.395 Y15.481
;TYPE:WALL-INNER
G1 F420 E20.99985
G1 F900 X11.041 Y15.734 E21.01131
G1 X10.702 Y16.004 E21.02272
G1 X10.376 Y16.297 E21.03426
G1 X10.068 Y16.609 E21.04581
G1 X9.778 Y16.936 E21.05732
G1 X9.509 Y17.282 E21.06886
G1 X9.26 Y17.638 E21.0803
G1 X9.03 Y18.011 E21.09184
G1 X8.824 Y18.397 E21.10336
G1 X8.64 Y18.793 E21.11486
G1 X8.478 Y19.2 E21.1264
G1 X8.341 Y19.615 E21.13791
G1 X8.226 Y20.037 E21.14943
G1 X8.138 Y20.465 E21.16093
G1 X8.073 Y20.897 E21.17244
G1 X8.033 Y21.332 E21.18394
G1 X8.019 Y21.77 E21.19548
G1 X8.028 Y22.208 E21.20702
G1 X8.065 Y22.644 E21.21854
G1 X8.125 Y23.075 E21.23
G1 X8.211 Y23.506 E21.24158
G1 X8.322 Y23.929 E21.25309
G1 X8.455 Y24.344 E21.26457
G1 X8.613 Y24.752 E21.27609
G1 X8.793 Y25.15 E21.2876
G1 X8.996 Y25.536 E21.29908
G1 X9.222 Y25.913 E21.31066
G1 X9.47 Y26.273 E21.32217
G1 X9.737 Y26.62 E21.3337
G1 X10.023 Y26.95 E21.3452
G1 X10.327 Y27.263 E21.35669
G1 X10.648 Y27.558 E21.36817
G1 X10.988 Y27.836 E21.37974
G1 X11.343 Y28.092 E21.39126
G1 X11.71 Y28.328 E21.40275
G1 X12.093 Y28.542 E21.41431
G1 X12.485 Y28.734 E21.4258
G1 X12.888 Y28.903 E21.43731
G1 X13.299 Y29.049 E21.4488
G1 X13.721 Y29.171 E21.46037
G1 X14.148 Y29.269 E21.4719
G1 X14.583 Y29.342 E21.48352
G1 X14.85 Y29.368 E21.49058
G1 X14.994 Y29.474 E21.49529
G1 X14.86 Y29.465 E21.49883
G1 X14.509 Y29.421 E21.50815
G1 X14.119 Y29.353 E21.51857
G1 X13.754 Y29.271 E21.52842
G1 X13.402 Y29.175 E21.53803
G1 X13.032 Y29.053 E21.54829
G1 X12.686 Y28.92 E21.55805
G1 X12.353 Y28.773 E21.56764
G1 X12.028 Y28.609 E21.57723
G1 X11.679 Y28.414 E21.58775
G1 X11.385 Y28.229 E21.5969
G1 X11.071 Y28.009 E21.607
G1 X10.767 Y27.775 E21.6171
G1 X10.489 Y27.537 E21.62674
G1 X10.201 Y27.265 E21.63717
G1 X9.934 Y26.988 E21.6473
G1 X9.696 Y26.714 E21.65686
G1 X9.493 Y26.456 E21.66551
G1 X9.251 Y26.119 E21.67643
G1 X9.057 Y25.816 E21.68591
G1 X8.861 Y25.476 E21.69624
G1 X8.685 Y25.133 E21.70639
G1 X8.554 Y24.842 E21.7148
G1 X8.398 Y24.449 E21.72593
G1 X8.275 Y24.088 E21.73598
G1 X8.179 Y23.755 E21.7451
G1 X8.092 Y23.386 E21.75509
G1 X8.023 Y23.009 E21.76518
G1 X7.976 Y22.657 E21.77453
G1 X7.943 Y22.272 E21.78471
G1 X7.929 Y21.877 E21.79512
G1 X7.934 Y21.502 E21.80499
G1 X7.954 Y21.175 E21.81362
G1 X7.997 Y20.78 E21.82409
G1 X8.057 Y20.4 E21.83422
G1 X8.128 Y20.062 E21.84331
G1 X8.224 Y19.692 E21.85338
G1 X8.342 Y19.316 E21.86376
G1 X8.464 Y18.983 E21.8731
G1 X8.569 Y18.728 E21.88036
G1 X8.736 Y18.37 E21.89076
G1 X8.901 Y18.056 E21.9001
G1 X9.089 Y17.738 E21.90983
G1 X9.294 Y17.426 E21.91966
G1 X9.534 Y17.098 E21.93037
G1 X9.76 Y16.818 E21.93984
G1 X10.008 Y16.541 E21.94963
G1 X10.264 Y16.28 E21.95926
G1 X10.543 Y16.023 E21.96925
G1 X10.838 Y15.776 E21.97938
G1 X11.139 Y15.548 E21.98933
G1 X11.428 Y15.351 E21.99854
G1 X11.763 Y15.145 E22.00889
G1 X12.103 Y14.959 E22.0191
G1 X12.424 Y14.802 E22.02851
G1 X12.769 Y14.655 E22.03839
G1 X13.123 Y14.524 E22.04833
G1 X13.484 Y14.409 E22.0583
G1 X13.852 Y14.312 E22.06833
G1 X14.187 Y14.24 E22.07735
G1 X14.593 Y14.174 E22.08818
G1 X14.957 Y14.133 E22.09783
G1 X15.31 Y14.111 E22.10714
G1 X15.691 Y14.104 E22.11718
G1 X16.087 Y14.119 E22.12761
G1 X16.448 Y14.148 E22.13715
G1 X16.823 Y14.197 E22.14711
G1 X17.188 Y14.264 E22.15688
G1 X17.564 Y14.351 E22.16705
G1 X17.917 Y14.452 E22.17672
G1 X18.257 Y14.566 E22.18616
G1 X18.612 Y14.706 E22.19621
G1 X18.956 Y14.861 E22.20615
G1 X19.311 Y15.041 E22.21663
G1 X19.605 Y15.21 E22.22556
G1 X19.943 Y15.426 E22.23612
G1 X20.225 Y15.627 E22.24524
G1 X20.557 Y15.889 E22.25638
G1 X20.814 Y16.112 E22.26534
G1 X21.081 Y16.368 E22.27508
G1 X21.36 Y16.663 E22.28577
G1 X21.601 Y16.944 E22.29552
G1 X21.821 Y17.228 E22.30498
G1 X22.021 Y17.512 E22.31413
G1 X22.246 Y17.868 E22.32522
G1 X22.427 Y18.188 E22.3349
G1 X22.59 Y18.514 E22.3445
G1 X22.748 Y18.871 E22.35478
G1 X22.867 Y19.179 E22.36348
G1 X23.003 Y19.59 E22.37488
G1 X23.088 Y19.895 E22.38322
G1 X23.179 Y20.299 E22.39412
G1 X23.241 Y20.649 E22.40348
G1 X23.287 Y21.016 E22.41323
G1 X23.318 Y21.419 E22.42387
G1 X23.328 Y21.794 E22.43375
G1 X23.32 Y22.153 E22.4432
G1 X23.295 Y22.513 E22.45271
G1 X23.25 Y22.898 E22.46292
G1 X23.189 Y23.256 E22.47248
G1 X23.106 Y23.638 E22.48277
G1 X23.01 Y23.993 E22.49246
G1 X22.895 Y24.351 E22.50236
G1 X22.763 Y24.699 E22.51216
G1 X22.613 Y25.044 E22.52207
G1 X22.434 Y25.402 E22.53261
G1 X22.36 Y25.347 E22.53504
G1 X22.593 Y24.873 E22.54895
G1 X22.757 Y24.468 E22.56046
G1 X22.897 Y24.056 E22.57191
G1 X23.013 Y23.638 E22.58334
G1 X23.106 Y23.214 E22.59477
G1 X23.176 Y22.78 E22.60635
G1 X23.218 Y22.346 E22.61783
G1 X23.237 Y21.915 E22.62919
G1 X23.232 Y21.479 E22.64067
G1 X23.201 Y21.041 E22.65224
G1 X23.143 Y20.61 E22.66369
G1 X23.064 Y20.184 E22.6751
G1 X22.958 Y19.761 E22.68658
G1 X22.83 Y19.344 E22.69807
G1 X22.677 Y18.936 E22.70955
G1 X22.502 Y18.537 E22.72102
G1 X22.304 Y18.151 E22.73244
G1 X22.084 Y17.774 E22.74394
G1 X21.843 Y17.411 E22.75541
G1 X21.581 Y17.063 E22.76689
G1 X21.3 Y16.73 E22.77836
G1 X21 Y16.414 E22.78983
G1 X20.683 Y16.116 E22.80129
G1 X20.35 Y15.836 E22.81275
G1 X20 Y15.575 E22.82425
G1 X19.637 Y15.336 E22.83569
G1 X19.26 Y15.116 E22.84719
G1 X18.871 Y14.92 E22.85866
G1 X18.472 Y14.746 E22.87012
G1 X18.064 Y14.595 E22.88158
G1 X17.648 Y14.467 E22.89304
G1 X17.225 Y14.364 E22.90451
G1 X16.797 Y14.284 E22.91597
G1 X16.364 Y14.23 E22.92746
G1 X15.931 Y14.2 E22.93889
G1 X15.496 Y14.195 E22.95035
G1 X15.058 Y14.215 E22.9619
G1 X14.626 Y14.26 E22.97334
G1 X14.197 Y14.33 E22.98478
G1 X13.771 Y14.424 E22.99627
G1 X13.351 Y14.543 E23.00777
G1 X12.941 Y14.685 E23.01919
G1 X12.539 Y14.85 E23.03064
G1 X12.145 Y15.037 E23.04212
G1 X12.032 Y15.1 E23.04553
G0 F810 X11.761 Y15.251
G0 X11.395 Y15.481
G0 F2250 X11.618 Y15.813
G1 F420 E23.06507
G1 F900 X11.282 Y16.053 E23.07594
G1 X10.961 Y16.309 E23.08676
G1 X10.652 Y16.587 E23.0977
G1 X10.36 Y16.882 E23.10863
G1 X10.086 Y17.192 E23.11953
G1 X9.831 Y17.519 E23.13045
G1 X9.595 Y17.858 E23.14133
G1 X9.377 Y18.211 E23.15225
G1 X9.182 Y18.576 E23.16315
G1 X9.007 Y18.951 E23.17405
G1 X8.854 Y19.337 E23.18498
G1 X8.724 Y19.73 E23.19589
G1 X8.615 Y20.13 E23.2068
G1 X8.532 Y20.535 E23.21769
G1 X8.47 Y20.945 E23.22861
G1 X8.432 Y21.357 E23.23951
G1 X8.419 Y21.772 E23.25044
G1 X8.428 Y22.187 E23.26137
G1 X8.463 Y22.599 E23.27226
G1 X8.52 Y23.008 E23.28314
G1 X8.601 Y23.416 E23.29409
G1 X8.706 Y23.817 E23.30501
G1 X8.832 Y24.211 E23.3159
G1 X8.982 Y24.597 E23.32681
G1 X9.153 Y24.974 E23.33771
G1 X9.345 Y25.34 E23.34859
G1 X9.559 Y25.696 E23.35953
G1 X9.794 Y26.038 E23.37046
G1 X10.047 Y26.367 E23.38139
G1 X10.318 Y26.679 E23.39227
G1 X10.606 Y26.976 E23.40317
G1 X10.91 Y27.256 E23.41405
G1 X11.232 Y27.519 E23.425
G1 X11.568 Y27.761 E23.4359
G1 X11.916 Y27.985 E23.4468
G1 X12.279 Y28.188 E23.45776
G1 X12.65 Y28.37 E23.46864
G1 X13.032 Y28.53 E23.47955
G1 X13.422 Y28.668 E23.49044
G1 X13.821 Y28.784 E23.50138
G1 X14.226 Y28.876 E23.51232
G1 X14.636 Y28.945 E23.52327
G1 X15 Y28.981 E23.5329
G1 X16.215 Y29.88 E23.5727
G1 X16.01 Y29.894 E23.57812
G1 X15.615 Y29.904 E23.58852
G1 X15.217 Y29.892 E23.59901
G1 X14.822 Y29.863 E23.60944
G1 X14.45 Y29.817 E23.61931
G1 X14.044 Y29.746 E23.63016
G1 X13.653 Y29.658 E23.64072
G1 X13.287 Y29.558 E23.65071
G1 X12.907 Y29.433 E23.66124
G1 X12.524 Y29.286 E23.67205
G1 X12.191 Y29.139 E23.68163
G1 X11.831 Y28.958 E23.69224
G1 X11.483 Y28.763 E23.70275
G1 X11.156 Y28.557 E23.71293
G1 X10.834 Y28.332 E23.72327
G1 X10.515 Y28.086 E23.73388
G1 X10.216 Y27.83 E23.74425
G1 X9.926 Y27.556 E23.75475
G1 X9.646 Y27.266 E23.76537
G1 X9.394 Y26.976 E23.77549
G1 X9.168 Y26.689 E23.78511
G1 X8.916 Y26.338 E23.79649
G1 X8.712 Y26.02 E23.80644
G1 X8.514 Y25.676 E23.81689
G1 X8.329 Y25.315 E23.82757
G1 X8.182 Y24.99 E23.83696
G1 X8.022 Y24.588 E23.84836
G1 X7.896 Y24.217 E23.85868
G1 X7.795 Y23.866 E23.8683
G1 X7.703 Y23.478 E23.8788
G1 X7.63 Y23.082 E23.8894
G1 X7.577 Y22.691 E23.89979
G1 X7.544 Y22.306 E23.90997
G1 X7.529 Y21.891 E23.9209
G1 X7.534 Y21.497 E23.93128
G1 X7.556 Y21.132 E23.94091
G1 X7.599 Y20.737 E23.95137
G1 X7.662 Y20.338 E23.96201
G1 X7.741 Y19.962 E23.97213
G1 X7.842 Y19.572 E23.98274
G1 X7.96 Y19.196 E23.99312
G1 X8.094 Y18.831 E24.00336
G1 X8.199 Y18.576 E24.01062
G1 X8.382 Y18.184 E24.02201
G1 X8.547 Y17.87 E24.03135
G1 X8.755 Y17.518 E24.04212
G1 X8.971 Y17.19 E24.05246
G1 X9.211 Y16.862 E24.06317
G1 X9.449 Y16.567 E24.07315
G1 X9.722 Y16.261 E24.08395
G1 X9.978 Y16 E24.09358
G1 X10.286 Y15.716 E24.10461
G1 X10.581 Y15.469 E24.11474
G1 X10.898 Y15.229 E24.12521
G1 X11.219 Y15.01 E24.13545
G1 X11.564 Y14.798 E24.14611
G1 X11.911 Y14.608 E24.15653
G1 X12.256 Y14.439 E24.16664
G1 X12.626 Y14.282 E24.17723
G1 X12.989 Y14.147 E24.18743
G1 X13.382 Y14.022 E24.19829
G1 X13.753 Y13.924 E24.20839
