;Generated by Cura LulzBot Edition GCodeWriter Version: 2.6.66
;FLAVOR:RepRap
;TIME:10992
;Filament used: 9.11977m
;Layer height: 0.38
;Generated with Cura_SteamEngine 2.6.66
;This G-Code has been generated specifically for the LulzBot Mini with Aerostruder
G26 ; clear potential 'probe fail' condition
G21 ; set units to Millimetres
M107 ; disable fans
G90 ; absolute positioning
M82 ; set extruder to absolute mode
G92 E0 ; set extruder position to 0
M140 S115 ; start bed heating up
G28 ; home all axes
G0 X0 Y187 Z156 F200 ; move away from endstops
M109 R170 ; soften filament before retraction
G1 E-15 F75 ; retract filament
M109 R170 ; wait for extruder to reach wiping temp
G1 X45 Y173 F11520 ; move above wiper pad
G1 Z0 F1200 ; push nozzle into wiper
G1 X42 Y173 Z-.5 F4000 ; wiping
G1 X52 Y171 Z-.5 F4000 ; wiping
G1 X42 Y173 Z0 F4000 ; wiping
G1 X52 Y171 F4000 ; wiping
G1 X42 Y173 F4000 ; wiping
G1 X52 Y171 F4000 ; wiping
G1 X42 Y173 F4000 ; wiping
G1 X52 Y171 F4000 ; wiping
G1 X57 Y173 F4000 ; wiping
G1 X77 Y171 F4000 ; wiping
G1 X57 Y173 F4000 ; wiping
G1 X77 Y171 F4000 ; wiping
G1 X57 Y173 F4000 ; wiping
G1 X87 Y171 F4000 ; wiping
G1 X77 Y173 F4000 ; wiping
G1 X97 Y171 F4000 ; wiping
G1 X77 Y173 F4000 ; wiping
G1 X97 Y171 F4000 ; wiping
G1 X77 Y173 F4000 ; wiping
G1 X97 Y171 F4000 ; wiping
G1 X107 Y173 F4000 ; wiping
G1 X97 Y171 F4000 ; wiping
G1 X107 Y173 F4000 ; wiping
G1 X97 Y171 F4000 ; wiping
G1 X107 Y173 F4000 ; wiping
G1 X112 Y171 Z-0.5 F1000 ; wiping
G1 Z10 ; raise extruder
G28 X0 Y0 ; home X and Y
G0 X0 Y187 F200 ; move away from endstops
M109 R170 ; wait for extruder to reach probe temp
M204 S300 ; set probing acceleration
G29 ; start auto-leveling sequence
M204 S2000 ; restore standard acceleration
G28 X0 Y0 ; re-home to account for build variance of earlier mini builds
G0 X0 Y187 F200 ; move away from endstops
G0 Y152 F4000 ; move in front of wiper pad
G4 S1 ; pause
M400 ; wait for moves to finish
M117 Heating... ; progress indicator message on LCD
M109 R245 ; wait for extruder to reach printing temp
M190 S116 ; wait for bed to reach printing temp
G1 Z2 E0 F75 ; prime tiny bit of filament into the nozzle
M117 Mini Printing... ; progress indicator message on LCD


M221 S100
;LAYER_COUNT:171
;LAYER:0
M107
M204 S1000
M205 X10
G0 F2250 X16.245 Y54.73 Z0.42
;TYPE:SKIRT
G1 F900 X20.184 Y53.498 E0.16303
G1 X25.333 Y51.618 E0.37956
G1 X27.831 Y50.586 E0.48633
G1 X32.821 Y48.267 E0.70369
G1 X37.639 Y45.688 E0.91956
G1 X42.317 Y42.832 E1.13607
G1 X46.81 Y39.727 E1.35181
G1 X51.138 Y36.36 E1.56842
G1 X53.2 Y34.611 E1.67523
G1 X57.753 Y30.387 E1.92056
G1 X58.242 Y30.011 E1.94493
G1 X76.563 Y18.509 E2.79945
G1 X77.018 Y18.271 E2.81973
G1 X77.504 Y18.106 E2.84001
G1 X78.01 Y18.018 E2.8603
G1 X78.317 Y18.004 E2.87244
G1 X122.513 Y17.997 E4.61827
G1 X122.65 Y18 E4.62369
G1 X125.53 Y18.119 E4.73755
G1 X125.89 Y18.153 E4.75183
G1 X127.187 Y18.35 E4.80366
G1 X127.438 Y18.399 E4.81376
G1 X128.72 Y18.697 E4.86575
G1 X128.975 Y18.767 E4.8762
G1 X130.29 Y19.186 E4.93072
G1 X130.541 Y19.277 E4.94126
G1 X131.835 Y19.808 E4.99651
G1 X132.071 Y19.916 E5.00677
G1 X133.224 Y20.499 E5.0578
G1 X133.506 Y20.659 E5.07061
G1 X135.253 Y21.77 E5.15239
G1 X135.541 Y21.976 E5.16638
G1 X136.727 Y22.923 E5.22633
G1 X137.015 Y23.182 E5.24163
G1 X138.769 Y24.956 E5.34018
G1 X139.092 Y25.337 E5.35991
G1 X140.642 Y27.471 E5.4641
G1 X140.85 Y27.796 E5.47934
G1 X141.505 Y28.964 E5.53224
G1 X141.65 Y29.254 E5.54505
G1 X142.437 Y31.051 E5.62254
G1 X142.583 Y31.455 E5.63951
G1 X143.28 Y33.857 E5.73831
G1 X143.379 Y34.317 E5.7569
G1 X143.709 Y36.659 E5.85032
G1 X143.741 Y37.117 E5.86846
G1 X143.781 Y91.286 E8.00825
G1 X143.754 Y91.713 E8.02516
G1 X143.589 Y92.985 E8.07582
G1 X143.483 Y93.487 E8.09609
G1 X143.371 Y93.807 E8.10948
G1 X142.877 Y95.017 E8.16111
G1 X142.647 Y95.476 E8.18139
G1 X142.449 Y95.767 E8.19529
G1 X141.659 Y96.806 E8.24685
G1 X141.317 Y97.19 E8.26717
G1 X141.051 Y97.419 E8.28103
G1 X140.026 Y98.212 E8.33222
G1 X139.597 Y98.494 E8.3525
G1 X139.282 Y98.646 E8.36632
G1 X138.045 Y99.164 E8.4193
G1 X137.755 Y99.27 E8.43149
G1 X133.816 Y100.502 E8.59453
G1 X128.667 Y102.382 E8.81106
G1 X126.169 Y103.414 E8.91782
G1 X121.179 Y105.733 E9.13518
G1 X116.361 Y108.312 E9.35106
G1 X111.683 Y111.168 E9.56756
G1 X107.19 Y114.273 E9.78331
G1 X102.862 Y117.64 E9.99991
G1 X100.8 Y119.389 E10.10672
G1 X96.247 Y123.613 E10.35206
G1 X95.758 Y123.989 E10.37642
G1 X77.438 Y135.491 E11.23091
G1 X76.983 Y135.729 E11.25119
G1 X76.497 Y135.894 E11.27147
G1 X75.991 Y135.982 E11.29176
G1 X75.684 Y135.996 E11.3039
G1 X31.487 Y136.003 E13.04977
G1 X31.35 Y136 E13.05519
G1 X28.47 Y135.881 E13.16905
G1 X28.11 Y135.847 E13.18333
G1 X26.813 Y135.65 E13.23516
G1 X26.562 Y135.601 E13.24526
G1 X25.28 Y135.303 E13.29725
G1 X25.026 Y135.233 E13.30766
G1 X23.71 Y134.814 E13.36221
G1 X23.457 Y134.723 E13.37283
G1 X22.164 Y134.192 E13.42805
G1 X21.928 Y134.083 E13.43832
G1 X20.776 Y133.5 E13.48932
G1 X20.494 Y133.34 E13.50213
G1 X18.745 Y132.227 E13.58402
G1 X18.459 Y132.023 E13.5979
G1 X17.274 Y131.078 E13.65777
G1 X16.985 Y130.818 E13.67313
G1 X15.23 Y129.043 E13.77173
G1 X14.971 Y128.747 E13.78727
G1 X14.033 Y127.539 E13.84768
G1 X13.875 Y127.318 E13.85841
G1 X13.172 Y126.24 E13.90925
G1 X13.042 Y126.022 E13.91928
G1 X12.404 Y124.857 E13.97175
G1 X12.243 Y124.52 E13.9865
G1 X11.297 Y122.205 E14.08529
G1 X11.175 Y121.851 E14.10008
G1 X10.804 Y120.533 E14.15417
G1 X10.731 Y120.213 E14.16713
G1 X10.393 Y118.301 E14.24383
G1 X10.346 Y117.874 E14.2608
G1 X10.212 Y114.865 E14.37978
G1 X10.209 Y114.716 E14.38567
G1 X10.242 Y62.463 E16.44977
G1 X10.273 Y62.012 E16.46763
G1 X10.415 Y60.987 E16.50851
G1 X10.525 Y60.486 E16.52877
G1 X10.629 Y60.193 E16.54105
G1 X11.123 Y58.983 E16.59268
G1 X11.353 Y58.524 E16.61296
G1 X11.551 Y58.233 E16.62686
G1 X12.341 Y57.194 E16.67842
G1 X12.683 Y56.81 E16.69874
G1 X12.949 Y56.581 E16.7126
G1 X13.974 Y55.788 E16.76379
G1 X14.403 Y55.506 E16.78407
G1 X14.718 Y55.354 E16.79789
G1 X15.955 Y54.836 E16.85086
G1 X16.245 Y54.73 E16.86306
G1 F420 E15.36306
G0 F2250 X16.851 Y57.306
G0 X17.449 Y58.751
;TYPE:WALL-INNER
G1 F420 E16.86306
G1 F900 X18.566 Y58.603 E16.90757
G1 X62.536 Y58.603 E18.64448
G1 X90.035 Y98.603 E20.56194
G1 X93.109 Y98.603 E20.68337
G1 X93.109 Y120.705 E21.55645
G1 X75.498 Y131.803 E22.37873
G1 X30.545 Y131.803 E24.15447
G1 X29.238 Y131.752 E24.20614
G1 X27.979 Y131.603 E24.25622
G1 X26.761 Y131.361 E24.30528
G1 X25.527 Y131.012 E24.35593
G1 X24.356 Y130.581 E24.40523
G1 X23.197 Y130.046 E24.45565
G1 X22.105 Y129.434 E24.5051
G1 X21.041 Y128.724 E24.55563
G1 X20.054 Y127.946 E24.60527
G1 X19.125 Y127.087 E24.65525
G1 X18.266 Y126.158 E24.70524
G1 X17.48 Y125.161 E24.75539
G1 X16.789 Y124.127 E24.80451
G1 X16.157 Y122.998 E24.85562
G1 X15.635 Y121.865 E24.9049
G1 X15.201 Y120.689 E24.95442
G1 X14.851 Y119.445 E25.00547
G1 X14.609 Y118.231 E25.05437
G1 X14.461 Y116.974 E25.10436
G1 X14.409 Y115.679 E25.15556
G1 X14.409 Y62.759 E27.24601
G1 X14.556 Y61.643 E27.29048
G1 X14.962 Y60.661 E27.33245
G1 X15.618 Y59.808 E27.37496
G1 X16.465 Y59.158 E27.41714
G1 X17.449 Y58.751 E27.4592
G1 F420 E25.9592
G0 F2250 X16.851 Y57.306
G0 X16.85 Y57.305
G0 X16.862 Y57.384
G0 X19.143 Y73.029
G0 X19.154 Y73.108
G0 X19.153 Y73.097
G0 X17.6 Y71.544
G1 F420 E27.4592
G1 F900 X17.599 Y83.813 E27.94385
G1 X16.827 Y83.813 E27.97435
G1 X16.827 Y93.613 E28.36147
G1 X17.599 Y93.613 E28.39197
G1 X17.6 Y115.862 E29.27085
G1 X29.369 Y115.863 E29.73575
G1 X29.369 Y123.339 E30.03107
G1 X47.349 Y123.34 E30.74132
G1 X47.649 Y123.34 E30.75317
G1 X47.649 Y123.04 E30.76083
G1 X47.649 Y115.863 E31.04434
G1 X59.418 Y115.862 E31.50924
G1 X59.419 Y93.613 E32.38812
G1 X60.191 Y93.613 E32.41862
G1 X60.192 Y84.113 E32.79389
G1 X60.192 Y83.813 E32.80574
G1 X59.892 Y83.813 E32.8134
G1 X59.419 Y83.813 E32.83209
G1 X59.418 Y71.544 E33.31674
G1 X45.649 Y71.543 E33.86065
G1 X45.649 Y70.853 E33.8879
G1 X31.669 Y70.852 E34.44014
G1 X31.369 Y70.852 E34.45199
G1 X31.369 Y71.152 E34.45966
G1 X31.369 Y71.543 E34.4751
G1 X17.6 Y71.544 E35.01901
G1 F420 E33.51901
G0 F2250 X19.153 Y73.097
G0 X57.866 Y85.366
G0 X58.639 Y85.366
G0 X59.592 Y84.413
;TYPE:WALL-OUTER
G1 F420 E35.01901
G1 F900 X59.292 Y84.413 E35.03086
G1 X58.819 Y84.413 E35.04954
G1 X58.818 Y72.144 E35.53419
G1 X45.049 Y72.143 E36.0781
G1 X45.049 Y71.453 E36.10536
G1 X32.269 Y71.452 E36.61019
G1 X31.969 Y71.452 E36.62205
G1 X31.969 Y71.752 E36.62971
G1 X31.969 Y72.143 E36.64515
G1 X18.2 Y72.144 E37.18906
G1 X18.199 Y84.413 E37.67371
G1 X17.427 Y84.413 E37.70421
G1 X17.427 Y93.013 E38.04393
G1 X18.199 Y93.013 E38.07442
G1 X18.2 Y115.262 E38.95331
G1 X29.969 Y115.263 E39.41821
G1 X29.969 Y122.739 E39.71352
G1 X46.749 Y122.74 E40.37637
G1 X47.049 Y122.74 E40.38822
G1 X47.049 Y122.44 E40.39588
G1 X47.049 Y115.263 E40.67939
G1 X58.818 Y115.262 E41.14429
G1 X58.819 Y93.013 E42.02318
G1 X59.591 Y93.013 E42.05367
G1 X59.592 Y84.713 E42.38154
G1 X59.592 Y84.413 E42.3892
G0 F2250 X59.342 Y84.413
G1 F420 E40.8892
G0 F2250 X58.639 Y85.366
G0 X58.63 Y85.362
G0 X58.705 Y85.389
G0 X90.761 Y97.008
G0 X90.836 Y97.035
G0 X90.856 Y97.043
G0 X90.351 Y98.003
G1 F420 E42.3892
G1 F900 X93.709 Y98.003 E42.52185
G1 X93.709 Y121.037 E43.43174
G1 X75.672 Y132.403 E44.27391
G1 X30.521 Y132.403 E46.05747
G1 X29.196 Y132.351 E46.10985
G1 X27.892 Y132.197 E46.16172
G1 X26.62 Y131.944 E46.21295
G1 X25.338 Y131.582 E46.26557
G1 X24.119 Y131.133 E46.31689
G1 X22.935 Y130.586 E46.36841
G1 X21.787 Y129.943 E46.42039
G1 X20.692 Y129.212 E46.4724
G1 X19.659 Y128.398 E46.52435
G1 X18.7 Y127.512 E46.57592
G1 X17.814 Y126.553 E46.6275
G1 X16.992 Y125.51 E46.67996
G1 X16.274 Y124.436 E46.73099
G1 X15.624 Y123.274 E46.78358
G1 X15.079 Y122.093 E46.83496
G1 X14.628 Y120.87 E46.88646
G1 X14.27 Y119.598 E46.93866
G1 X14.015 Y118.318 E46.99021
G1 X13.862 Y117.016 E47.042
G1 X13.809 Y115.703 E47.09391
G1 X13.809 Y62.719 E49.18689
G1 X13.971 Y61.489 E49.2359
G1 X14.44 Y60.355 E49.28437
G1 X15.188 Y59.382 E49.33285
G1 X16.161 Y58.635 E49.38131
G1 X17.295 Y58.166 E49.42978
G1 X18.525 Y58.003 E49.4788
G1 X62.851 Y58.003 E51.22977
G1 X90.351 Y98.003 E53.14725
G0 F2250 X90.601 Y98.003
G0 X89.568 Y98.4
;TYPE:SKIN
G1 F900 X59.688 Y98.4 E54.32758
G1 X59.538 Y98.4
G0 F2250 X59.688 Y97.8
G1 F900 X89.156 Y97.8 E55.49163
G1 X89.306 Y97.8
G0 F2250 X88.743 Y97.2
G1 F900 X59.688 Y97.2 E56.63936
G1 X59.538 Y97.2
G0 F2250 X59.688 Y96.6
G1 F900 X88.331 Y96.6 E57.77082
G1 X88.481 Y96.6
G0 F2250 X87.918 Y96
G1 F900 X59.688 Y96 E58.88597
G1 X59.538 Y96
G0 F2250 X59.688 Y95.4
G1 F900 X87.506 Y95.4 E59.98484
G1 X87.656 Y95.4
G0 F2250 X87.093 Y94.8
G1 F900 X59.688 Y94.8 E61.0674
G1 X59.538 Y94.8
G0 F2250 X59.688 Y94.2
G1 F900 X86.681 Y94.2 E62.13368
G1 X86.831 Y94.2
G0 F2250 X86.269 Y93.6
G1 F900 X60.461 Y93.6 E63.15315
G1 X60.311 Y93.6
G0 F2250 X60.461 Y93
G1 F900 X85.856 Y93 E64.15631
G1 X86.006 Y93
G0 F2250 X85.444 Y92.4
G1 F900 X60.461 Y92.4 E65.14319
G1 X60.311 Y92.4
G0 F2250 X60.461 Y91.8
G1 F900 X85.031 Y91.8 E66.11376
G1 X85.181 Y91.8
G0 F2250 X84.619 Y91.2
G1 F900 X60.461 Y91.2 E67.06805
G1 X60.311 Y91.2
G0 F2250 X60.461 Y90.6
G1 F900 X84.206 Y90.6 E68.00603
G1 X84.356 Y90.6
G0 F2250 X83.794 Y90
G1 F900 X60.461 Y90 E68.92774
G1 X60.311 Y90
G0 F2250 X60.461 Y89.4
G1 F900 X83.381 Y89.4 E69.83313
G1 X83.531 Y89.4
G0 F2250 X82.969 Y88.8
G1 F900 X60.461 Y88.8 E70.72224
G1 X60.311 Y88.8
G0 F2250 X60.461 Y88.2
G1 F900 X82.556 Y88.2 E71.59504
G1 X82.706 Y88.2
G0 F2250 X82.144 Y87.6
G1 F900 X60.461 Y87.6 E72.45157
G1 X60.311 Y87.6
G0 F2250 X60.461 Y87
G1 F900 X81.731 Y87 E73.29178
G1 X81.881 Y87
G0 F2250 X81.319 Y86.4
G1 F900 X60.461 Y86.4 E74.11572
G1 X60.311 Y86.4
G0 F2250 X60.461 Y85.8
G1 F900 X80.906 Y85.8 E74.92334
G1 X81.056 Y85.8
G0 F2250 X80.494 Y85.2
G1 F900 X60.461 Y85.2 E75.71468
G1 X60.311 Y85.2
G0 F2250 X60.461 Y84.6
G1 F900 X80.081 Y84.6 E76.48972
G1 X80.231 Y84.6
G0 F2250 X79.669 Y84
G1 F900 X60.461 Y84 E77.24847
G1 X60.311 Y84
G0 F2250 X59.687 Y83.4
G1 F900 X79.256 Y83.4 E78.02149
G1 X79.406 Y83.4
G0 F2250 X78.844 Y82.8
G1 F900 X59.687 Y82.8 E78.77823
G1 X59.537 Y82.8
G0 F2250 X59.687 Y82.2
G1 F900 X78.432 Y82.2 E79.5187
G1 X78.582 Y82.2
G0 F2250 X78.019 Y81.6
G1 F900 X59.687 Y81.6 E80.24286
G1 X59.537 Y81.6
G0 F2250 X59.687 Y81
G1 F900 X77.607 Y81 E80.95074
G1 X77.757 Y81
G0 F2250 X77.194 Y80.4
G1 F900 X59.687 Y80.4 E81.6423
G1 X59.537 Y80.4
G0 F2250 X59.687 Y79.8
G1 F900 X76.782 Y79.8 E82.31759
G1 X76.932 Y79.8
G0 F2250 X76.369 Y79.2
G1 F900 X59.687 Y79.2 E82.97656
G1 X59.537 Y79.2
G0 F2250 X59.687 Y78.6
G1 F900 X75.957 Y78.6 E83.61927
G1 X76.107 Y78.6
G0 F2250 X75.544 Y78
G1 F900 X59.687 Y78 E84.24565
G1 X59.537 Y78
G0 F2250 X59.687 Y77.4
G1 F900 X75.132 Y77.4 E84.85576
G1 X75.282 Y77.4
G0 F2250 X74.719 Y76.8
G1 F900 X59.687 Y76.8 E85.44956
G1 X59.537 Y76.8
G0 F2250 X59.687 Y76.2
G1 F900 X74.307 Y76.2 E86.02708
G1 X74.457 Y76.2
G0 F2250 X73.894 Y75.6
G1 F900 X59.687 Y75.6 E86.58829
G1 X59.537 Y75.6
G0 F2250 X59.687 Y75
G1 F900 X73.482 Y75 E87.13322
G1 X73.632 Y75
G0 F2250 X73.069 Y74.4
G1 F900 X59.687 Y74.4 E87.66184
G1 X59.537 Y74.4
G0 F2250 X59.687 Y73.8
G1 F900 X72.657 Y73.8 E88.17418
G1 X72.807 Y73.8
G0 F2250 X72.244 Y73.2
G1 F900 X59.687 Y73.2 E88.67021
G1 X59.537 Y73.2
G0 F2250 X59.687 Y72.6
G1 F900 X71.832 Y72.6 E89.14996
G1 X71.982 Y72.6
G0 F2250 X71.419 Y72
G1 F900 X59.687 Y72 E89.6134
G1 X59.537 Y72
G0 F2250 X59.687 Y71.4
G1 F900 X71.007 Y71.4 E90.06057
G1 X71.157 Y71.4
G0 F2250 X70.594 Y70.8
G1 F900 X45.918 Y70.8 E91.03532
G1 X45.768 Y70.8
G1 F420 E89.53532
G0 F2250 X44.096 Y72.406
G0 X32.922 Y72.405
G0 X31.098 Y70.8
G1 F420 E91.03532
G1 F900 X14.678 Y70.8 E91.68395
G1 X14.528 Y70.8
G0 F2250 X14.678 Y70.2
G1 F900 X70.182 Y70.2 E93.87648
G1 X70.332 Y70.2
G0 F2250 X69.77 Y69.6
G1 F900 X14.678 Y69.6 E96.05273
G1 X14.528 Y69.6
G0 F2250 X14.678 Y69
G1 F900 X69.357 Y69 E98.21267
G1 X69.507 Y69
G0 F2250 X68.945 Y68.4
G1 F900 X14.678 Y68.4 E100.35633
G1 X14.528 Y68.4
G0 F2250 X14.678 Y67.8
G1 F900 X68.532 Y67.8 E102.48368
G1 X68.682 Y67.8
G0 F2250 X68.12 Y67.2
G1 F900 X14.678 Y67.2 E104.59476
G1 X14.528 Y67.2
G0 F2250 X14.678 Y66.6
G1 F900 X67.707 Y66.6 E106.68952
G1 X67.857 Y66.6
G0 F2250 X67.295 Y66
G1 F900 X14.678 Y66 E108.768
G1 X14.528 Y66
G0 F2250 X14.678 Y65.4
G1 F900 X66.882 Y65.4 E110.83018
G1 X67.032 Y65.4
G0 F2250 X66.47 Y64.8
G1 F900 X14.678 Y64.8 E112.87607
G1 X14.528 Y64.8
G0 F2250 X14.678 Y64.2
G1 F900 X66.057 Y64.2 E114.90565
G1 X66.207 Y64.2
G0 F2250 X65.645 Y63.6
G1 F900 X14.678 Y63.6 E116.91896
G1 X14.528 Y63.6
G0 F2250 X14.678 Y63
G1 F900 X65.231 Y63 E118.91591
G1 X65.381 Y63
G0 F2250 X64.819 Y62.4
G1 F900 X14.728 Y62.4 E120.89462
G1 X14.578 Y62.4
G0 F2250 X14.807 Y61.8
G1 F900 X64.406 Y61.8 E122.85389
G1 X64.556 Y61.8
G0 F2250 X63.994 Y61.2
G1 F900 X15.031 Y61.2 E124.78803
G1 X14.881 Y61.2
G0 F2250 X15.35 Y60.6
G1 F900 X63.581 Y60.6 E126.69326
G1 X63.731 Y60.6
G0 F2250 X63.169 Y60
G1 F900 X15.812 Y60 E128.56396
G1 X15.662 Y60
G0 F2250 X16.594 Y59.4
G1 F900 X62.757 Y59.4 E130.3875
G1 X62.907 Y59.4
G1 F420 E128.8875
G0 F2250 X62.907 Y57.038
G0 X62.906 Y57.037
G0 X62.897 Y57.116
G0 X57.898 Y98.624
G0 X57.888 Y98.704
G0 X57.853 Y99
G0 X59.688 Y99
G1 F420 E130.3875
G1 F900 X92.839 Y99 E131.69704
G1 X92.989 Y99
G0 F2250 X92.839 Y99.6
G1 F900 X59.688 Y99.6 E133.00658
G1 X59.538 Y99.6
G0 F2250 X59.688 Y100.2
G1 F900 X92.839 Y100.2 E134.31611
G1 X92.989 Y100.2
G0 F2250 X92.839 Y100.8
G1 F900 X59.688 Y100.8 E135.62565
G1 X59.538 Y100.8
G0 F2250 X59.688 Y101.4
G1 F900 X92.839 Y101.4 E136.93518
G1 X92.989 Y101.4
G0 F2250 X92.839 Y102
G1 F900 X59.688 Y102 E138.24472
G1 X59.538 Y102
G0 F2250 X59.688 Y102.6
G1 F900 X92.839 Y102.6 E139.55426
G1 X92.989 Y102.6
G0 F2250 X92.839 Y103.2
G1 F900 X59.688 Y103.2 E140.86379
G1 X59.538 Y103.2
G0 F2250 X59.688 Y103.8
G1 F900 X92.839 Y103.8 E142.17333
G1 X92.989 Y103.8
G0 F2250 X92.839 Y104.4
G1 F900 X59.688 Y104.4 E143.48287
G1 X59.538 Y104.4
G0 F2250 X59.688 Y105
G1 F900 X92.839 Y105 E144.7924
G1 X92.989 Y105
G0 F2250 X92.839 Y105.6
G1 F900 X59.688 Y105.6 E146.10194
G1 X59.538 Y105.6
G0 F2250 X59.688 Y106.2
