;Generated by Cura LulzBot Edition GCodeWriter Version: 2.6.66
;FLAVOR:RepRap
;TIME:10741
;Filament used: 8.57494m
;Layer height: 0.38
;Generated with Cura_SteamEngine 2.6.66
;This G-Code has been generated specifically for the LulzBot Mini with Aerostruder
G26 ; clear potential 'probe fail' condition
G21 ; set units to Millimetres
M107 ; disable fans
G90 ; absolute positioning
M82 ; set extruder to absolute mode
G92 E0 ; set extruder position to 0
M140 S115 ; start bed heating up
G28 ; home all axes
G0 X0 Y187 Z156 F200 ; move away from endstops
M109 R170 ; soften filament before retraction
G1 E-15 F75 ; retract filament
M109 R170 ; wait for extruder to reach wiping temp
G1 X45 Y173 F11520 ; move above wiper pad
G1 Z0 F1200 ; push nozzle into wiper
G1 X42 Y173 Z-.5 F4000 ; wiping
G1 X52 Y171 Z-.5 F4000 ; wiping
G1 X42 Y173 Z0 F4000 ; wiping
G1 X52 Y171 F4000 ; wiping
G1 X42 Y173 F4000 ; wiping
G1 X52 Y171 F4000 ; wiping
G1 X42 Y173 F4000 ; wiping
G1 X52 Y171 F4000 ; wiping
G1 X57 Y173 F4000 ; wiping
G1 X77 Y171 F4000 ; wiping
G1 X57 Y173 F4000 ; wiping
G1 X77 Y171 F4000 ; wiping
G1 X57 Y173 F4000 ; wiping
G1 X87 Y171 F4000 ; wiping
G1 X77 Y173 F4000 ; wiping
G1 X97 Y171 F4000 ; wiping
G1 X77 Y173 F4000 ; wiping
G1 X97 Y171 F4000 ; wiping
G1 X77 Y173 F4000 ; wiping
G1 X97 Y171 F4000 ; wiping
G1 X107 Y173 F4000 ; wiping
G1 X97 Y171 F4000 ; wiping
G1 X107 Y173 F4000 ; wiping
G1 X97 Y171 F4000 ; wiping
G1 X107 Y173 F4000 ; wiping
G1 X112 Y171 Z-0.5 F1000 ; wiping
G1 Z10 ; raise extruder
G28 X0 Y0 ; home X and Y
G0 X0 Y187 F200 ; move away from endstops
M109 R170 ; wait for extruder to reach probe temp
M204 S300 ; set probing acceleration
G29 ; start auto-leveling sequence
M204 S2000 ; restore standard acceleration
G28 X0 Y0 ; re-home to account for build variance of earlier mini builds
G0 X0 Y187 F200 ; move away from endstops
G0 Y152 F4000 ; move in front of wiper pad
G4 S1 ; pause
M400 ; wait for moves to finish
M117 Heating... ; progress indicator message on LCD
M109 R245 ; wait for extruder to reach printing temp
M190 S116 ; wait for bed to reach printing temp
G1 Z2 E0 F75 ; prime tiny bit of filament into the nozzle
M117 Mini Printing... ; progress indicator message on LCD


M221 S100
;LAYER_COUNT:171
;LAYER:0
M107
M204 S1000
M205 X10
G0 F2250 X20.683 Y53.903 Z0.42
;TYPE:SKIRT
G1 F900 X25.776 Y51.867 E0.21666
G1 X30.725 Y49.556 E0.43243
G1 X35.541 Y46.965 E0.64845
G1 X40.225 Y44.094 E0.86547
G1 X44.7 Y40.989 E1.08063
G1 X49.013 Y37.62 E1.29682
G1 X53.136 Y34.007 E1.51337
G1 X57.34 Y29.874 E1.74625
G1 X57.895 Y29.434 E1.77423
G1 X76.177 Y17.927 E2.62755
G1 X76.632 Y17.688 E2.64785
G1 X77.118 Y17.523 E2.66813
G1 X77.623 Y17.435 E2.68838
G1 X77.937 Y17.42 E2.70079
G1 X123.993 Y17.447 E4.52011
G1 X124.389 Y17.471 E4.53578
G1 X126.839 Y17.769 E4.63327
G1 X127.326 Y17.866 E4.65289
G1 X129.827 Y18.562 E4.75544
G1 X130.19 Y18.686 E4.77059
G1 X131.463 Y19.206 E4.82491
G1 X131.809 Y19.371 E4.84005
G1 X134.045 Y20.604 E4.94092
G1 X134.374 Y20.812 E4.95629
G1 X135.566 Y21.667 E5.01424
G1 X135.868 Y21.912 E5.0296
G1 X137.744 Y23.625 E5.12995
G1 X137.979 Y23.862 E5.14314
G1 X138.615 Y24.573 E5.18082
G1 X138.786 Y24.781 E5.19146
G1 X139.817 Y26.143 E5.25894
G1 X139.986 Y26.389 E5.27073
G1 X140.725 Y27.574 E5.32589
G1 X140.856 Y27.804 E5.33635
G1 X141.463 Y28.978 E5.38856
G1 X141.573 Y29.213 E5.39881
G1 X142.119 Y30.509 E5.45436
G1 X142.247 Y30.87 E5.46949
G1 X142.944 Y33.272 E5.56829
G1 X143.043 Y33.732 E5.58687
G1 X143.373 Y36.074 E5.6803
G1 X143.405 Y36.532 E5.69844
G1 X143.445 Y90.701 E7.83823
G1 X143.418 Y91.128 E7.85513
G1 X143.253 Y92.4 E7.9058
G1 X143.147 Y92.902 E7.92607
G1 X143.035 Y93.222 E7.93946
G1 X142.541 Y94.432 E7.99109
G1 X142.311 Y94.891 E8.01137
G1 X142.113 Y95.182 E8.02527
G1 X141.323 Y96.221 E8.07683
G1 X140.981 Y96.605 E8.09714
G1 X140.715 Y96.834 E8.11101
G1 X139.69 Y97.627 E8.1622
G1 X139.261 Y97.909 E8.18248
G1 X138.951 Y98.059 E8.19608
G1 X137.741 Y98.568 E8.24794
G1 X137.535 Y98.646 E8.25664
G1 X133.317 Y100.097 E8.43284
G1 X128.224 Y102.133 E8.64951
G1 X123.275 Y104.444 E8.86527
G1 X118.459 Y107.035 E9.0813
G1 X113.775 Y109.906 E9.29832
G1 X109.3 Y113.011 E9.51347
G1 X104.987 Y116.38 E9.72966
G1 X100.864 Y119.993 E9.94621
G1 X96.66 Y124.126 E10.17909
G1 X96.106 Y124.565 E10.20702
G1 X77.848 Y136.07 E11.05949
G1 X77.394 Y136.309 E11.07976
G1 X76.908 Y136.475 E11.10005
G1 X76.402 Y136.563 E11.12034
G1 X76.09 Y136.578 E11.13268
G1 X31.823 Y136.588 E12.88132
G1 X31.686 Y136.585 E12.88673
G1 X28.806 Y136.466 E13.0006
G1 X28.365 Y136.418 E13.01812
G1 X26.182 Y136.03 E13.1057
G1 X25.833 Y135.948 E13.11986
G1 X24.513 Y135.562 E13.17419
G1 X24.269 Y135.481 E13.18435
G1 X23.037 Y135.014 E13.23639
G1 X22.68 Y134.853 E13.25186
G1 X20.276 Y133.598 E13.35899
G1 X19.944 Y133.399 E13.37428
G1 X18.9 Y132.687 E13.4242
G1 X18.606 Y132.462 E13.43882
G1 X16.663 Y130.789 E13.5401
G1 X16.389 Y130.524 E13.55516
G1 X15.486 Y129.544 E13.6078
G1 X15.307 Y129.332 E13.61876
G1 X14.369 Y128.124 E13.67918
G1 X14.211 Y127.903 E13.68991
G1 X13.508 Y126.825 E13.74075
G1 X13.378 Y126.607 E13.75077
G1 X12.74 Y125.442 E13.80324
G1 X12.579 Y125.105 E13.818
G1 X11.633 Y122.79 E13.91678
G1 X11.511 Y122.436 E13.93158
G1 X11.14 Y121.118 E13.98566
G1 X11.068 Y120.803 E13.99843
G1 X10.734 Y118.93 E14.07358
G1 X10.686 Y118.501 E14.09063
G1 X10.548 Y115.461 E14.21084
G1 X10.545 Y115.309 E14.21685
G1 X10.578 Y63.048 E16.28127
G1 X10.609 Y62.597 E16.29913
G1 X10.751 Y61.572 E16.34001
G1 X10.861 Y61.071 E16.36027
G1 X10.965 Y60.777 E16.37259
G1 X11.46 Y59.565 E16.4243
G1 X11.69 Y59.107 E16.44455
G1 X11.886 Y58.818 E16.45834
G1 X12.67 Y57.785 E16.50957
G1 X13.012 Y57.401 E16.52988
G1 X13.279 Y57.171 E16.5438
G1 X14.307 Y56.375 E16.59516
G1 X14.736 Y56.093 E16.61544
G1 X15.047 Y55.942 E16.6291
G1 X16.259 Y55.432 E16.68104
G1 X16.465 Y55.354 E16.68974
G1 X20.683 Y53.903 E16.86595
G1 F420 E15.36595
G0 F2250 X18.902 Y57.623
G0 X18.902 Y59.188
;TYPE:WALL-INNER
G1 F420 E16.86595
G1 F900 X62.872 Y59.188 E18.60286
G1 X90.371 Y99.188 E20.52032
G1 X93.445 Y99.188 E20.64175
G1 X93.445 Y121.29 E21.51482
G1 X75.834 Y132.388 E22.33711
G1 X30.881 Y132.388 E24.11285
G1 X29.574 Y132.337 E24.16452
G1 X28.315 Y132.188 E24.2146
G1 X27.096 Y131.946 E24.26369
G1 X25.863 Y131.597 E24.31431
G1 X24.693 Y131.166 E24.36356
G1 X23.537 Y130.634 E24.41383
G1 X22.436 Y130.016 E24.46371
G1 X21.377 Y129.309 E24.51401
G1 X20.39 Y128.531 E24.56365
G1 X19.461 Y127.672 E24.61363
G1 X18.602 Y126.743 E24.66361
G1 X17.816 Y125.746 E24.71376
G1 X17.125 Y124.712 E24.76289
G1 X16.493 Y123.583 E24.814
G1 X15.971 Y122.45 E24.86328
G1 X15.537 Y121.274 E24.91279
G1 X15.187 Y120.03 E24.96384
G1 X14.945 Y118.816 E25.01274
G1 X14.796 Y117.559 E25.06274
G1 X14.745 Y116.264 E25.11394
G1 X14.745 Y63.344 E27.20439
G1 X14.892 Y62.23 E27.24878
G1 X15.301 Y61.242 E27.29102
G1 X15.951 Y60.395 E27.3332
G1 X16.8 Y59.743 E27.37548
G1 X17.785 Y59.336 E27.41758
G1 X18.902 Y59.188 E27.46209
G1 F420 E25.96209
G0 F2250 X18.902 Y57.623
G0 X18.901 Y57.623
G0 X18.921 Y57.7
G0 X23.471 Y75.615
G0 X23.491 Y75.693
G0 X23.489 Y75.682
G0 X21.936 Y74.129
G1 F420 E27.46209
G1 F900 X21.935 Y82.898 E27.80849
G1 X21.475 Y82.898 E27.82666
G1 X21.474 Y94.698 E28.29278
G1 X21.935 Y94.698 E28.31099
G1 X21.936 Y114.447 E29.09112
G1 X31.705 Y114.448 E29.47702
G1 X31.705 Y114.908 E29.49519
G1 X45.985 Y114.909 E30.05928
G1 X45.985 Y114.448 E30.07749
G1 X55.754 Y114.447 E30.46339
G1 X55.755 Y94.698 E31.24352
G1 X56.215 Y94.698 E31.26169
G1 X56.216 Y82.898 E31.72781
G1 X55.755 Y82.898 E31.74602
G1 X55.754 Y74.129 E32.09242
G1 X45.985 Y74.128 E32.47831
G1 X45.985 Y73.668 E32.49648
G1 X31.705 Y73.667 E33.06058
G1 X31.705 Y74.128 E33.07879
G1 X21.936 Y74.129 E33.46468
G1 F420 E31.96468
G0 F2250 X23.489 Y75.682
G0 X54.201 Y75.682
G0 X55.154 Y74.729
;TYPE:WALL-OUTER
G1 F420 E33.46468
G1 F900 X45.385 Y74.728 E33.85058
G1 X45.385 Y74.268 E33.86875
G1 X32.305 Y74.267 E34.38544
G1 X32.305 Y74.728 E34.40365
G1 X22.536 Y74.729 E34.78955
G1 X22.535 Y83.498 E35.13594
G1 X22.075 Y83.498 E35.15411
G1 X22.074 Y94.098 E35.57283
G1 X22.535 Y94.098 E35.59105
G1 X22.536 Y113.847 E36.37117
G1 X32.305 Y113.848 E36.75707
G1 X32.305 Y114.308 E36.77524
G1 X45.385 Y114.309 E37.29193
G1 X45.385 Y113.848 E37.31014
G1 X55.154 Y113.847 E37.69604
G1 X55.155 Y94.098 E38.47617
G1 X55.615 Y94.098 E38.49434
G1 X55.616 Y83.498 E38.91306
G1 X55.155 Y83.498 E38.93127
G1 X55.154 Y74.729 E39.27766
G0 F2250 X54.904 Y74.729
G1 F420 E37.77766
G0 F2250 X54.201 Y75.682
G0 X54.196 Y75.688
G0 X54.232 Y75.616
G0 X63.148 Y57.698
G0 X63.184 Y57.626
G0 X63.187 Y57.623
G0 X63.187 Y58.588
G1 F420 E39.27766
G1 F900 X90.687 Y98.588 E41.19515
G1 X94.045 Y98.588 E41.3278
G1 X94.045 Y121.622 E42.23769
G1 X76.008 Y132.988 E43.07985
G1 X30.857 Y132.988 E44.86342
G1 X29.532 Y132.936 E44.9158
G1 X28.228 Y132.782 E44.96767
G1 X26.955 Y132.529 E45.01894
G1 X25.674 Y132.167 E45.07152
G1 X24.461 Y131.72 E45.12259
G1 X23.265 Y131.169 E45.1746
G1 X22.123 Y130.528 E45.22633
G1 X21.028 Y129.797 E45.27834
G1 X19.995 Y128.983 E45.33029
G1 X19.036 Y128.097 E45.38187
G1 X18.15 Y127.138 E45.43345
G1 X17.328 Y126.095 E45.4859
G1 X16.61 Y125.021 E45.53694
G1 X15.96 Y123.859 E45.58953
G1 X15.415 Y122.678 E45.64091
G1 X14.964 Y121.455 E45.6924
G1 X14.606 Y120.183 E45.7446
G1 X14.351 Y118.903 E45.79616
G1 X14.197 Y117.601 E45.84795
G1 X14.145 Y116.288 E45.89986
G1 X14.145 Y63.304 E47.99284
G1 X14.307 Y62.074 E48.04185
G1 X14.777 Y60.94 E48.09034
G1 X15.523 Y59.967 E48.13877
G1 X16.497 Y59.22 E48.18726
G1 X17.631 Y58.751 E48.23573
G1 X18.861 Y58.588 E48.28474
G1 X63.187 Y58.588 E50.03572
G0 F2250 X63.328 Y58.794
G0 X63.103 Y60
;TYPE:SKIN
G1 F900 X16.909 Y60 E51.86048
G1 X16.759 Y60
G0 F2250 X16.134 Y60.6
G1 F900 X63.515 Y60.6 E53.73213
G1 X63.665 Y60.6
G0 F2250 X63.928 Y61.2
G1 F900 X15.674 Y61.2 E55.63827
G1 X15.524 Y61.2
G0 F2250 X15.362 Y61.8
G1 F900 X64.34 Y61.8 E57.57301
G1 X64.49 Y61.8
G0 F2250 X64.753 Y62.4
G1 F900 X15.142 Y62.4 E59.53275
G1 X14.992 Y62.4
G0 F2250 X15.062 Y63
G1 F900 X65.165 Y63 E61.51193
G1 X65.315 Y63
G0 F2250 X65.579 Y63.6
G1 F900 X15.014 Y63.6 E63.50935
G1 X14.864 Y63.6
G0 F2250 X15.014 Y64.2
G1 F900 X65.991 Y64.2 E65.52306
G1 X66.141 Y64.2
G0 F2250 X66.404 Y64.8
G1 F900 X15.014 Y64.8 E67.55307
G1 X14.864 Y64.8
G0 F2250 X15.014 Y65.4
G1 F900 X66.816 Y65.4 E69.59936
G1 X66.966 Y65.4
G0 F2250 X67.229 Y66
G1 F900 X15.014 Y66 E71.66197
G1 X14.864 Y66
G0 F2250 X15.014 Y66.6
G1 F900 X67.641 Y66.6 E73.74085
G1 X67.791 Y66.6
G0 F2250 X68.053 Y67.2
G1 F900 X15.014 Y67.2 E75.83601
G1 X14.864 Y67.2
G0 F2250 X15.014 Y67.8
G1 F900 X68.466 Y67.8 E77.94748
G1 X68.616 Y67.8
G0 F2250 X68.878 Y68.4
G1 F900 X15.014 Y68.4 E80.07522
G1 X14.864 Y68.4
G0 F2250 X15.014 Y69
G1 F900 X69.291 Y69 E82.21928
G1 X69.441 Y69
G0 F2250 X69.703 Y69.6
G1 F900 X15.014 Y69.6 E84.37961
G1 X14.864 Y69.6
G0 F2250 X15.014 Y70.2
G1 F900 X70.116 Y70.2 E86.55626
G1 X70.266 Y70.2
G0 F2250 X70.528 Y70.8
G1 F900 X15.014 Y70.8 E88.74919
G1 X14.864 Y70.8
G0 F2250 X15.014 Y71.4
G1 F900 X70.941 Y71.4 E90.95842
G1 X71.091 Y71.4
G0 F2250 X71.353 Y72
G1 F900 X15.014 Y72 E93.18394
G1 X14.864 Y72
G0 F2250 X15.014 Y72.6
G1 F900 X71.766 Y72.6 E95.42576
G1 X71.916 Y72.6
G0 F2250 X72.178 Y73.2
G1 F900 X15.014 Y73.2 E97.68386
G1 X14.864 Y73.2
G0 F2250 X15.014 Y73.8
G1 F900 X31.434 Y73.8 E98.33249
G1 X31.584 Y73.8
G1 F420 E96.83249
G0 F2250 X31.585 Y75.693
G0 X23.489 Y75.682
G0 X21.664 Y74.4
G1 F420 E98.33249
G1 F900 X15.014 Y74.4 E98.59518
G1 X14.864 Y74.4
G0 F2250 X15.014 Y75
G1 F900 X21.664 Y75 E98.85787
G1 X21.814 Y75
G0 F2250 X21.664 Y75.6
G1 F900 X15.014 Y75.6 E99.12056
G1 X14.864 Y75.6
G0 F2250 X15.014 Y76.2
G1 F900 X21.664 Y76.2 E99.38325
G1 X21.814 Y76.2
G0 F2250 X21.664 Y76.8
G1 F900 X15.014 Y76.8 E99.64594
G1 X14.864 Y76.8
G0 F2250 X15.014 Y77.4
G1 F900 X21.664 Y77.4 E99.90863
G1 X21.814 Y77.4
G0 F2250 X21.664 Y78
G1 F900 X15.014 Y78 E100.17132
G1 X14.864 Y78
G0 F2250 X15.014 Y78.6
G1 F900 X21.664 Y78.6 E100.43401
G1 X21.814 Y78.6
G0 F2250 X21.664 Y79.2
G1 F900 X15.014 Y79.2 E100.6967
G1 X14.864 Y79.2
G0 F2250 X15.014 Y79.8
G1 F900 X21.664 Y79.8 E100.95938
G1 X21.814 Y79.8
G0 F2250 X21.664 Y80.4
G1 F900 X15.014 Y80.4 E101.22207
G1 X14.864 Y80.4
G0 F2250 X15.014 Y81
G1 F900 X21.664 Y81 E101.48476
G1 X21.814 Y81
G0 F2250 X21.664 Y81.6
G1 F900 X15.014 Y81.6 E101.74745
G1 X14.864 Y81.6
G0 F2250 X15.014 Y82.2
G1 F900 X21.664 Y82.2 E102.01014
G1 X21.814 Y82.2
G0 F2250 X21.204 Y82.8
G1 F900 X15.014 Y82.8 E102.25466
G1 X14.864 Y82.8
G0 F2250 X15.014 Y83.4
G1 F900 X21.203 Y83.4 E102.49914
G1 X21.353 Y83.4
G0 F2250 X21.203 Y84
G1 F900 X15.014 Y84 E102.74362
G1 X14.864 Y84
G0 F2250 X15.014 Y84.6
G1 F900 X21.203 Y84.6 E102.9881
G1 X21.353 Y84.6
G0 F2250 X21.203 Y85.2
G1 F900 X15.014 Y85.2 E103.23258
G1 X14.864 Y85.2
G0 F2250 X15.014 Y85.8
G1 F900 X21.203 Y85.8 E103.47706
G1 X21.353 Y85.8
G0 F2250 X21.203 Y86.4
G1 F900 X15.014 Y86.4 E103.72153
G1 X14.864 Y86.4
G0 F2250 X15.014 Y87
G1 F900 X21.203 Y87 E103.96601
G1 X21.353 Y87
G0 F2250 X21.203 Y87.6
G1 F900 X15.014 Y87.6 E104.21049
G1 X14.864 Y87.6
G0 F2250 X15.014 Y88.2
G1 F900 X21.203 Y88.2 E104.45497
G1 X21.353 Y88.2
G0 F2250 X21.203 Y88.8
G1 F900 X15.014 Y88.8 E104.69945
G1 X14.864 Y88.8
G0 F2250 X15.014 Y89.4
G1 F900 X21.203 Y89.4 E104.94393
G1 X21.353 Y89.4
G0 F2250 X21.203 Y90
G1 F900 X15.014 Y90 E105.18841
G1 X14.864 Y90
G0 F2250 X15.014 Y90.6
G1 F900 X21.203 Y90.6 E105.43289
G1 X21.353 Y90.6
G0 F2250 X21.203 Y91.2
G1 F900 X15.014 Y91.2 E105.67737
G1 X14.864 Y91.2
G0 F2250 X15.014 Y91.8
G1 F900 X21.203 Y91.8 E105.92184
G1 X21.353 Y91.8
G0 F2250 X21.203 Y92.4
G1 F900 X15.014 Y92.4 E106.16632
G1 X14.864 Y92.4
G0 F2250 X15.014 Y93
G1 F900 X21.203 Y93 E106.4108
G1 X21.353 Y93
G0 F2250 X21.203 Y93.6
G1 F900 X15.014 Y93.6 E106.65528
G1 X14.864 Y93.6
G0 F2250 X15.014 Y94.2
G1 F900 X21.203 Y94.2 E106.89976
G1 X21.353 Y94.2
G0 F2250 X21.203 Y94.8
G1 F900 X15.014 Y94.8 E107.14424
G1 X14.864 Y94.8
G0 F2250 X15.014 Y95.4
G1 F900 X21.665 Y95.4 E107.40697
G1 X21.815 Y95.4
G0 F2250 X21.665 Y96
G1 F900 X15.014 Y96 E107.6697
G1 X14.864 Y96
G0 F2250 X15.014 Y96.6
G1 F900 X21.665 Y96.6 E107.93243
G1 X21.815 Y96.6
G0 F2250 X21.665 Y97.2
G1 F900 X15.014 Y97.2 E108.19516
G1 X14.864 Y97.2
G0 F2250 X15.014 Y97.8
G1 F900 X21.665 Y97.8 E108.45788
G1 X21.815 Y97.8
G0 F2250 X21.665 Y98.4
G1 F900 X15.014 Y98.4 E108.72061
G1 X14.864 Y98.4
G0 F2250 X15.014 Y99
G1 F900 X21.665 Y99 E108.98334
G1 X21.815 Y99
G0 F2250 X21.665 Y99.6
G1 F900 X15.014 Y99.6 E109.24607
G1 X14.864 Y99.6
G0 F2250 X15.014 Y100.2
G1 F900 X21.665 Y100.2 E109.5088
G1 X21.815 Y100.2
G0 F2250 X21.665 Y100.8
G1 F900 X15.014 Y100.8 E109.77153
G1 X14.864 Y100.8
G0 F2250 X15.014 Y101.4
G1 F900 X21.665 Y101.4 E110.03426
G1 X21.815 Y101.4
G0 F2250 X21.665 Y102
G1 F900 X15.014 Y102 E110.29699
G1 X14.864 Y102
G0 F2250 X15.014 Y102.6
G1 F900 X21.665 Y102.6 E110.55972
G1 X21.815 Y102.6
G0 F2250 X21.665 Y103.2
G1 F900 X15.014 Y103.2 E110.82244
G1 X14.864 Y103.2
G0 F2250 X15.014 Y103.8
G1 F900 X21.665 Y103.8 E111.08517
G1 X21.815 Y103.8
G0 F2250 X21.665 Y104.4
G1 F900 X15.014 Y104.4 E111.3479
G1 X14.864 Y104.4
G0 F2250 X15.014 Y105
G1 F900 X21.665 Y105 E111.61063
G1 X21.815 Y105
G0 F2250 X21.665 Y105.6
G1 F900 X15.014 Y105.6 E111.87336
G1 X14.864 Y105.6
G0 F2250 X15.014 Y106.2
G1 F900 X21.665 Y106.2 E112.13609
G1 X21.815 Y106.2
G0 F2250 X21.665 Y106.8
G1 F900 X15.014 Y106.8 E112.39882
G1 X14.864 Y106.8
G0 F2250 X15.014 Y107.4
G1 F900 X21.665 Y107.4 E112.66155
G1 X21.815 Y107.4
G0 F2250 X21.665 Y108
G1 F900 X15.014 Y108 E112.92428
G1 X14.864 Y108
G0 F2250 X15.014 Y108.6
G1 F900 X21.665 Y108.6 E113.187
G1 X21.815 Y108.6
G0 F2250 X21.665 Y109.2
G1 F900 X15.014 Y109.2 E113.44973
G1 X14.864 Y109.2
G0 F2250 X15.014 Y109.8
G1 F900 X21.665 Y109.8 E113.71246
G1 X21.815 Y109.8
G0 F2250 X21.665 Y110.4
G1 F900 X15.014 Y110.4 E113.97519
G1 X14.864 Y110.4
G0 F2250 X15.014 Y111
G1 F900 X21.665 Y111 E114.23792
G1 X21.815 Y111
G0 F2250 X21.665 Y111.6
G1 F900 X15.014 Y111.6 E114.50065
G1 X14.864 Y111.6
G0 F2250 X15.014 Y112.2
G1 F900 X21.665 Y112.2 E114.76338
