;Generated by Cura LulzBot Edition GCodeWriter Version: 2.6.69
;FLAVOR:RepRap
;TIME:3110
;Filament used: 0.837079m
;Layer height: 0.2592
;Generated with Cura_SteamEngine 2.6.69
;This G-Code has been generated specifically for the LulzBot Mini with Aerostruder
G26 ; clear potential 'probe fail' condition
G21 ; set units to Millimetres
M107 ; disable fans
G90 ; absolute positioning
M82 ; set extruder to absolute mode
G92 E0 ; set extruder position to 0
M140 S115 ; start bed heating up
G28 ; home all axes
G0 X0 Y187 Z156 F200 ; move away from endstops
M109 R170 ; soften filament before retraction
G1 E-15 F75 ; retract filament
M109 R170 ; wait for extruder to reach wiping temp
G1 X45 Y173 F11520 ; move above wiper pad
G1 Z0 F1200 ; push nozzle into wiper
G1 X42 Y173 Z-.5 F4000 ; wiping
G1 X52 Y171 Z-.5 F4000 ; wiping
G1 X42 Y173 Z0 F4000 ; wiping
G1 X52 Y171 F4000 ; wiping
G1 X42 Y173 F4000 ; wiping
G1 X52 Y171 F4000 ; wiping
G1 X42 Y173 F4000 ; wiping
G1 X52 Y171 F4000 ; wiping
G1 X57 Y173 F4000 ; wiping
G1 X77 Y171 F4000 ; wiping
G1 X57 Y173 F4000 ; wiping
G1 X77 Y171 F4000 ; wiping
G1 X57 Y173 F4000 ; wiping
G1 X87 Y171 F4000 ; wiping
G1 X77 Y173 F4000 ; wiping
G1 X97 Y171 F4000 ; wiping
G1 X77 Y173 F4000 ; wiping
G1 X97 Y171 F4000 ; wiping
G1 X77 Y173 F4000 ; wiping
G1 X97 Y171 F4000 ; wiping
G1 X107 Y173 F4000 ; wiping
G1 X97 Y171 F4000 ; wiping
G1 X107 Y173 F4000 ; wiping
G1 X97 Y171 F4000 ; wiping
G1 X107 Y173 F4000 ; wiping
G1 X112 Y171 Z-0.5 F1000 ; wiping
G1 Z10 ; raise extruder
G28 X0 Y0 ; home X and Y
G0 X0 Y187 F200 ; move away from endstops
M109 R170 ; wait for extruder to reach probe temp
M204 S300 ; set probing acceleration
G29 ; start auto-leveling sequence
M204 S2000 ; restore standard acceleration
G28 X0 Y0 ; re-home to account for build variance of earlier mini builds
G0 X0 Y187 F200 ; move away from endstops
G0 Y152 F4000 ; move in front of wiper pad
G4 S1 ; pause
M400 ; wait for moves to finish
M117 Heating... ; progress indicator message on LCD
M109 R245 ; wait for extruder to reach printing temp
M190 S116 ; wait for bed to reach printing temp
G1 Z2 E0 F75 ; prime tiny bit of filament into the nozzle
M117 Mini Printing... ; progress indicator message on LCD


M221 S100
;LAYER_COUNT:13
;LAYER:0
M107
M204 S800
M205 X2
G0 F2250 X65.368 Y9.036 Z0.42
;TYPE:SKIRT
G1 F900 X65.512 Y8.101 E0.03737
G1 X65.657 Y7.579 E0.05877
G1 X66.085 Y6.534 E0.10338
G1 X66.37 Y6.029 E0.12628
G1 X67.005 Y5.179 E0.1682
G1 X67.393 Y4.775 E0.19032
G1 X68.212 Y4.106 E0.2321
G1 X68.625 Y3.837 E0.25157
G1 X69.339 Y3.474 E0.28321
G1 X69.866 Y3.282 E0.30536
G1 X71.181 Y2.98 E0.35866
G1 X71.702 Y2.922 E0.37937
G1 X82.603 Y2.951 E0.80998
G1 X83.126 Y3.013 E0.83079
G1 X83.918 Y3.2 E0.86293
G1 X84.403 Y3.374 E0.88329
G1 X85.437 Y3.882 E0.9288
G1 X85.875 Y4.162 E0.94933
G1 X86.514 Y4.682 E0.98188
G1 X86.826 Y4.99 E0.99919
G1 X87.365 Y5.634 E1.03237
G1 X87.64 Y6.045 E1.0519
G1 X88.111 Y6.947 E1.0921
G1 X88.314 Y7.498 E1.11529
G1 X88.591 Y8.706 E1.16425
G1 X88.649 Y9.226 E1.18492
G1 X88.628 Y17.794 E1.52338
G1 X88.628 Y17.815 E1.52421
G1 X88.563 Y23.271 E1.73974
G1 X88.662 Y28.71 E1.95463
G1 X88.661 Y28.805 E1.95838
G1 X88.567 Y32.897 E2.12007
G1 X88.662 Y38.281 E2.33278
G1 X88.661 Y38.375 E2.3365
G1 X88.567 Y42.467 E2.49818
G1 X88.662 Y47.851 E2.71089
G1 X88.661 Y47.946 E2.71465
G1 X88.564 Y52.094 E2.87855
G1 X88.662 Y57.53 E3.09332
G1 X88.661 Y57.626 E3.09711
G1 X88.564 Y61.774 E3.26101
G1 X88.662 Y67.21 E3.47578
G1 X88.661 Y67.305 E3.47953
G1 X88.567 Y71.397 E3.64122
G1 X88.662 Y76.781 E3.85393
G1 X88.661 Y76.875 E3.85764
G1 X88.567 Y80.967 E4.01933
G1 X88.662 Y86.351 E4.23204
G1 X88.661 Y86.446 E4.23579
G1 X88.564 Y90.594 E4.39969
G1 X88.662 Y96.03 E4.61446
G1 X88.661 Y96.126 E4.61825
G1 X88.564 Y100.274 E4.78215
G1 X88.662 Y105.71 E4.99692
G1 X88.661 Y105.805 E5.00068
G1 X88.567 Y109.897 E5.16236
G1 X88.662 Y115.281 E5.37507
G1 X88.661 Y115.375 E5.37879
G1 X88.567 Y119.467 E5.54047
G1 X88.662 Y124.851 E5.75319
G1 X88.661 Y124.946 E5.75694
G1 X88.564 Y129.094 E5.92084
G1 X88.662 Y134.53 E6.13561
G1 X88.661 Y134.626 E6.1394
G1 X88.564 Y138.774 E6.3033
G1 X88.662 Y144.21 E6.51807
G1 X88.654 Y144.447 E6.52743
G1 X88.563 Y145.517 E6.56985
G1 X88.437 Y146.096 E6.59326
G1 X88.033 Y147.227 E6.6407
G1 X87.745 Y147.781 E6.66537
G1 X87.082 Y148.719 E6.71074
G1 X86.678 Y149.157 E6.73428
G1 X85.801 Y149.889 E6.77941
G1 X85.35 Y150.183 E6.80067
G1 X84.577 Y150.567 E6.83477
G1 X84.102 Y150.741 E6.85475
G1 X83.042 Y151.001 E6.89786
G1 X82.499 Y151.067 E6.91947
G1 X71.859 Y151.089 E7.33978
G1 X71.55 Y151.069 E7.35201
G1 X70.709 Y150.957 E7.38552
G1 X70.343 Y150.877 E7.40032
G1 X69.745 Y150.695 E7.42501
G1 X69.392 Y150.555 E7.44001
G1 X68.687 Y150.205 E7.47111
G1 X68.264 Y149.934 E7.49095
G1 X67.415 Y149.248 E7.53407
G1 X67.018 Y148.835 E7.5567
G1 X66.363 Y147.958 E7.59994
G1 X66.072 Y147.439 E7.62344
G1 X65.631 Y146.341 E7.67018
G1 X65.483 Y145.769 E7.69352
G1 X65.353 Y144.727 E7.735
G1 X65.336 Y144.372 E7.74904
G1 X65.388 Y142.667 E7.81642
G1 X65.335 Y134.782 E8.12791
G1 X65.336 Y134.697 E8.13126
G1 X65.388 Y132.987 E8.19884
G1 X65.335 Y125.102 E8.51032
G1 X65.336 Y125.017 E8.51368
G1 X65.388 Y123.29 E8.58193
G1 X65.43 Y121.151 E8.66645
G1 X65.335 Y115.552 E8.88765
G1 X65.336 Y115.443 E8.89196
G1 X65.388 Y113.72 E8.96005
G1 X65.43 Y111.581 E9.04456
G1 X65.335 Y105.982 E9.26576
G1 X65.336 Y105.873 E9.27007
G1 X65.388 Y104.167 E9.33749
G1 X65.335 Y96.282 E9.64897
G1 X65.336 Y96.197 E9.65233
G1 X65.388 Y94.487 E9.71991
G1 X65.335 Y86.602 E10.03139
G1 X65.336 Y86.517 E10.03475
G1 X65.388 Y84.79 E10.103
G1 X65.43 Y82.651 E10.18751
G1 X65.335 Y77.052 E10.40872
G1 X65.336 Y76.943 E10.41302
G1 X65.388 Y75.22 E10.48112
G1 X65.43 Y73.081 E10.56563
G1 X65.335 Y67.482 E10.78683
G1 X65.336 Y67.373 E10.79114
G1 X65.388 Y65.667 E10.85856
G1 X65.335 Y57.782 E11.17004
G1 X65.336 Y57.697 E11.1734
G1 X65.388 Y55.987 E11.24098
G1 X65.335 Y48.102 E11.55246
G1 X65.336 Y48.017 E11.55582
G1 X65.388 Y46.308 E11.62336
G1 X65.335 Y38.531 E11.93058
G1 X65.336 Y38.445 E11.93397
G1 X65.388 Y36.738 E12.00144
G1 X65.335 Y28.961 E12.30865
G1 X65.336 Y28.875 E12.31205
G1 X65.388 Y27.167 E12.37955
G1 X65.335 Y19.282 E12.69103
G1 X65.336 Y19.197 E12.69439
G1 X65.388 Y17.486 E12.76201
G1 X65.341 Y9.399 E13.08147
G1 X65.368 Y9.036 E13.09585
G1 F420 E12.09585
G0 F2250 X66.979 Y9.131
G0 X67.886 Y9.233
;TYPE:WALL-OUTER
G1 F420 E13.09585
G1 F900 X67.914 Y8.988 E13.10234
G1 X67.959 Y8.731 E13.10921
G1 X68.021 Y8.476 E13.11612
G1 X68.099 Y8.226 E13.12302
G1 X68.198 Y7.967 E13.13032
G1 X68.307 Y7.729 E13.13722
G1 X68.424 Y7.512 E13.14371
G1 X68.57 Y7.277 E13.15099
G1 X68.712 Y7.078 E13.15743
G1 X68.888 Y6.863 E13.16475
G1 X69.063 Y6.674 E13.17153
G1 X69.244 Y6.501 E13.17813
G1 X69.452 Y6.327 E13.18527
G1 X69.661 Y6.174 E13.19209
G1 X69.881 Y6.033 E13.19897
G1 X70.113 Y5.905 E13.20595
G1 X70.35 Y5.793 E13.21285
G1 X70.587 Y5.697 E13.21958
G1 X70.841 Y5.615 E13.22661
G1 X71.087 Y5.551 E13.23331
G1 X71.357 Y5.499 E13.24055
G1 X71.616 Y5.467 E13.24742
G1 X71.863 Y5.451 E13.25394
G1 X82.001 Y5.449 E13.52092
G1 X82.27 Y5.458 E13.52801
G1 X82.535 Y5.484 E13.53502
G1 X82.912 Y5.55 E13.5451
G1 X83.177 Y5.62 E13.55232
G1 X83.412 Y5.697 E13.55883
G1 X83.66 Y5.796 E13.56586
G1 X83.906 Y5.914 E13.57305
G1 X84.12 Y6.033 E13.5795
G1 X84.34 Y6.175 E13.58639
G1 X84.563 Y6.339 E13.59368
G1 X84.755 Y6.501 E13.6003
G1 X84.944 Y6.681 E13.60717
G1 X85.119 Y6.87 E13.61395
G1 X85.293 Y7.085 E13.62124
G1 X85.436 Y7.286 E13.62773
G1 X85.576 Y7.512 E13.63474
G1 X85.697 Y7.739 E13.64151
G1 X85.808 Y7.982 E13.64855
G1 X85.905 Y8.236 E13.65571
G1 X85.977 Y8.471 E13.66218
G1 X86.043 Y8.741 E13.6695
G1 X86.085 Y8.982 E13.67594
G1 X86.115 Y9.258 E13.68325
G1 X86.127 Y9.52 E13.69016
G1 X86.123 Y9.771 E13.69677
G1 X86.102 Y10.033 E13.70369
G1 X86.065 Y10.285 E13.7104
G1 X86.01 Y10.547 E13.71745
G1 X85.94 Y10.799 E13.72434
G1 X85.855 Y11.046 E13.73122
G1 X85.756 Y11.282 E13.73796
G1 X85.635 Y11.525 E13.7451
G1 X85.51 Y11.743 E13.75172
G1 X85.361 Y11.966 E13.75878
G1 X85.207 Y12.169 E13.7655
G1 X85.024 Y12.379 E13.77283
G1 X84.844 Y12.562 E13.77959
G1 X84.654 Y12.731 E13.78629
G1 X84.453 Y12.89 E13.79304
G1 X84.223 Y13.047 E13.80037
G1 X84.011 Y13.174 E13.80688
G1 X83.765 Y13.3 E13.81416
G1 X83.539 Y13.399 E13.82065
G1 X83.284 Y13.492 E13.8278
G1 X83.042 Y13.562 E13.83444
G1 X82.779 Y13.622 E13.84154
G1 X82.519 Y13.663 E13.84847
G1 X82.132 Y13.693 E13.85869
G1 X71.999 Y13.695 E14.12554
G1 X71.73 Y13.686 E14.13263
G1 X71.468 Y13.661 E14.13956
G1 X71.211 Y13.62 E14.14642
G1 X70.958 Y13.562 E14.15325
G1 X70.697 Y13.485 E14.16042
G1 X70.451 Y13.395 E14.16732
G1 X70.226 Y13.297 E14.17378
G1 X69.98 Y13.169 E14.18108
G1 X69.765 Y13.04 E14.18769
G1 X69.551 Y12.892 E14.19454
G1 X69.344 Y12.729 E14.20148
G1 X69.14 Y12.546 E14.20869
G1 X68.969 Y12.372 E14.21512
G1 X68.788 Y12.162 E14.22242
G1 X68.629 Y11.953 E14.22934
G1 X68.49 Y11.743 E14.23597
G1 X68.361 Y11.518 E14.2428
G1 X68.241 Y11.273 E14.24998
G1 X68.141 Y11.036 E14.25676
G1 X68.058 Y10.797 E14.26342
G1 X67.99 Y10.545 E14.27029
G1 X67.933 Y10.275 E14.27756
G1 X67.896 Y10.026 E14.28419
G1 X67.877 Y9.764 E14.29111
G1 X67.873 Y9.51 E14.2978
G1 X67.886 Y9.233 E14.3051
G0 F2250 X67.914 Y8.988
G0 X67.914 Y8.985
G1 F420 E13.3051
G0 F2250 X67.007 Y8.882
G0 X67.006 Y8.882
G0 X67.085 Y8.893
G0 X71.281 Y9.526
G0 X71.36 Y9.538
G0 X71.361 Y9.538
G0 X70.448 Y9.489
G1 F420 E14.3051
G1 F900 X70.448 Y9.655 E14.30947
G1 X70.466 Y9.817 E14.31376
G1 X70.5 Y9.975 E14.31802
G1 X70.55 Y10.132 E14.32236
G1 X70.619 Y10.282 E14.32671
G1 X70.7 Y10.422 E14.33097
G1 X70.797 Y10.554 E14.33528
G1 X70.907 Y10.675 E14.33959
G1 X71.03 Y10.783 E14.3439
G1 X71.163 Y10.878 E14.3482
G1 X71.305 Y10.959 E14.35251
G1 X71.456 Y11.024 E14.35684
G1 X71.611 Y11.073 E14.36112
G1 X71.771 Y11.105 E14.36541
G1 X71.934 Y11.12 E14.36972
G1 X72.097 Y11.118 E14.37402
G1 X72.261 Y11.099 E14.37837
G1 X72.419 Y11.062 E14.38264
G1 X72.574 Y11.01 E14.38694
G1 X72.723 Y10.94 E14.39128
G1 X72.862 Y10.856 E14.39556
G1 X72.996 Y10.756 E14.39996
G1 X73.166 Y10.587 E14.40627
G1 X73.268 Y10.456 E14.41064
G1 X73.353 Y10.317 E14.41494
G1 X73.425 Y10.17 E14.41925
G1 X73.48 Y10.015 E14.42358
G1 X73.518 Y9.857 E14.42786
G1 X73.541 Y9.695 E14.43217
G1 X73.544 Y9.531 E14.43649
G1 X73.531 Y9.368 E14.44079
G1 X73.501 Y9.208 E14.44508
G1 X73.455 Y9.051 E14.44939
G1 X73.392 Y8.9 E14.4537
G1 X73.313 Y8.757 E14.458
G1 X73.22 Y8.622 E14.46232
G1 X73.113 Y8.498 E14.46663
G1 X72.993 Y8.386 E14.47095
G1 X72.862 Y8.288 E14.47526
G1 X72.723 Y8.204 E14.47954
G1 X72.574 Y8.134 E14.48387
G1 X72.419 Y8.082 E14.48818
G1 X72.261 Y8.045 E14.49245
G1 X72.097 Y8.026 E14.4968
G1 X71.934 Y8.024 E14.50109
G1 X71.771 Y8.039 E14.5054
G1 X71.611 Y8.071 E14.5097
G1 X71.456 Y8.12 E14.51398
G1 X71.305 Y8.185 E14.51831
G1 X71.163 Y8.266 E14.52262
G1 X71.03 Y8.361 E14.52692
G1 X70.907 Y8.469 E14.53123
G1 X70.797 Y8.59 E14.53554
G1 X70.7 Y8.722 E14.53985
G1 X70.619 Y8.862 E14.54411
G1 X70.55 Y9.012 E14.54846
G1 X70.5 Y9.169 E14.5528
G1 X70.466 Y9.327 E14.55705
G1 X70.448 Y9.489 E14.56135
G0 F2250 X70.448 Y9.655
G0 X70.457 Y9.739
G1 F420 E13.56135
G0 F2250 X71.368 Y9.668
G0 X72.623 Y9.651
G0 X72.703 Y9.65
G0 X81.294 Y9.538
G0 X81.374 Y9.537
G0 X81.374 Y9.538
G0 X80.461 Y9.489
G1 F420 E14.56135
G1 F900 X80.461 Y9.655 E14.56572
G1 X80.479 Y9.816 E14.56998
G1 X80.512 Y9.975 E14.57426
G1 X80.563 Y10.132 E14.57861
G1 X80.631 Y10.282 E14.58294
G1 X80.714 Y10.422 E14.58723
G1 X80.81 Y10.554 E14.59153
G1 X80.92 Y10.675 E14.59584
G1 X81.043 Y10.783 E14.60015
G1 X81.176 Y10.878 E14.60445
G1 X81.318 Y10.959 E14.60876
G1 X81.469 Y11.024 E14.61308
G1 X81.624 Y11.073 E14.61737
G1 X81.784 Y11.105 E14.62166
G1 X81.947 Y11.12 E14.62597
G1 X82.11 Y11.118 E14.63027
G1 X82.273 Y11.099 E14.63459
G1 X82.432 Y11.062 E14.63889
G1 X82.587 Y11.009 E14.6432
G1 X82.735 Y10.94 E14.6475
G1 X82.875 Y10.856 E14.6518
G1 X83.009 Y10.756 E14.6562
G1 X83.179 Y10.587 E14.66252
G1 X83.281 Y10.456 E14.66689
G1 X83.366 Y10.317 E14.67118
G1 X83.438 Y10.17 E14.67549
G1 X83.493 Y10.015 E14.67982
G1 X83.531 Y9.857 E14.6841
G1 X83.553 Y9.695 E14.68841
G1 X83.557 Y9.532 E14.6927
G1 X83.544 Y9.368 E14.69703
G1 X83.514 Y9.208 E14.70132
G1 X83.468 Y9.051 E14.70563
G1 X83.405 Y8.9 E14.70994
G1 X83.326 Y8.756 E14.71426
G1 X83.232 Y8.622 E14.71857
G1 X83.126 Y8.499 E14.72285
G1 X83.006 Y8.386 E14.72719
G1 X82.875 Y8.288 E14.7315
G1 X82.735 Y8.204 E14.7358
G1 X82.587 Y8.135 E14.7401
G1 X82.432 Y8.082 E14.74441
G1 X82.273 Y8.045 E14.74871
G1 X82.11 Y8.026 E14.75303
G1 X81.947 Y8.024 E14.75733
G1 X81.784 Y8.039 E14.76164
G1 X81.624 Y8.071 E14.76593
G1 X81.469 Y8.12 E14.77021
G1 X81.318 Y8.185 E14.77454
G1 X81.176 Y8.266 E14.77885
G1 X81.043 Y8.361 E14.78315
G1 X80.92 Y8.469 E14.78746
G1 X80.81 Y8.59 E14.79177
G1 X80.714 Y8.722 E14.79607
G1 X80.631 Y8.862 E14.80035
G1 X80.563 Y9.012 E14.80469
G1 X80.512 Y9.169 E14.80904
G1 X80.479 Y9.328 E14.81332
G1 X80.461 Y9.489 E14.81758
G0 F2250 X80.461 Y9.655
G0 X80.47 Y9.738
G0 X80.361 Y9.6
;TYPE:SKIN
G1 F900 X73.643 Y9.6 E14.9945
G1 X73.543 Y9.6
G0 F2250 X73.602 Y9.2
G1 F900 X80.402 Y9.2 E15.17358
G1 X80.502 Y9.2
G0 F2250 X80.55 Y8.8
G1 F900 X73.45 Y8.8 E15.36055
G1 X73.35 Y8.8
G0 F2250 X73.155 Y8.4
G1 F900 X80.847 Y8.4 E15.56312
G1 X80.947 Y8.4
G0 F2250 X81.511 Y8
G1 F900 X72.492 Y8 E15.80063
G1 X72.392 Y8
G0 F2250 X71.498 Y8
G1 F900 X68.293 Y8 E15.88504
G1 X68.193 Y8
G0 F2250 X68.15 Y8.4
G1 F900 X70.834 Y8.4 E15.95572
G1 X70.934 Y8.4
G0 F2250 X70.538 Y8.8
G1 F900 X68.049 Y8.8 E16.02127
G1 X67.949 Y8.8
G0 F2250 X67.991 Y9.2
G1 F900 X70.391 Y9.2 E16.08447
G1 X70.491 Y9.2
G0 F2250 X70.348 Y9.6
G1 F900 X67.974 Y9.6 E16.14699
G1 X67.874 Y9.6
G0 F2250 X67.994 Y10
G1 F900 X70.404 Y10 E16.21045
G1 X70.504 Y10
G0 F2250 X70.573 Y10.4
G1 F900 X68.062 Y10.4 E16.27658
G1 X67.962 Y10.4
G0 F2250 X68.165 Y10.8
G1 F900 X70.899 Y10.8 E16.34858
G1 X70.999 Y10.8
G0 F2250 X71.743 Y11.2
G1 F900 X68.319 Y11.2 E16.43875
G1 X68.219 Y11.2
G0 F2250 X68.523 Y11.6
G1 F900 X85.475 Y11.6 E16.88518
G1 X85.575 Y11.6
G0 F2250 X85.682 Y11.2
G1 F900 X82.261 Y11.2 E16.97527
G1 X82.161 Y11.2
G0 F2250 X81.756 Y11.2
G1 F900 X72.247 Y11.2 E17.22569
G1 X72.147 Y11.2
G0 F2250 X73.093 Y10.8
G1 F900 X80.912 Y10.8 E17.4316
G1 X81.012 Y10.8
G0 F2250 X80.585 Y10.4
G1 F900 X73.42 Y10.4 E17.62029
G1 X73.32 Y10.4
G0 F2250 X73.587 Y10
G1 F900 X80.416 Y10 E17.80013
G1 X80.516 Y10
G1 F420 E16.80013
G0 F2250 X81.416 Y9.801
G0 X82.416 Y10.059
G0 X83.106 Y10.8
G1 F420 E17.80013
G1 F900 X85.833 Y10.8 E17.87194
G1 X85.933 Y10.8
G0 F2250 X85.938 Y10.4
G1 F900 X83.433 Y10.4 E17.93791
G1 X83.333 Y10.4
G0 F2250 X83.6 Y10
G1 F900 X86.004 Y10 E18.00122
G1 X86.104 Y10
G0 F2250 X86.025 Y9.6
G1 F900 X83.656 Y9.6 E18.06361
G1 X83.556 Y9.6
G0 F2250 X83.615 Y9.2
G1 F900 X86.009 Y9.2 E18.12665
G1 X86.109 Y9.2
G0 F2250 X85.953 Y8.8
G1 F900 X83.464 Y8.8 E18.1922
G1 X83.364 Y8.8
G0 F2250 X83.166 Y8.4
G1 F900 X85.851 Y8.4 E18.26291
G1 X85.951 Y8.4
G0 F2250 X85.708 Y8
G1 F900 X82.504 Y8 E18.34728
G1 X82.404 Y8
G1 F420 E17.34728
G0 F2250 X82.118 Y8.947
G0 X82.116 Y8.948
G0 X82.129 Y8.868
G0 X82.785 Y4.68
G0 X82.798 Y4.601
G0 X82.799 Y4.602
G0 X82.625 Y5.6
G1 F420 E18.34728
G1 F900 X71.353 Y5.6 E18.64413
G1 X71.253 Y5.6
G0 F2250 X70.146 Y6
G1 F900 X83.857 Y6 E19.00521
G1 X83.957 Y6
G0 F2250 X84.48 Y6.4
G1 F900 X69.519 Y6.4 E19.3992
G1 X69.419 Y6.4
G0 F2250 X69.083 Y6.8
G1 F900 X84.919 Y6.8 E19.81624
G1 X85.019 Y6.8
G0 F2250 X85.254 Y7.2
G1 F900 X68.748 Y7.2 E20.25092
G1 X68.648 Y7.2
G0 F2250 X68.49 Y7.6
G1 F900 X85.512 Y7.6 E20.69919
G1 X85.612 Y7.6
G1 F420 E19.69919
G0 F2250 X86.52 Y7.343
G0 X86.86 Y8.236
G0 X87.025 Y9.18
G0 X87.009 Y10.137
G0 X86.812 Y11.072
G0 X86.441 Y11.955
G0 X86.281 Y12.233
G0 X85.209 Y12
G1 F420 E20.69919
G1 F900 X68.79 Y12 E21.13158
G1 X68.69 Y12
G0 F2250 X69.137 Y12.4
G1 F900 X84.861 Y12.4 E21.54567
G1 X84.961 Y12.4
G0 F2250 X84.404 Y12.8
G1 F900 X69.597 Y12.8 E21.93561
G1 X69.497 Y12.8
G0 F2250 X70.257 Y13.2
G1 F900 X83.738 Y13.2 E22.29063
G1 X83.838 Y13.2
G1 F420 E21.29063
G0 F2250 X84.163 Y14.123
G0 X83.462 Y14.432
