;Generated by Cura LulzBot Edition GCodeWriter Version: 2.6.66
;FLAVOR:RepRap
;TIME:6117
;Filament used: 4.24745m
;Layer height: 0.378
;Generated with Cura_SteamEngine 2.6.66
;This G-Code has been generated specifically for the LulzBot Mini with Aerostruder
G26 ; clear potential 'probe fail' condition
G21 ; set units to Millimetres
M107 ; disable fans
G90 ; absolute positioning
M82 ; set extruder to absolute mode
G92 E0 ; set extruder position to 0
M140 S115 ; start bed heating up
G28 ; home all axes
G0 X0 Y187 Z156 F200 ; move away from endstops
M109 R170 ; soften filament before retraction
G1 E-15 F75 ; retract filament
M109 R170 ; wait for extruder to reach wiping temp
G1 X45 Y173 F11520 ; move above wiper pad
G1 Z0 F1200 ; push nozzle into wiper
G1 X42 Y173 Z-.5 F4000 ; wiping
G1 X52 Y171 Z-.5 F4000 ; wiping
G1 X42 Y173 Z0 F4000 ; wiping
G1 X52 Y171 F4000 ; wiping
G1 X42 Y173 F4000 ; wiping
G1 X52 Y171 F4000 ; wiping
G1 X42 Y173 F4000 ; wiping
G1 X52 Y171 F4000 ; wiping
G1 X57 Y173 F4000 ; wiping
G1 X77 Y171 F4000 ; wiping
G1 X57 Y173 F4000 ; wiping
G1 X77 Y171 F4000 ; wiping
G1 X57 Y173 F4000 ; wiping
G1 X87 Y171 F4000 ; wiping
G1 X77 Y173 F4000 ; wiping
G1 X97 Y171 F4000 ; wiping
G1 X77 Y173 F4000 ; wiping
G1 X97 Y171 F4000 ; wiping
G1 X77 Y173 F4000 ; wiping
G1 X97 Y171 F4000 ; wiping
G1 X107 Y173 F4000 ; wiping
G1 X97 Y171 F4000 ; wiping
G1 X107 Y173 F4000 ; wiping
G1 X97 Y171 F4000 ; wiping
G1 X107 Y173 F4000 ; wiping
G1 X112 Y171 Z-0.5 F1000 ; wiping
G1 Z10 ; raise extruder
G28 X0 Y0 ; home X and Y
G0 X0 Y187 F200 ; move away from endstops
M109 R170 ; wait for extruder to reach probe temp
M204 S300 ; set probing acceleration
G29 ; start auto-leveling sequence
M204 S2000 ; restore standard acceleration
G28 X0 Y0 ; re-home to account for build variance of earlier mini builds
G0 X0 Y187 F200 ; move away from endstops
G0 Y152 F4000 ; move in front of wiper pad
G4 S1 ; pause
M400 ; wait for moves to finish
M117 Heating... ; progress indicator message on LCD
M109 R245 ; wait for extruder to reach printing temp
M190 S116 ; wait for bed to reach printing temp
G1 Z2 E0 F75 ; prime tiny bit of filament into the nozzle
M117 Mini Printing... ; progress indicator message on LCD


M221 S100
;LAYER_COUNT:26
;LAYER:0
M107
M204 S1000
M205 X10
G0 F2250 X56.008 Y10.99 Z0.42
G0 X55.968 Y11.309
;TYPE:SKIRT
G1 F900 X56.008 Y10.99 E0.0127
G1 X56.125 Y10.69 E0.02542
G1 X56.312 Y10.428 E0.03814
G1 X56.558 Y10.22 E0.05086
G1 X56.847 Y10.079 E0.06356
G1 X57.268 Y10.009 E0.08042
G1 X95.649 Y10.01 E1.59655
G1 X95.968 Y10.05 E1.60925
G1 X96.268 Y10.167 E1.62197
G1 X96.53 Y10.354 E1.63469
G1 X96.738 Y10.6 E1.64742
G1 X96.879 Y10.889 E1.66012
G1 X96.949 Y11.31 E1.67698
G1 X96.948 Y142.691 E6.86681
G1 X96.908 Y143.01 E6.87951
G1 X96.791 Y143.31 E6.89223
G1 X96.604 Y143.572 E6.90495
G1 X96.358 Y143.78 E6.91767
G1 X96.069 Y143.921 E6.93037
G1 X95.648 Y143.991 E6.94723
G1 X57.267 Y143.99 E8.46337
G1 X56.948 Y143.95 E8.47607
G1 X56.648 Y143.833 E8.48879
G1 X56.386 Y143.646 E8.5015
G1 X56.178 Y143.4 E8.51423
G1 X56.037 Y143.111 E8.52693
G1 X55.967 Y142.69 E8.54379
G1 X55.968 Y11.804 E13.71407
G0 F810 X55.968 Y11.309
G1 F420 E12.21407
G0 F2250 X56.595 Y11.538
G0 X56.67 Y11.565
G0 X60.759 Y13.057
G0 X60.834 Y13.084
G0 X67.459 Y15.502
G0 X68.412 Y17
;TYPE:WALL-OUTER
G1 F420 E13.73362
G1 F900 X58.104 Y17 E14.14081
G1 X57.558 Y17 E14.16238
G1 X57.558 Y16.454 E14.18395
G1 X57.558 Y12.146 E14.35412
G1 X57.558 Y11.6 E14.37569
G1 X58.104 Y11.6 E14.39726
G1 X68.411 Y11.6 E14.80441
G1 X68.958 Y11.6 E14.82601
G1 X68.958 Y12.146 E14.84758
G1 X68.958 Y16.455 E15.0178
G1 X68.958 Y17 E15.03933
G1 X68.907 Y17 E15.04134
G0 F810 X68.412 Y17
G0 F2250 X68.162 Y17
G0 X68.412 Y16.455
G1 F420 E15.06089
G1 F900 X68.411 Y12.146 E15.21593
G1 X58.104 Y12.146 E15.58644
G1 X58.104 Y16.454 E15.7413
G1 X68.412 Y16.455 E16.1115
G0 F2250 X68.412 Y16.205
G1 F420 E14.6115
G0 F2250 X67.459 Y15.502
G0 X67.459 Y15.489
G0 X67.459 Y15.569
G0 X67.459 Y19.631
G0 X67.459 Y19.711
G0 X67.459 Y22.102
G0 X68.412 Y23.6
G1 F420 E16.1115
G1 F900 X58.104 Y23.6 E16.51869
G1 X57.558 Y23.6 E16.54026
G1 X57.558 Y23.054 E16.56182
G1 X57.558 Y18.746 E16.732
G1 X57.558 Y18.2 E16.75357
G1 X58.104 Y18.2 E16.77514
G1 X68.411 Y18.2 E17.18228
G1 X68.958 Y18.2 E17.20389
G1 X68.958 Y18.746 E17.22546
G1 X68.958 Y23.055 E17.39568
G1 X68.958 Y23.6 E17.4172
G1 X68.907 Y23.6 E17.41922
G0 F810 X68.412 Y23.6
G0 F2250 X68.162 Y23.6
G0 X68.412 Y23.055
G1 F420 E17.43877
G1 F900 X68.411 Y18.746 E17.59381
G1 X58.104 Y18.746 E17.96432
G1 X58.104 Y23.054 E18.11917
G1 X68.412 Y23.055 E18.48938
G0 F2250 X68.412 Y22.805
G1 F420 E16.98938
G0 F2250 X67.459 Y22.102
G0 X67.459 Y22.089
G0 X67.459 Y22.169
G0 X67.459 Y26.231
G0 X67.459 Y26.311
G0 X67.459 Y28.702
G0 X68.412 Y30.2
G1 F420 E18.48938
G1 F900 X58.104 Y30.2 E18.89657
G1 X57.558 Y30.2 E18.91813
G1 X57.558 Y29.654 E18.9397
G1 X57.558 Y25.346 E19.10988
G1 X57.558 Y24.8 E19.13145
G1 X58.104 Y24.8 E19.15301
G1 X68.411 Y24.8 E19.56016
G1 X68.958 Y24.8 E19.58177
G1 X68.958 Y25.346 E19.60334
G1 X68.958 Y29.655 E19.77355
G1 X68.958 Y30.2 E19.79508
G1 X68.907 Y30.2 E19.7971
G0 F810 X68.412 Y30.2
G0 F2250 X68.162 Y30.2
G0 X68.412 Y29.655
G1 F420 E19.81665
G1 F900 X68.411 Y25.346 E19.97169
G1 X58.104 Y25.346 E20.34219
G1 X58.104 Y29.654 E20.49705
G1 X68.412 Y29.655 E20.86725
G0 F2250 X68.412 Y29.405
G1 F420 E19.36725
G0 F2250 X67.459 Y28.702
G0 X67.459 Y28.689
G0 X67.459 Y28.769
G0 X67.459 Y32.831
G0 X67.459 Y32.911
G0 X67.459 Y35.302
G0 X68.412 Y36.8
G1 F420 E20.86725
G1 F900 X58.104 Y36.8 E21.27444
G1 X57.558 Y36.8 E21.29601
G1 X57.558 Y36.254 E21.31758
G1 X57.558 Y31.946 E21.48775
G1 X57.558 Y31.4 E21.50932
G1 X58.104 Y31.4 E21.53089
G1 X68.411 Y31.4 E21.93804
G1 X68.958 Y31.4 E21.95965
G1 X68.958 Y31.946 E21.98122
G1 X68.958 Y36.255 E22.15143
G1 X68.958 Y36.8 E22.17296
G1 X68.907 Y36.8 E22.17497
G0 F810 X68.412 Y36.8
G0 F2250 X68.162 Y36.8
G0 X68.412 Y36.255
G1 F420 E22.19453
G1 F900 X68.411 Y31.946 E22.34956
G1 X58.104 Y31.946 E22.72007
G1 X58.104 Y36.254 E22.87493
G1 X68.412 Y36.255 E23.24513
G0 F2250 X68.412 Y36.005
G1 F420 E21.74513
G0 F2250 X67.459 Y35.302
G0 X67.459 Y35.289
G0 X67.459 Y35.369
G0 X67.459 Y39.431
G0 X67.459 Y39.511
G0 X67.459 Y41.902
G0 X68.412 Y43.4
G1 F420 E23.24513
G1 F900 X58.104 Y43.4 E23.65232
G1 X57.558 Y43.4 E23.67389
G1 X57.558 Y42.854 E23.69546
G1 X57.558 Y38.546 E23.86563
G1 X57.558 Y38 E23.8872
G1 X58.104 Y38 E23.90877
G1 X68.411 Y38 E24.31592
G1 X68.958 Y38 E24.33752
G1 X68.958 Y38.546 E24.35909
G1 X68.958 Y42.855 E24.52931
G1 X68.958 Y43.4 E24.55084
G1 X68.907 Y43.4 E24.55285
G0 F810 X68.412 Y43.4
G0 F2250 X68.162 Y43.4
G0 X68.412 Y42.855
G1 F420 E24.5724
G1 F900 X68.411 Y38.546 E24.72744
G1 X58.104 Y38.546 E25.09795
G1 X58.104 Y42.854 E25.25281
G1 X68.412 Y42.855 E25.62301
G0 F2250 X68.412 Y42.605
G1 F420 E24.12301
G0 F2250 X67.459 Y41.902
G0 X67.459 Y41.889
G0 X67.459 Y41.969
G0 X67.459 Y46.031
G0 X67.459 Y46.111
G0 X67.459 Y48.502
G0 X68.412 Y50
G1 F420 E25.62301
G1 F900 X58.104 Y50 E26.0302
G1 X57.558 Y50 E26.05177
G1 X57.558 Y49.454 E26.07333
G1 X57.558 Y45.146 E26.24351
G1 X57.558 Y44.6 E26.26508
G1 X58.104 Y44.6 E26.28665
G1 X68.411 Y44.6 E26.69379
G1 X68.958 Y44.6 E26.7154
G1 X68.958 Y45.146 E26.73697
G1 X68.958 Y49.455 E26.90718
G1 X68.958 Y50 E26.92871
G1 X68.907 Y50 E26.93073
G0 F810 X68.412 Y50
G0 F2250 X68.162 Y50
G0 X68.412 Y49.455
G1 F420 E26.95028
G1 F900 X68.411 Y45.146 E27.10532
G1 X58.104 Y45.146 E27.47582
G1 X58.104 Y49.454 E27.63068
G1 X68.412 Y49.455 E28.00089
G0 F2250 X68.412 Y49.205
G1 F420 E26.50089
G0 F2250 X67.459 Y48.502
G0 X67.459 Y48.489
G0 X67.459 Y48.569
G0 X67.459 Y52.631
G0 X67.459 Y52.711
G0 X67.459 Y55.102
G0 X68.412 Y56.6
G1 F420 E28.00089
G1 F900 X58.104 Y56.6 E28.40807
G1 X57.558 Y56.6 E28.42964
G1 X57.558 Y56.054 E28.45121
G1 X57.558 Y51.746 E28.62139
G1 X57.558 Y51.2 E28.64295
G1 X58.104 Y51.2 E28.66452
G1 X68.411 Y51.2 E29.07167
G1 X68.958 Y51.2 E29.09328
G1 X68.958 Y51.746 E29.11485
G1 X68.958 Y56.055 E29.28506
G1 X68.958 Y56.6 E29.30659
G1 X68.907 Y56.6 E29.30861
G0 F810 X68.412 Y56.6
G0 F2250 X68.162 Y56.6
G0 X68.412 Y56.055
G1 F420 E29.32816
G1 F900 X68.411 Y51.746 E29.4832
G1 X58.104 Y51.746 E29.8537
G1 X58.104 Y56.054 E30.00856
G1 X68.412 Y56.055 E30.37876
G0 F2250 X68.412 Y55.805
G1 F420 E28.87876
G0 F2250 X67.459 Y55.102
G0 X67.459 Y55.089
G0 X67.459 Y55.169
G0 X67.459 Y59.231
G0 X67.459 Y59.311
G0 X67.459 Y61.702
G0 X68.412 Y63.2
G1 F420 E30.37876
G1 F900 X58.104 Y63.2 E30.78595
G1 X57.558 Y63.2 E30.80752
G1 X57.558 Y62.654 E30.82909
G1 X57.558 Y58.346 E30.99926
G1 X57.558 Y57.8 E31.02083
G1 X58.104 Y57.8 E31.0424
G1 X68.411 Y57.8 E31.44955
G1 X68.958 Y57.8 E31.47116
G1 X68.958 Y58.346 E31.49272
G1 X68.958 Y62.655 E31.66294
G1 X68.958 Y63.2 E31.68447
G1 X68.907 Y63.2 E31.68648
G0 F810 X68.412 Y63.2
G0 F2250 X68.162 Y63.2
G0 X68.412 Y62.655
G1 F420 E31.70604
G1 F900 X68.411 Y58.346 E31.86107
G1 X58.104 Y58.346 E32.23158
G1 X58.104 Y62.654 E32.38644
G1 X68.412 Y62.655 E32.75664
G0 F2250 X68.412 Y62.405
G1 F420 E31.25664
G0 F2250 X67.459 Y61.702
G0 X67.459 Y61.689
G0 X67.459 Y61.769
G0 X67.459 Y65.831
G0 X67.459 Y65.911
G0 X67.459 Y68.302
G0 X68.958 Y69.255
G1 F420 E32.75664
G1 F900 X68.958 Y69.8 E32.77817
G1 X68.412 Y69.8 E32.79974
G1 X58.104 Y69.8 E33.20693
G1 X57.558 Y69.8 E33.22849
G1 X57.558 Y69.254 E33.25006
G1 X57.558 Y64.946 E33.42024
G1 X57.558 Y64.4 E33.44181
G1 X58.104 Y64.4 E33.46337
G1 X68.411 Y64.4 E33.87052
G1 X68.958 Y64.4 E33.89213
G1 X68.958 Y64.946 E33.9137
G1 X68.958 Y68.76 E34.06436
G0 F810 X68.958 Y69.255
G0 F2250 X68.958 Y69.505
G0 X68.412 Y69.255
G1 F420 E34.08391
G1 F900 X68.411 Y64.946 E34.23895
G1 X58.104 Y64.946 E34.60946
G1 X58.104 Y69.254 E34.76432
G1 X68.412 Y69.255 E35.13452
G0 F2250 X68.412 Y69.005
G1 F420 E33.63452
G0 F2250 X67.459 Y68.302
G0 X67.459 Y68.289
G0 X67.459 Y68.369
G0 X67.459 Y72.431
G0 X67.459 Y72.511
G0 X67.459 Y74.902
G0 X68.958 Y75.855
G1 F420 E35.13452
G1 F900 X68.958 Y76.4 E35.15605
G1 X68.412 Y76.4 E35.17762
G1 X58.104 Y76.4 E35.5848
G1 X57.558 Y76.4 E35.60637
G1 X57.558 Y75.854 E35.62794
G1 X57.558 Y71.546 E35.79812
G1 X57.558 Y71 E35.81968
G1 X58.104 Y71 E35.84125
G1 X68.411 Y71 E36.2484
G1 X68.958 Y71 E36.27001
G1 X68.958 Y71.546 E36.29158
G1 X68.958 Y75.36 E36.44224
G0 F810 X68.958 Y75.855
G0 F2250 X68.958 Y76.105
G0 X68.412 Y75.855
G1 F420 E36.46179
G1 F900 X68.411 Y71.546 E36.61683
G1 X58.104 Y71.546 E36.98733
G1 X58.104 Y75.854 E37.14219
G1 X68.412 Y75.855 E37.5124
G0 F2250 X68.412 Y75.605
G0 X68.958 Y78.146
G1 F900 X68.958 Y82.455 E37.68261
G1 X68.958 Y83 E37.70414
G1 X68.412 Y83 E37.72571
G1 X58.104 Y83 E38.1329
G1 X57.558 Y83 E38.15446
G1 X57.558 Y82.454 E38.17603
G1 X57.558 Y78.146 E38.34621
G1 X57.558 Y77.6 E38.36778
G1 X58.104 Y77.6 E38.38934
G1 X68.411 Y77.6 E38.79649
G1 X68.958 Y77.6 E38.8181
G1 X68.958 Y77.651 E38.82012
G0 F810 X68.958 Y78.146
G0 F2250 X68.958 Y78.396
G0 X68.411 Y78.146
G1 F420 E38.83967
G1 F900 X58.104 Y78.146 E39.21017
G1 X58.104 Y82.454 E39.36503
G1 X68.412 Y82.455 E39.73524
G1 X68.411 Y78.146 E39.89027
G0 F2250 X68.161 Y78.146
G1 F420 E38.39027
G0 F2250 X67.458 Y79.099
G0 X67.458 Y81.489
G0 X67.458 Y81.569
G0 X67.458 Y85.631
G0 X67.458 Y85.711
G0 X67.458 Y85.699
G0 X68.958 Y84.746
G1 F420 E39.89027
G1 F900 X68.958 Y89.055 E40.06049
G1 X68.958 Y89.6 E40.08202
G1 X68.412 Y89.6 E40.10358
G1 X58.104 Y89.6 E40.51077
G1 X57.558 Y89.6 E40.53234
G1 X57.558 Y89.054 E40.55391
G1 X57.558 Y84.746 E40.72409
G1 X57.558 Y84.2 E40.74565
G1 X58.104 Y84.2 E40.76722
G1 X68.411 Y84.2 E41.17437
G1 X68.958 Y84.2 E41.19598
G1 X68.958 Y84.251 E41.19799
G0 F810 X68.958 Y84.746
G0 F2250 X68.958 Y84.996
G0 X68.411 Y84.746
G1 F420 E41.21755
G1 F900 X58.104 Y84.746 E41.58805
G1 X58.104 Y89.054 E41.74291
G1 X68.412 Y89.055 E42.11311
G1 X68.411 Y84.746 E42.26815
G0 F2250 X68.161 Y84.746
G1 F420 E40.76815
G0 F2250 X67.458 Y85.699
G0 X67.458 Y88.089
G0 X67.458 Y88.169
G0 X67.458 Y92.231
G0 X67.458 Y92.311
G0 X67.458 Y92.299
G0 X68.411 Y90.8
G1 F420 E42.26815
G1 F900 X68.958 Y90.8 E42.28976
G1 X68.958 Y91.346 E42.31133
G1 X68.958 Y95.655 E42.48154
G1 X68.958 Y96.2 E42.50307
G1 X68.412 Y96.2 E42.52464
G1 X58.104 Y96.2 E42.93183
G1 X57.558 Y96.2 E42.95339
G1 X57.558 Y95.654 E42.97496
G1 X57.558 Y91.346 E43.14514
G1 X57.558 Y90.8 E43.16671
G1 X58.104 Y90.8 E43.18827
G1 X67.916 Y90.8 E43.57587
G0 F810 X68.411 Y90.8
G0 F2250 X68.661 Y90.8
G0 X68.411 Y91.346
G1 F420 E43.59542
G1 F900 X58.104 Y91.346 E43.96593
G1 X58.104 Y95.654 E44.12079
G1 X68.412 Y95.655 E44.49099
G1 X68.411 Y91.346 E44.64603
G0 F2250 X68.161 Y91.346
G1 F420 E43.14603
G0 F2250 X67.458 Y92.299
G0 X67.458 Y94.689
G0 X67.458 Y94.769
G0 X67.458 Y98.831
G0 X67.458 Y98.911
G0 X67.458 Y98.899
G0 X68.411 Y97.4
G1 F420 E44.64603
G1 F900 X68.958 Y97.4 E44.66764
G1 X68.958 Y97.946 E44.6892
G1 X68.958 Y102.255 E44.85942
G1 X68.958 Y102.8 E44.88095
G1 X68.412 Y102.8 E44.90252
G1 X58.104 Y102.8 E45.3097
G1 X57.558 Y102.8 E45.33127
G1 X57.558 Y102.254 E45.35284
G1 X57.558 Y97.946 E45.52302
G1 X57.558 Y97.4 E45.54458
G1 X58.104 Y97.4 E45.56615
G1 X67.916 Y97.4 E45.95375
G0 F810 X68.411 Y97.4
G0 F2250 X68.661 Y97.4
G0 X68.411 Y97.946
G1 F420 E45.9733
G1 F900 X58.104 Y97.946 E46.34381
G1 X58.104 Y102.254 E46.49867
G1 X68.412 Y102.255 E46.86887
G1 X68.411 Y97.946 E47.02391
G0 F2250 X68.161 Y97.946
G1 F420 E45.52391
G0 F2250 X67.458 Y98.899
G0 X67.458 Y101.289
G0 X67.458 Y101.369
G0 X67.458 Y105.431
G0 X67.458 Y105.511
G0 X67.458 Y105.499
G0 X68.411 Y104
G1 F420 E47.02391
G1 F900 X68.958 Y104 E47.04551
G1 X68.958 Y104.546 E47.06708
G1 X68.958 Y108.855 E47.2373
G1 X68.958 Y109.4 E47.25882
G1 X68.412 Y109.4 E47.28039
G1 X58.104 Y109.4 E47.68758
G1 X57.558 Y109.4 E47.70915
G1 X57.558 Y108.854 E47.73072
G1 X57.558 Y104.546 E47.90089
G1 X57.558 Y104 E47.92246
G1 X58.104 Y104 E47.94403
G1 X67.916 Y104 E48.33162
G0 F810 X68.411 Y104
G0 F2250 X68.661 Y104
G0 X68.411 Y104.546
G1 F420 E48.35118
G1 F900 X58.104 Y104.546 E48.72168
G1 X58.104 Y108.854 E48.87654
G1 X68.412 Y108.855 E49.24675
G1 X68.411 Y104.546 E49.40178
G0 F2250 X68.161 Y104.546
G1 F420 E47.90178
G0 F2250 X67.458 Y105.499
G0 X67.458 Y107.889
G0 X67.458 Y107.969
G0 X67.458 Y112.031
G0 X67.458 Y112.111
G0 X67.458 Y112.099
G0 X68.411 Y110.6
G1 F420 E49.40178
G1 F900 X68.958 Y110.6 E49.42339
G1 X68.958 Y111.146 E49.44496
G1 X68.958 Y115.455 E49.61517
G1 X68.958 Y116 E49.6367
G1 X68.412 Y116 E49.65827
G1 X58.104 Y116 E50.06546
G1 X57.558 Y116 E50.08703
G1 X57.558 Y115.454 E50.1086
G1 X57.558 Y111.146 E50.27877
G1 X57.558 Y110.6 E50.30034
G1 X58.104 Y110.6 E50.32191
G1 X67.916 Y110.6 E50.7095
G0 F810 X68.411 Y110.6
G0 F2250 X68.661 Y110.6
G0 X68.411 Y111.146
G1 F420 E50.72906
G1 F900 X58.104 Y111.146 E51.09956
G1 X58.104 Y115.454 E51.25442
G1 X68.412 Y115.455 E51.62462
G1 X68.411 Y111.146 E51.77966
G0 F2250 X68.161 Y111.146
G1 F420 E50.27966
G0 F2250 X67.458 Y112.099
G0 X67.458 Y114.489
G0 X67.458 Y114.569
G0 X67.458 Y118.631
G0 X67.458 Y118.711
G0 X67.458 Y118.699
G0 X68.411 Y117.2
G1 F420 E51.77966
G1 F900 X68.958 Y117.2 E51.80127
G1 X68.958 Y117.746 E51.82284
G1 X68.958 Y122.055 E51.99305
G1 X68.958 Y122.6 E52.01458
G1 X68.412 Y122.6 E52.03615
G1 X58.104 Y122.6 E52.44334
G1 X57.558 Y122.6 E52.4649
G1 X57.558 Y122.054 E52.48647
G1 X57.558 Y117.746 E52.65665
G1 X57.558 Y117.2 E52.67822
G1 X58.104 Y117.2 E52.69978
G1 X67.916 Y117.2 E53.08738
G0 F810 X68.411 Y117.2
G0 F2250 X68.661 Y117.2
G0 X68.411 Y117.746
G1 F420 E53.10693
G1 F900 X58.104 Y117.746 E53.47744
G1 X58.104 Y122.054 E53.6323
G1 X68.412 Y122.055 E54.0025
G1 X68.411 Y117.746 E54.15754
G0 F2250 X68.161 Y117.746
G1 F420 E52.65754
G0 F2250 X67.458 Y118.699
G0 X67.458 Y121.089
G0 X67.458 Y121.169
G0 X67.458 Y125.231
G0 X67.458 Y125.311
G0 X67.458 Y125.299
G0 X68.411 Y123.8
G1 F420 E54.15754
G1 F900 X68.958 Y123.8 E54.17915
G1 X68.958 Y124.346 E54.20071
G1 X68.958 Y128.655 E54.37093
G1 X68.958 Y129.2 E54.39246
G1 X68.412 Y129.2 E54.41403
G1 X58.104 Y129.2 E54.82121
G1 X57.558 Y129.2 E54.84278
G1 X57.558 Y128.654 E54.86435
G1 X57.558 Y124.346 E55.03453
