;Generated by Cura LulzBot Edition GCodeWriter Version: 2.6.69
;FLAVOR:RepRap
;TIME:9337
;Filament used: 4.68956m
;Layer height: 0.378
;Generated with Cura_SteamEngine 2.6.69
;This G-Code has been generated specifically for the LulzBot Mini with Aerostruder
G26 ; clear potential 'probe fail' condition
G21 ; set units to Millimetres
M107 ; disable fans
G90 ; absolute positioning
M82 ; set extruder to absolute mode
G92 E0 ; set extruder position to 0
M140 S115 ; start bed heating up
G28 ; home all axes
G0 X0 Y187 Z156 F200 ; move away from endstops
M109 R170 ; soften filament before retraction
G1 E-15 F75 ; retract filament
M109 R170 ; wait for extruder to reach wiping temp
G1 X45 Y173 F11520 ; move above wiper pad
G1 Z0 F1200 ; push nozzle into wiper
G1 X42 Y173 Z-.5 F4000 ; wiping
G1 X52 Y171 Z-.5 F4000 ; wiping
G1 X42 Y173 Z0 F4000 ; wiping
G1 X52 Y171 F4000 ; wiping
G1 X42 Y173 F4000 ; wiping
G1 X52 Y171 F4000 ; wiping
G1 X42 Y173 F4000 ; wiping
G1 X52 Y171 F4000 ; wiping
G1 X57 Y173 F4000 ; wiping
G1 X77 Y171 F4000 ; wiping
G1 X57 Y173 F4000 ; wiping
G1 X77 Y171 F4000 ; wiping
G1 X57 Y173 F4000 ; wiping
G1 X87 Y171 F4000 ; wiping
G1 X77 Y173 F4000 ; wiping
G1 X97 Y171 F4000 ; wiping
G1 X77 Y173 F4000 ; wiping
G1 X97 Y171 F4000 ; wiping
G1 X77 Y173 F4000 ; wiping
G1 X97 Y171 F4000 ; wiping
G1 X107 Y173 F4000 ; wiping
G1 X97 Y171 F4000 ; wiping
G1 X107 Y173 F4000 ; wiping
G1 X97 Y171 F4000 ; wiping
G1 X107 Y173 F4000 ; wiping
G1 X112 Y171 Z-0.5 F1000 ; wiping
G1 Z10 ; raise extruder
G28 X0 Y0 ; home X and Y
G0 X0 Y187 F200 ; move away from endstops
M109 R170 ; wait for extruder to reach probe temp
M204 S300 ; set probing acceleration
G29 ; start auto-leveling sequence
M204 S2000 ; restore standard acceleration
G28 X0 Y0 ; re-home to account for build variance of earlier mini builds
G0 X0 Y187 F200 ; move away from endstops
G0 Y152 F4000 ; move in front of wiper pad
G4 S1 ; pause
M400 ; wait for moves to finish
M117 Heating... ; progress indicator message on LCD
M109 R245 ; wait for extruder to reach printing temp
M190 S116 ; wait for bed to reach printing temp
G1 Z2 E0 F75 ; prime tiny bit of filament into the nozzle
M117 Mini Printing... ; progress indicator message on LCD


M221 S100
;LAYER_COUNT:21
;LAYER:0
M107
M204 S1000
M205 X10
G0 F2250 X49.503 Y6.009 Z0.42
;TYPE:SKIRT
G1 F900 X49.543 Y5.69 E0.0127
G1 X49.66 Y5.39 E0.02542
G1 X49.847 Y5.128 E0.03814
G1 X50.093 Y4.92 E0.05086
G1 X50.382 Y4.779 E0.06356
G1 X50.803 Y4.709 E0.08042
G1 X102.384 Y4.71 E2.11798
G1 X102.703 Y4.75 E2.13068
G1 X103.003 Y4.867 E2.1434
G1 X103.265 Y5.054 E2.15612
G1 X103.473 Y5.3 E2.16884
G1 X103.614 Y5.589 E2.18155
G1 X103.684 Y6.01 E2.19841
G1 X103.683 Y147.991 E7.80696
G1 X103.643 Y148.31 E7.81966
G1 X103.526 Y148.61 E7.83238
G1 X103.339 Y148.872 E7.8451
G1 X103.093 Y149.08 E7.85782
G1 X102.804 Y149.221 E7.87053
G1 X102.383 Y149.291 E7.88738
G1 X50.802 Y149.29 E9.92495
G1 X50.483 Y149.25 E9.93765
G1 X50.183 Y149.133 E9.95037
G1 X49.921 Y148.946 E9.96308
G1 X49.713 Y148.7 E9.97581
G1 X49.572 Y148.411 E9.98851
G1 X49.502 Y147.99 E10.00537
G1 X49.503 Y6.504 E15.59437
G0 F810 X49.503 Y6.009
G1 F420 E14.09437
G0 F2250 X50.135 Y6.503
G0 X50.198 Y6.552
G0 X53.385 Y9.036
G0 X53.446 Y9.257
G0 X53.736 Y9.31
G0 X56.618 Y11.556
G0 X56.681 Y11.605
G0 X60.14 Y14.301
G0 X62.493 Y15.7
;TYPE:WALL-OUTER
G1 F420 E15.61393
G1 F900 X61.093 Y15.7 E15.66923
G1 X52.493 Y15.7 E16.00895
G1 X51.093 Y15.7 E16.06425
G1 X51.093 Y6.3 E16.43557
G1 X62.493 Y6.3 E16.8859
G1 X62.493 Y15.205 E17.23766
G0 F810 X62.493 Y15.7
G0 F2250 X62.243 Y15.7
G1 F420 E15.73766
G0 F2250 X60.14 Y14.301
G0 X60.14 Y11.61
G0 X61.093 Y10.21
G1 F420 E17.25722
G1 F900 X61.093 Y7.61 E17.35992
G1 X52.493 Y7.61 E17.69964
G1 X52.493 Y10.21 E17.80235
G1 X60.598 Y10.21 E18.12251
G0 F810 X61.093 Y10.21
G0 F2250 X61.093 Y9.96
G1 F420 E16.62251
G0 F2250 X60.14 Y9.257
G0 X60.14 Y9.245
G0 X60.14 Y9.325
G0 X60.14 Y11.542
G0 X60.14 Y11.622
G0 X60.14 Y14.301
G0 X61.093 Y15.254
G1 F420 E18.14206
G1 F900 X61.093 Y10.657 E18.32366
G1 X52.493 Y10.656 E18.57646
G1 X52.493 Y15.253 E18.75805
G1 X61.093 Y15.254 E19.01086
G0 F2250 X61.093 Y15.004
G0 X61.6 Y15.419
;TYPE:SKIN
G1 F900 X61.6 Y6.579 E19.24366
G1 X61.6 Y6.429
G0 F2250 X61.2 Y6.579
G1 F900 X61.2 Y7.329 E19.26341
G0 F2250 X60.8 Y7.329
G1 F900 X60.8 Y6.579 E19.28316
G0 F2250 X60.4 Y6.579
G1 F900 X60.4 Y7.329 E19.30291
G0 F2250 X60 Y7.329
G1 F900 X60 Y6.579 E19.32267
G0 F2250 X59.6 Y6.579
G1 F900 X59.6 Y7.329 E19.34242
G0 F2250 X59.2 Y7.329
G1 F900 X59.2 Y6.579 E19.36217
G0 F2250 X58.8 Y6.579
G1 F900 X58.8 Y7.329 E19.38192
G0 F2250 X58.4 Y7.329
G1 F900 X58.4 Y6.579 E19.40167
G0 F2250 X58 Y6.579
G1 F900 X58 Y7.329 E19.42142
G0 F2250 X57.6 Y7.329
G1 F900 X57.6 Y6.579 E19.44117
G0 F2250 X57.2 Y6.579
G1 F900 X57.2 Y7.329 E19.46092
G0 F2250 X56.8 Y7.329
G1 F900 X56.8 Y6.579 E19.48067
G0 F2250 X56.4 Y6.579
G1 F900 X56.4 Y7.329 E19.50043
G0 F2250 X56 Y7.329
G1 F900 X56 Y6.579 E19.52018
G0 F2250 X55.6 Y6.579
G1 F900 X55.6 Y7.329 E19.53993
G0 F2250 X55.2 Y7.329
G1 F900 X55.2 Y6.579 E19.55968
G0 F2250 X54.8 Y6.579
G1 F900 X54.8 Y7.329 E19.57943
G0 F2250 X54.4 Y7.329
G1 F900 X54.4 Y6.579 E19.59918
G0 F2250 X54 Y6.579
G1 F900 X54 Y7.329 E19.61893
G0 F2250 X53.6 Y7.329
G1 F900 X53.6 Y6.579 E19.63868
G0 F2250 X53.2 Y6.579
G1 F900 X53.2 Y7.329 E19.65843
G0 F2250 X52.8 Y7.329
G1 F900 X52.8 Y6.579 E19.67818
G0 F2250 X52.4 Y6.579
G1 F900 X52.4 Y7.329 E19.69794
G0 F2250 X52 Y6.579
G1 F900 X52 Y15.419 E19.93074
G1 X52 Y15.569
G0 F2250 X51.6 Y15.419
G1 F900 X51.6 Y6.579 E20.16353
G1 X51.6 Y6.429
G1 F420 E18.66353
G0 F2250 X51.6 Y5.335
G0 X62 Y5.335
G0 X62 Y6.579
G1 F420 E20.16353
G1 F900 X62 Y15.419 E20.39633
G1 X62 Y15.569
G1 F420 E18.89633
G0 F2250 X60.14 Y14.301
G0 X60.14 Y14.288
G0 X60.14 Y14.368
G0 X60.14 Y19.495
G0 X60.14 Y19.563
G0 X60.14 Y20.257
G0 X60.14 Y20.325
G0 X60.14 Y22.542
G0 X60.14 Y22.622
G0 X60.14 Y25.301
G0 X62.493 Y26.7
;TYPE:WALL-OUTER
G1 F420 E20.39633
G1 F900 X61.093 Y26.7 E20.45164
G1 X52.493 Y26.7 E20.79136
G1 X51.093 Y26.7 E20.84666
G1 X51.093 Y17.3 E21.21798
G1 X62.493 Y17.3 E21.6683
G1 X62.493 Y26.205 E22.02007
G0 F810 X62.493 Y26.7
G0 F2250 X62.243 Y26.7
G1 F420 E20.52007
G0 F2250 X60.14 Y25.301
G0 X60.14 Y22.61
G0 X61.093 Y21.21
G1 F420 E22.03962
G1 F900 X61.093 Y18.61 E22.14233
G1 X52.493 Y18.61 E22.48205
G1 X52.493 Y21.21 E22.58475
G1 X60.598 Y21.21 E22.90492
G0 F810 X61.093 Y21.21
G0 F2250 X61.093 Y20.96
G1 F420 E21.40492
G0 F2250 X60.14 Y20.257
G0 X60.14 Y20.245
G0 X60.14 Y20.325
G0 X60.14 Y22.542
G0 X60.14 Y22.622
G0 X60.14 Y25.301
G0 X61.093 Y26.254
G1 F420 E22.92447
G1 F900 X61.093 Y21.657 E23.10606
G1 X52.493 Y21.656 E23.35887
G1 X52.493 Y26.253 E23.54046
G1 X61.093 Y26.254 E23.79327
G0 F2250 X61.093 Y26.004
G0 X61.6 Y26.419
;TYPE:SKIN
G1 F900 X61.6 Y17.579 E24.02607
G1 X61.6 Y17.429
G0 F2250 X61.2 Y17.579
G1 F900 X61.2 Y18.329 E24.04582
G0 F2250 X60.8 Y18.329
G1 F900 X60.8 Y17.579 E24.06557
G0 F2250 X60.4 Y17.579
G1 F900 X60.4 Y18.329 E24.08532
G0 F2250 X60 Y18.329
G1 F900 X60 Y17.579 E24.10507
G0 F2250 X59.6 Y17.579
G1 F900 X59.6 Y18.329 E24.12483
G0 F2250 X59.2 Y18.329
G1 F900 X59.2 Y17.579 E24.14458
G0 F2250 X58.8 Y17.579
G1 F900 X58.8 Y18.329 E24.16433
G0 F2250 X58.4 Y18.329
G1 F900 X58.4 Y17.579 E24.18408
G0 F2250 X58 Y17.579
G1 F900 X58 Y18.329 E24.20383
G0 F2250 X57.6 Y18.329
G1 F900 X57.6 Y17.579 E24.22358
G0 F2250 X57.2 Y17.579
G1 F900 X57.2 Y18.329 E24.24333
G0 F2250 X56.8 Y18.329
G1 F900 X56.8 Y17.579 E24.26308
G0 F2250 X56.4 Y17.579
G1 F900 X56.4 Y18.329 E24.28283
G0 F2250 X56 Y18.329
G1 F900 X56 Y17.579 E24.30259
G0 F2250 X55.6 Y17.579
G1 F900 X55.6 Y18.329 E24.32234
G0 F2250 X55.2 Y18.329
G1 F900 X55.2 Y17.579 E24.34209
G0 F2250 X54.8 Y17.579
G1 F900 X54.8 Y18.329 E24.36184
G0 F2250 X54.4 Y18.329
G1 F900 X54.4 Y17.579 E24.38159
G0 F2250 X54 Y17.579
G1 F900 X54 Y18.329 E24.40134
G0 F2250 X53.6 Y18.329
G1 F900 X53.6 Y17.579 E24.42109
G0 F2250 X53.2 Y17.579
G1 F900 X53.2 Y18.329 E24.44084
G0 F2250 X52.8 Y18.329
G1 F900 X52.8 Y17.579 E24.46059
G0 F2250 X52.4 Y17.579
G1 F900 X52.4 Y18.329 E24.48035
G0 F2250 X52 Y17.579
G1 F900 X52 Y26.419 E24.71314
G1 X52 Y26.569
G0 F2250 X51.6 Y26.419
G1 F900 X51.6 Y17.579 E24.94594
G1 X51.6 Y17.429
G1 F420 E23.44594
G0 F2250 X50.128 Y17.429
G0 X50.129 Y17.428
G0 X50.207 Y17.445
G0 X59.97 Y19.526
G0 X60.049 Y19.543
G0 X60.14 Y19.563
G0 X62 Y17.579
G1 F420 E24.94594
G1 F900 X62 Y26.419 E25.17874
G1 X62 Y26.569
G1 F420 E23.67874
G0 F2250 X60.14 Y25.301
G0 X60.14 Y25.288
G0 X60.14 Y25.368
G0 X60.14 Y30.495
G0 X60.14 Y30.563
G0 X60.14 Y31.257
G0 X60.14 Y31.325
G0 X60.14 Y33.542
G0 X60.14 Y33.622
G0 X60.14 Y36.301
G0 X62.493 Y37.7
;TYPE:WALL-OUTER
G1 F420 E25.17874
G1 F900 X61.093 Y37.7 E25.23405
G1 X52.493 Y37.7 E25.57377
G1 X51.093 Y37.7 E25.62907
G1 X51.093 Y28.3 E26.00039
G1 X62.493 Y28.3 E26.45071
G1 X62.493 Y37.205 E26.80248
G0 F810 X62.493 Y37.7
G0 F2250 X62.243 Y37.7
G1 F420 E25.30248
G0 F2250 X60.14 Y36.301
G0 X60.14 Y33.61
G0 X61.093 Y32.21
G1 F420 E26.82203
G1 F900 X61.093 Y29.61 E26.92474
G1 X52.493 Y29.61 E27.26446
G1 X52.493 Y32.21 E27.36716
G1 X60.598 Y32.21 E27.68733
G0 F810 X61.093 Y32.21
G0 F2250 X61.093 Y31.96
G1 F420 E26.18733
G0 F2250 X60.14 Y31.257
G0 X60.14 Y31.245
G0 X60.14 Y31.325
G0 X60.14 Y33.542
G0 X60.14 Y33.622
G0 X60.14 Y36.301
G0 X61.093 Y37.254
G1 F420 E27.70688
G1 F900 X61.093 Y32.657 E27.88847
G1 X52.493 Y32.656 E28.14128
G1 X52.493 Y37.253 E28.32287
G1 X61.093 Y37.254 E28.57568
G0 F2250 X61.093 Y37.004
G0 X61.599 Y37.419
;TYPE:SKIN
G1 F900 X61.6 Y28.579 E28.80848
G1 X61.6 Y28.429
G0 F2250 X61.2 Y28.579
G1 F900 X61.2 Y29.329 E28.82823
G0 F2250 X60.8 Y29.329
G1 F900 X60.8 Y28.579 E28.84798
G0 F2250 X60.4 Y28.579
G1 F900 X60.4 Y29.329 E28.86773
G0 F2250 X60 Y29.329
G1 F900 X60 Y28.579 E28.88748
G0 F2250 X59.6 Y28.579
G1 F900 X59.6 Y29.329 E28.90723
G0 F2250 X59.2 Y29.329
G1 F900 X59.2 Y28.579 E28.92699
G0 F2250 X58.8 Y28.579
G1 F900 X58.8 Y29.329 E28.94674
G0 F2250 X58.4 Y29.329
G1 F900 X58.4 Y28.579 E28.96649
G0 F2250 X58 Y28.579
G1 F900 X58 Y29.329 E28.98624
G0 F2250 X57.6 Y29.329
G1 F900 X57.6 Y28.579 E29.00599
G0 F2250 X57.2 Y28.579
G1 F900 X57.2 Y29.329 E29.02574
G0 F2250 X56.8 Y29.329
G1 F900 X56.8 Y28.579 E29.04549
G0 F2250 X56.4 Y28.579
G1 F900 X56.4 Y29.329 E29.06524
G0 F2250 X56 Y29.329
G1 F900 X56 Y28.579 E29.08499
G0 F2250 X55.6 Y28.579
G1 F900 X55.6 Y29.329 E29.10475
G0 F2250 X55.2 Y29.329
G1 F900 X55.2 Y28.579 E29.1245
G0 F2250 X54.8 Y28.579
G1 F900 X54.8 Y29.329 E29.14425
G0 F2250 X54.4 Y29.329
G1 F900 X54.4 Y28.579 E29.164
G0 F2250 X54 Y28.579
G1 F900 X54 Y29.329 E29.18375
G0 F2250 X53.6 Y29.329
G1 F900 X53.6 Y28.579 E29.2035
G0 F2250 X53.2 Y28.579
G1 F900 X53.2 Y29.329 E29.22325
G0 F2250 X52.8 Y29.329
G1 F900 X52.8 Y28.579 E29.243
G0 F2250 X52.4 Y28.579
G1 F900 X52.4 Y29.329 E29.26275
G0 F2250 X52 Y28.579
G1 F900 X51.999 Y37.419 E29.49555
G1 X51.999 Y37.569
G0 F2250 X51.599 Y37.419
G1 F900 X51.6 Y28.579 E29.72835
G1 X51.6 Y28.429
G1 F420 E28.22835
G0 F2250 X50.128 Y28.429
G0 X50.129 Y28.428
G0 X50.207 Y28.445
G0 X59.97 Y30.526
G0 X60.049 Y30.542
G0 X60.14 Y30.563
G0 X62 Y28.579
G1 F420 E29.72835
G1 F900 X61.999 Y37.419 E29.96115
G1 X61.999 Y37.569
G1 F420 E28.46115
G0 F2250 X60.14 Y36.301
G0 X60.14 Y36.288
G0 X60.14 Y36.368
G0 X60.14 Y41.495
G0 X60.14 Y41.563
G0 X60.14 Y42.257
G0 X60.14 Y42.325
G0 X60.14 Y44.542
G0 X60.14 Y44.622
G0 X60.14 Y47.301
G0 X62.493 Y48.7
;TYPE:WALL-OUTER
G1 F420 E29.96115
G1 F900 X61.093 Y48.7 E30.01646
G1 X52.493 Y48.7 E30.35617
G1 X51.093 Y48.7 E30.41148
G1 X51.093 Y39.3 E30.7828
G1 X62.493 Y39.3 E31.23312
G1 X62.493 Y48.205 E31.58489
G0 F810 X62.493 Y48.7
G0 F2250 X62.243 Y48.7
G1 F420 E30.08489
G0 F2250 X60.14 Y47.301
G0 X60.14 Y44.61
G0 X61.093 Y43.21
G1 F420 E31.60444
G1 F900 X61.093 Y40.61 E31.70715
G1 X52.493 Y40.61 E32.04687
G1 X52.493 Y43.21 E32.14957
G1 X60.598 Y43.21 E32.46974
G0 F810 X61.093 Y43.21
G0 F2250 X61.093 Y42.96
G1 F420 E30.96974
G0 F2250 X60.14 Y42.257
G0 X60.14 Y42.245
G0 X60.14 Y42.325
G0 X60.14 Y44.542
G0 X60.14 Y44.622
G0 X60.14 Y47.301
G0 X61.093 Y48.254
G1 F420 E32.48929
G1 F900 X61.093 Y43.657 E32.67088
G1 X52.493 Y43.656 E32.92369
G1 X52.493 Y48.253 E33.10528
G1 X61.093 Y48.254 E33.35809
G0 F2250 X61.093 Y48.004
G0 X61.599 Y48.419
;TYPE:SKIN
G1 F900 X61.599 Y39.579 E33.59089
G1 X61.599 Y39.429
G0 F2250 X61.199 Y39.579
G1 F900 X61.199 Y40.329 E33.61064
G0 F2250 X60.799 Y40.329
G1 F900 X60.799 Y39.579 E33.63039
G0 F2250 X60.399 Y39.579
G1 F900 X60.399 Y40.329 E33.65014
G0 F2250 X59.999 Y40.329
G1 F900 X59.999 Y39.579 E33.66989
G0 F2250 X59.599 Y39.579
G1 F900 X59.599 Y40.329 E33.68964
G0 F2250 X59.199 Y40.329
G1 F900 X59.199 Y39.579 E33.70939
G0 F2250 X58.799 Y39.579
G1 F900 X58.799 Y40.329 E33.72915
G0 F2250 X58.399 Y40.329
G1 F900 X58.399 Y39.579 E33.7489
G0 F2250 X57.999 Y39.579
G1 F900 X57.999 Y40.329 E33.76865
G0 F2250 X57.599 Y40.329
G1 F900 X57.599 Y39.579 E33.7884
G0 F2250 X57.199 Y39.579
G1 F900 X57.199 Y40.329 E33.80815
G0 F2250 X56.799 Y40.329
G1 F900 X56.799 Y39.579 E33.8279
G0 F2250 X56.399 Y39.579
G1 F900 X56.399 Y40.329 E33.84765
G0 F2250 X55.999 Y40.329
G1 F900 X55.999 Y39.579 E33.8674
G0 F2250 X55.599 Y39.579
G1 F900 X55.599 Y40.329 E33.88715
G0 F2250 X55.199 Y40.329
G1 F900 X55.199 Y39.579 E33.90691
G0 F2250 X54.799 Y39.579
G1 F900 X54.799 Y40.329 E33.92666
G0 F2250 X54.399 Y40.329
G1 F900 X54.399 Y39.579 E33.94641
G0 F2250 X53.999 Y39.579
G1 F900 X53.999 Y40.329 E33.96616
G0 F2250 X53.599 Y40.329
G1 F900 X53.599 Y39.579 E33.98591
G0 F2250 X53.199 Y39.579
G1 F900 X53.199 Y40.329 E34.00566
G0 F2250 X52.799 Y40.329
G1 F900 X52.799 Y39.579 E34.02541
G0 F2250 X52.399 Y39.579
G1 F900 X52.399 Y40.329 E34.04516
G0 F2250 X51.999 Y39.579
G1 F900 X51.999 Y48.419 E34.27796
G1 X51.999 Y48.569
G0 F2250 X51.599 Y48.419
G1 F900 X51.599 Y39.579 E34.51076
G1 X51.599 Y39.429
G1 F420 E33.01076
G0 F2250 X50.128 Y39.429
G0 X50.207 Y39.445
G0 X59.965 Y41.525
G0 X60.044 Y41.542
G0 X60.14 Y41.563
G0 X61.999 Y39.579
G1 F420 E34.51076
G1 F900 X61.999 Y48.419 E34.74356
G1 X61.999 Y48.569
G1 F420 E33.24356
G0 F2250 X60.14 Y47.301
G0 X60.14 Y47.288
G0 X60.14 Y47.368
G0 X60.14 Y52.495
G0 X60.14 Y52.563
G0 X60.14 Y53.257
G0 X60.14 Y53.325
G0 X60.14 Y55.542
G0 X60.14 Y55.622
G0 X60.14 Y58.301
G0 X62.493 Y59.7
;TYPE:WALL-OUTER
G1 F420 E34.74356
G1 F900 X61.093 Y59.7 E34.79886
G1 X52.493 Y59.7 E35.13858
G1 X51.093 Y59.7 E35.19389
G1 X51.093 Y50.3 E35.56521
G1 X62.493 Y50.3 E36.01553
G1 X62.493 Y59.205 E36.3673
G0 F810 X62.493 Y59.7
G0 F2250 X62.243 Y59.7
G1 F420 E34.8673
G0 F2250 X60.14 Y58.301
G0 X60.14 Y55.61
G0 X61.093 Y54.21
G1 F420 E36.38685
G1 F900 X61.093 Y51.61 E36.48956
G1 X52.493 Y51.61 E36.82928
G1 X52.493 Y54.21 E36.93198
G1 X60.598 Y54.21 E37.25215
G0 F810 X61.093 Y54.21
G0 F2250 X61.093 Y53.96
G1 F420 E35.75215
G0 F2250 X60.14 Y53.257
G0 X60.14 Y53.245
G0 X60.14 Y53.325
G0 X60.14 Y55.542
G0 X60.14 Y55.622
G0 X60.14 Y58.301
G0 X61.093 Y59.254
G1 F420 E37.2717
G1 F900 X61.093 Y54.657 E37.45329
G1 X52.493 Y54.656 E37.7061
G1 X52.493 Y59.253 E37.88769
G1 X61.093 Y59.254 E38.1405
G0 F2250 X61.093 Y59.004
G0 X61.599 Y59.419
;TYPE:SKIN
G1 F900 X61.599 Y50.579 E38.3733
G1 X61.599 Y50.429
G0 F2250 X61.199 Y50.579
G1 F900 X61.199 Y51.329 E38.39305
G0 F2250 X60.799 Y51.329
G1 F900 X60.799 Y50.579 E38.4128
G0 F2250 X60.399 Y50.579
G1 F900 X60.399 Y51.329 E38.43255
G0 F2250 X59.999 Y51.329
G1 F900 X59.999 Y50.579 E38.4523
G0 F2250 X59.599 Y50.579
G1 F900 X59.599 Y51.329 E38.47205
G0 F2250 X59.199 Y51.329
G1 F900 X59.199 Y50.579 E38.4918
G0 F2250 X58.799 Y50.579
G1 F900 X58.799 Y51.329 E38.51155
G0 F2250 X58.399 Y51.329
G1 F900 X58.399 Y50.579 E38.53131
G0 F2250 X57.999 Y50.579
G1 F900 X57.999 Y51.329 E38.55106
G0 F2250 X57.599 Y51.329
G1 F900 X57.599 Y50.579 E38.57081
G0 F2250 X57.199 Y50.579
G1 F900 X57.199 Y51.329 E38.59056
G0 F2250 X56.799 Y51.329
G1 F900 X56.799 Y50.579 E38.61031
G0 F2250 X56.399 Y50.579
G1 F900 X56.399 Y51.329 E38.63006
G0 F2250 X55.999 Y51.329
G1 F900 X55.999 Y50.579 E38.64981
G0 F2250 X55.599 Y50.579
G1 F900 X55.599 Y51.329 E38.66956
G0 F2250 X55.199 Y51.329
