(Exported by FreeCAD)
(Post Processor: linuxcnc_post)
(Output Time:2018-03-02 10:20:35.451015)
(begin preamble)
G17 G90
G21
(begin operation: T1: 1/2 in endmill)
(machine: not set, mm/min)
(T1: 1/2 in endmill)
M6 T1 G43 H1
M8
M3 S3000
(finish operation: T1: 1/2 in endmill)
(begin operation: Profile_Faces)
(machine: not set, mm/min)
(Profile_Faces)
(Compensated Tool Path. Diameter: 12.7)
G0 Z5.000
G0 X155.960 Y3.700
G0 Z3.000
G1 X155.960 Y3.700 Z-2.000 F60.000
G2 X157.820 Y-0.790 Z-2.000 I-4.490 J-4.490 F720.000
G1 X157.820 Y-75.790 Z-2.000 F720.000
G2 X151.470 Y-82.140 Z-2.000 I-6.350 J-0.000 F720.000
G1 X1.470 Y-82.140 Z-2.000 F720.000
G2 X-4.880 Y-75.790 Z-2.000 I-0.000 J6.350 F720.000
G1 X-4.880 Y-0.790 Z-2.000 F720.000
G2 X1.470 Y5.560 Z-2.000 I6.350 J0.000 F720.000
G1 X151.470 Y5.560 Z-2.000 F720.000
G2 X155.960 Y3.700 Z-2.000 I0.000 J-6.350 F720.000
G1 X155.960 Y3.700 Z-4.000 F60.000
G2 X157.820 Y-0.790 Z-4.000 I-4.490 J-4.490 F720.000
G1 X157.820 Y-75.790 Z-4.000 F720.000
G2 X151.470 Y-82.140 Z-4.000 I-6.350 J-0.000 F720.000
G1 X1.470 Y-82.140 Z-4.000 F720.000
G2 X-4.880 Y-75.790 Z-4.000 I-0.000 J6.350 F720.000
G1 X-4.880 Y-0.790 Z-4.000 F720.000
G2 X1.470 Y5.560 Z-4.000 I6.350 J0.000 F720.000
G1 X151.470 Y5.560 Z-4.000 F720.000
G2 X155.960 Y3.700 Z-4.000 I0.000 J-6.350 F720.000
G1 X155.960 Y3.700 Z-6.000 F60.000
G2 X157.820 Y-0.790 Z-6.000 I-4.490 J-4.490 F720.000
G1 X157.820 Y-75.790 Z-6.000 F720.000
G2 X151.470 Y-82.140 Z-6.000 I-6.350 J-0.000 F720.000
G1 X1.470 Y-82.140 Z-6.000 F720.000
G2 X-4.880 Y-75.790 Z-6.000 I-0.000 J6.350 F720.000
G1 X-4.880 Y-0.790 Z-6.000 F720.000
G2 X1.470 Y5.560 Z-6.000 I6.350 J0.000 F720.000
G1 X151.470 Y5.560 Z-6.000 F720.000
G2 X155.960 Y3.700 Z-6.000 I0.000 J-6.350 F720.000
G1 X155.960 Y3.700 Z-8.000 F60.000
G2 X157.820 Y-0.790 Z-8.000 I-4.490 J-4.490 F720.000
G1 X157.820 Y-75.790 Z-8.000 F720.000
G2 X151.470 Y-82.140 Z-8.000 I-6.350 J-0.000 F720.000
G1 X1.470 Y-82.140 Z-8.000 F720.000
G2 X-4.880 Y-75.790 Z-8.000 I-0.000 J6.350 F720.000
G1 X-4.880 Y-0.790 Z-8.000 F720.000
G2 X1.470 Y5.560 Z-8.000 I6.350 J0.000 F720.000
G1 X151.470 Y5.560 Z-8.000 F720.000
G2 X155.960 Y3.700 Z-8.000 I0.000 J-6.350 F720.000
G1 X155.960 Y3.700 Z-10.000 F60.000
G2 X157.820 Y-0.790 Z-10.000 I-4.490 J-4.490 F720.000
G1 X157.820 Y-75.790 Z-10.000 F720.000
G2 X151.470 Y-82.140 Z-10.000 I-6.350 J-0.000 F720.000
G1 X1.470 Y-82.140 Z-10.000 F720.000
G2 X-4.880 Y-75.790 Z-10.000 I-0.000 J6.350 F720.000
G1 X-4.880 Y-0.790 Z-10.000 F720.000
G2 X1.470 Y5.560 Z-10.000 I6.350 J0.000 F720.000
G1 X151.470 Y5.560 Z-10.000 F720.000
G2 X155.960 Y3.700 Z-10.000 I0.000 J-6.350 F720.000
G1 X155.960 Y3.700 Z-12.000 F60.000
G2 X157.820 Y-0.790 Z-12.000 I-4.490 J-4.490 F720.000
G1 X157.820 Y-75.790 Z-12.000 F720.000
G2 X151.470 Y-82.140 Z-12.000 I-6.350 J-0.000 F720.000
G1 X1.470 Y-82.140 Z-12.000 F720.000
G2 X-4.880 Y-75.790 Z-12.000 I-0.000 J6.350 F720.000
G1 X-4.880 Y-0.790 Z-12.000 F720.000
G2 X1.470 Y5.560 Z-12.000 I6.350 J0.000 F720.000
G1 X151.470 Y5.560 Z-12.000 F720.000
G2 X155.960 Y3.700 Z-12.000 I0.000 J-6.350 F720.000
G1 X155.960 Y3.700 Z-14.000 F60.000
G2 X157.820 Y-0.790 Z-14.000 I-4.490 J-4.490 F720.000
G1 X157.820 Y-75.790 Z-14.000 F720.000
G2 X151.470 Y-82.140 Z-14.000 I-6.350 J-0.000 F720.000
G1 X1.470 Y-82.140 Z-14.000 F720.000
G2 X-4.880 Y-75.790 Z-14.000 I-0.000 J6.350 F720.000
G1 X-4.880 Y-0.790 Z-14.000 F720.000
G2 X1.470 Y5.560 Z-14.000 I6.350 J0.000 F720.000
G1 X151.470 Y5.560 Z-14.000 F720.000
G2 X155.960 Y3.700 Z-14.000 I0.000 J-6.350 F720.000
G1 X155.960 Y3.700 Z-16.000 F60.000
G2 X157.820 Y-0.790 Z-16.000 I-4.490 J-4.490 F720.000
G1 X157.820 Y-75.790 Z-16.000 F720.000
G2 X151.470 Y-82.140 Z-16.000 I-6.350 J-0.000 F720.000
G1 X1.470 Y-82.140 Z-16.000 F720.000
G2 X-4.880 Y-75.790 Z-16.000 I-0.000 J6.350 F720.000
G1 X-4.880 Y-0.790 Z-16.000 F720.000
G2 X1.470 Y5.560 Z-16.000 I6.350 J0.000 F720.000
G1 X151.470 Y5.560 Z-16.000 F720.000
G2 X155.960 Y3.700 Z-16.000 I0.000 J-6.350 F720.000
G1 X155.960 Y3.700 Z-18.000 F60.000
G2 X157.820 Y-0.790 Z-18.000 I-4.490 J-4.490 F720.000
G1 X157.820 Y-75.790 Z-18.000 F720.000
G2 X151.470 Y-82.140 Z-18.000 I-6.350 J-0.000 F720.000
G1 X1.470 Y-82.140 Z-18.000 F720.000
G2 X-4.880 Y-75.790 Z-18.000 I-0.000 J6.350 F720.000
G1 X-4.880 Y-0.790 Z-18.000 F720.000
G2 X1.470 Y5.560 Z-18.000 I6.350 J0.000 F720.000
G1 X151.470 Y5.560 Z-18.000 F720.000
G2 X155.960 Y3.700 Z-18.000 I0.000 J-6.350 F720.000
G1 X155.960 Y3.700 Z-20.000 F60.000
G2 X157.820 Y-0.790 Z-20.000 I-4.490 J-4.490 F720.000
G1 X157.820 Y-75.790 Z-20.000 F720.000
G2 X151.470 Y-82.140 Z-20.000 I-6.350 J-0.000 F720.000
G1 X1.470 Y-82.140 Z-20.000 F720.000
G2 X-4.880 Y-75.790 Z-20.000 I-0.000 J6.350 F720.000
G1 X-4.880 Y-0.790 Z-20.000 F720.000
G2 X1.470 Y5.560 Z-20.000 I6.350 J0.000 F720.000
G1 X151.470 Y5.560 Z-20.000 F720.000
G2 X155.960 Y3.700 Z-20.000 I0.000 J-6.350 F720.000
G1 X155.960 Y3.700 Z-20.500 F60.000
G2 X157.820 Y-0.790 Z-20.500 I-4.490 J-4.490 F720.000
G1 X157.820 Y-75.790 Z-20.500 F720.000
G2 X151.470 Y-82.140 Z-20.500 I-6.350 J-0.000 F720.000
G1 X1.470 Y-82.140 Z-20.500 F720.000
G2 X-4.880 Y-75.790 Z-20.500 I-0.000 J6.350 F720.000
G1 X-4.880 Y-0.790 Z-20.500 F720.000
G2 X1.470 Y5.560 Z-20.500 I6.350 J0.000 F720.000
G1 X151.470 Y5.560 Z-20.500 F720.000
G2 X155.960 Y3.700 Z-20.500 I0.000 J-6.350 F720.000
G0 Z5.000
(finish operation: Profile_Faces)
(begin operation: Profile_Faces001)
(machine: not set, mm/min)
(Profile_Faces001)
(Compensated Tool Path. Diameter: 12.7)
G0 Z5.000
G0 X152.425 Y0.165
G0 Z3.000
G1 X152.425 Y0.165 Z-2.000 F60.000
G2 X152.820 Y-0.790 Z-2.000 I-0.955 J-0.955 F720.000
G1 X152.820 Y-75.790 Z-2.000 F720.000
G2 X151.470 Y-77.140 Z-2.000 I-1.350 J0.000 F720.000
G1 X1.470 Y-77.140 Z-2.000 F720.000
G2 X0.120 Y-75.790 Z-2.000 I0.000 J1.350 F720.000
G1 X0.120 Y-0.790 Z-2.000 F720.000
G2 X1.470 Y0.560 Z-2.000 I1.350 J-0.000 F720.000
G1 X151.470 Y0.560 Z-2.000 F720.000
G2 X152.425 Y0.165 Z-2.000 I-0.000 J-1.350 F720.000
G1 X152.425 Y0.165 Z-4.000 F60.000
G2 X152.820 Y-0.790 Z-4.000 I-0.955 J-0.955 F720.000
G1 X152.820 Y-75.790 Z-4.000 F720.000
G2 X151.470 Y-77.140 Z-4.000 I-1.350 J0.000 F720.000
G1 X1.470 Y-77.140 Z-4.000 F720.000
G2 X0.120 Y-75.790 Z-4.000 I0.000 J1.350 F720.000
G1 X0.120 Y-0.790 Z-4.000 F720.000
G2 X1.470 Y0.560 Z-4.000 I1.350 J-0.000 F720.000
G1 X151.470 Y0.560 Z-4.000 F720.000
G2 X152.425 Y0.165 Z-4.000 I-0.000 J-1.350 F720.000
G1 X152.425 Y0.165 Z-6.000 F60.000
G2 X152.820 Y-0.790 Z-6.000 I-0.955 J-0.955 F720.000
G1 X152.820 Y-75.790 Z-6.000 F720.000
G2 X151.470 Y-77.140 Z-6.000 I-1.350 J0.000 F720.000
G1 X1.470 Y-77.140 Z-6.000 F720.000
G2 X0.120 Y-75.790 Z-6.000 I0.000 J1.350 F720.000
G1 X0.120 Y-0.790 Z-6.000 F720.000
G2 X1.470 Y0.560 Z-6.000 I1.350 J-0.000 F720.000
G1 X151.470 Y0.560 Z-6.000 F720.000
G2 X152.425 Y0.165 Z-6.000 I-0.000 J-1.350 F720.000
G1 X152.425 Y0.165 Z-8.000 F60.000
G2 X152.820 Y-0.790 Z-8.000 I-0.955 J-0.955 F720.000
G1 X152.820 Y-75.790 Z-8.000 F720.000
G2 X151.470 Y-77.140 Z-8.000 I-1.350 J0.000 F720.000
G1 X1.470 Y-77.140 Z-8.000 F720.000
G2 X0.120 Y-75.790 Z-8.000 I0.000 J1.350 F720.000
G1 X0.120 Y-0.790 Z-8.000 F720.000
G2 X1.470 Y0.560 Z-8.000 I1.350 J-0.000 F720.000
G1 X151.470 Y0.560 Z-8.000 F720.000
G2 X152.425 Y0.165 Z-8.000 I-0.000 J-1.350 F720.000
G1 X152.425 Y0.165 Z-10.000 F60.000
G2 X152.820 Y-0.790 Z-10.000 I-0.955 J-0.955 F720.000
G1 X152.820 Y-75.790 Z-10.000 F720.000
G2 X151.470 Y-77.140 Z-10.000 I-1.350 J0.000 F720.000
G1 X1.470 Y-77.140 Z-10.000 F720.000
G2 X0.120 Y-75.790 Z-10.000 I0.000 J1.350 F720.000
G1 X0.120 Y-0.790 Z-10.000 F720.000
G2 X1.470 Y0.560 Z-10.000 I1.350 J-0.000 F720.000
G1 X151.470 Y0.560 Z-10.000 F720.000
G2 X152.425 Y0.165 Z-10.000 I-0.000 J-1.350 F720.000
G0 Z5.000
(finish operation: Profile_Faces001)
(begin operation: Pocket_3D)
(machine: not set, mm/min)
(Pocket_3D)
G0 Z5.000
G0 X145.120 Y-7.140
G0 Z3.000
G1 X145.120 Y-7.140 Z-1.000 F60.000
G1 X92.581 Y-7.140 Z-1.000 F720.000
G2 X70.371 Y-17.456 Z-1.000 I-11.107 J-5.153 F720.000
G2 X70.367 Y-7.140 Z-1.000 I11.101 J5.163 F720.000
G1 X7.820 Y-7.140 Z-1.000 F720.000
G1 X7.820 Y-69.440 Z-1.000 F720.000
G1 X145.120 Y-69.440 Z-1.000 F720.000
G1 X145.120 Y-7.140 Z-1.000 F720.000
G0 X145.120 Y-7.140 Z5.000
G0 X138.770 Y-13.490 Z5.000
G0 X138.770 Y-13.490 Z2.000
G1 X138.770 Y-13.490 Z-1.000 F60.000
G1 X100.026 Y-13.490 Z-1.000 F720.000
G2 X62.922 Y-13.490 Z-1.000 I-18.552 J1.194 F720.000
G1 X14.170 Y-13.490 Z-1.000 F720.000
G1 X14.170 Y-63.090 Z-1.000 F720.000
G1 X138.770 Y-63.090 Z-1.000 F720.000
G1 X138.770 Y-13.490 Z-1.000 F720.000
G0 X138.770 Y-13.490 Z5.000
G0 X129.185 Y-23.723 Z5.000
G0 X129.185 Y-23.723 Z2.000
G1 X129.185 Y-23.723 Z-1.000 F60.000
G3 X116.817 Y-18.703 Z-1.000 I-12.711 J-13.570 F720.000
G3 X97.884 Y-36.950 Z-1.000 I-0.343 J-18.590 F720.000
G3 X116.131 Y-55.883 Z-1.000 I18.590 J-0.343 F720.000
G3 X129.185 Y-23.723 Z-1.000 I0.343 J18.590 F720.000
G0 X129.185 Y-23.723 Z5.000
G0 X124.845 Y-28.356 Z5.000
G0 X124.845 Y-28.356 Z2.000
G1 X124.845 Y-28.356 Z-1.000 F60.000
G3 X116.817 Y-25.053 Z-1.000 I-8.371 J-8.937 F720.000
G3 X104.234 Y-36.950 Z-1.000 I-0.343 J-12.240 F720.000
G3 X116.131 Y-49.533 Z-1.000 I12.240 J-0.343 F720.000
G3 X124.845 Y-28.356 Z-1.000 I0.343 J12.240 F720.000
G0 X124.845 Y-28.356 Z5.000
G0 X132.420 Y-56.470 Z5.000
G0 X132.420 Y-56.470 Z2.000
G1 X132.420 Y-56.470 Z-1.000 F60.000
G2 X132.088 Y-56.740 Z-1.000 I-4.338 J4.989 F720.000
G1 X132.420 Y-56.740 Z-1.000 F720.000
G1 X132.420 Y-56.470 Z-1.000 F720.000
G0 X132.420 Y-56.470 Z5.000
G0 X100.858 Y-56.740 Z5.000
G0 X100.858 Y-56.740 Z2.000
G1 X100.858 Y-56.740 Z-1.000 F60.000
G2 X91.635 Y-35.070 Z-1.000 I15.594 J19.434 F720.000
G2 X57.702 Y-19.840 Z-1.000 I-10.173 J22.752 F720.000
G1 X20.520 Y-19.840 Z-1.000 F720.000
G1 X20.520 Y-56.740 Z-1.000 F720.000
G1 X100.858 Y-56.740 Z-1.000 F720.000
G0 X100.858 Y-56.740 Z5.000
G0 X88.061 Y-50.390 Z5.000
G0 X88.061 Y-50.390 Z2.000
G1 X88.061 Y-50.390 Z-1.000 F60.000
G2 X85.765 Y-43.285 Z-1.000 I27.843 J12.920 F720.000
G2 X53.435 Y-26.190 Z-1.000 I-4.299 J30.989 F720.000
G1 X26.870 Y-26.190 Z-1.000 F720.000
G1 X26.870 Y-50.390 Z-1.000 F720.000
G1 X88.061 Y-50.390 Z-1.000 F720.000
G0 X88.061 Y-50.390 Z5.000
G0 X61.258 Y-44.040 Z5.000
G0 X61.258 Y-44.040 Z2.000
G1 X61.258 Y-44.040 Z-1.000 F60.000
G2 X49.752 Y-32.540 Z-1.000 I20.020 J31.538 F720.000
G1 X33.220 Y-32.540 Z-1.000 F720.000
G1 X33.220 Y-44.040 Z-1.000 F720.000
G1 X61.258 Y-44.040 Z-1.000 F720.000
G1 X61.258 Y-44.040 Z-2.000 F60.000
G2 X49.752 Y-32.540 Z-2.000 I20.020 J31.538 F720.000
G1 X33.220 Y-32.540 Z-2.000 F720.000
G1 X33.220 Y-44.040 Z-2.000 F720.000
G1 X61.258 Y-44.040 Z-2.000 F720.000
G0 X61.258 Y-44.040 Z5.000
G0 X64.665 Y-38.688 Z5.000
G0 X64.665 Y-38.688 Z1.000
G1 X64.665 Y-38.688 Z-2.000 F60.000
G2 X53.435 Y-26.190 Z-2.000 I16.801 J26.392 F720.000
G1 X26.870 Y-26.190 Z-2.000 F720.000
G1 X26.870 Y-50.390 Z-2.000 F720.000
G1 X88.061 Y-50.390 Z-2.000 F720.000
G2 X85.765 Y-43.285 Z-2.000 I27.843 J12.920 F720.000
G2 X64.665 Y-38.688 Z-2.000 I-4.299 J30.989 F720.000
G0 X64.665 Y-38.688 Z5.000
G0 X68.073 Y-33.338 Z5.000
G0 X68.073 Y-33.338 Z1.000
G1 X68.073 Y-33.338 Z-2.000 F60.000
G2 X57.702 Y-19.840 Z-2.000 I13.389 J21.021 F720.000
G1 X20.520 Y-19.840 Z-2.000 F720.000
G1 X20.520 Y-56.740 Z-2.000 F720.000
G1 X100.858 Y-56.740 Z-2.000 F720.000
G2 X91.635 Y-35.070 Z-2.000 I15.594 J19.434 F720.000
G2 X68.073 Y-33.338 Z-2.000 I-10.173 J22.752 F720.000
G0 X68.073 Y-33.338 Z5.000
G0 X71.488 Y-27.976 Z5.000
G0 X71.488 Y-27.976 Z1.000
G1 X71.488 Y-27.976 Z-2.000 F60.000
G2 X62.922 Y-13.490 Z-2.000 I9.986 J15.680 F720.000
G1 X14.170 Y-13.490 Z-2.000 F720.000
G1 X14.170 Y-63.090 Z-2.000 F720.000
G1 X138.770 Y-63.090 Z-2.000 F720.000
G1 X138.770 Y-13.490 Z-2.000 F720.000
G1 X100.026 Y-13.490 Z-2.000 F720.000
G2 X71.488 Y-27.976 Z-2.000 I-18.552 J1.194 F720.000
G0 X71.488 Y-27.976 Z5.000
G0 X74.897 Y-22.622 Z5.000
G0 X74.897 Y-22.622 Z1.000
G1 X74.897 Y-22.622 Z-2.000 F60.000
G2 X70.371 Y-17.456 Z-2.000 I6.577 J10.329 F720.000
G2 X70.367 Y-7.140 Z-2.000 I11.101 J5.163 F720.000
G1 X7.820 Y-7.140 Z-2.000 F720.000
G1 X7.820 Y-69.440 Z-2.000 F720.000
G1 X145.120 Y-69.440 Z-2.000 F720.000
G1 X145.120 Y-7.140 Z-2.000 F720.000
G1 X92.581 Y-7.140 Z-2.000 F720.000
G2 X74.897 Y-22.622 Z-2.000 I-11.107 J-5.153 F720.000
G0 X74.897 Y-22.622 Z5.000
G0 X98.940 Y-31.106 Z5.000
G0 X98.940 Y-31.106 Z1.000
G1 X98.940 Y-31.106 Z-2.000 F60.000
G3 X116.131 Y-55.883 Z-2.000 I17.534 J-6.187 F720.000
G3 X135.064 Y-37.636 Z-2.000 I0.343 J18.590 F720.000
G3 X116.817 Y-18.703 Z-2.000 I-18.590 J0.343 F720.000
G3 X98.940 Y-31.106 Z-2.000 I-0.343 J-18.590 F720.000
G0 X98.940 Y-31.106 Z5.000
G0 X104.927 Y-33.218 Z5.000
G0 X104.927 Y-33.218 Z1.000
G1 X104.927 Y-33.218 Z-2.000 F60.000
G3 X116.131 Y-49.533 Z-2.000 I11.547 J-4.075 F720.000
G3 X128.714 Y-37.636 Z-2.000 I0.343 J12.240 F720.000
G3 X116.817 Y-25.053 Z-2.000 I-12.240 J0.343 F720.000
G3 X104.927 Y-33.218 Z-2.000 I-0.343 J-12.240 F720.000
G0 X104.927 Y-33.218 Z5.000
G0 X132.088 Y-56.740 Z5.000
G0 X132.088 Y-56.740 Z1.000
G1 X132.088 Y-56.740 Z-2.000 F60.000
G1 X132.420 Y-56.740 Z-2.000 F720.000
G1 X132.420 Y-56.470 Z-2.000 F720.000
G2 X132.088 Y-56.740 Z-2.000 I-4.338 J4.989 F720.000
G1 X132.088 Y-56.740 Z-3.000 F60.000
G1 X132.420 Y-56.740 Z-3.000 F720.000
G1 X132.420 Y-56.470 Z-3.000 F720.000
G2 X132.088 Y-56.740 Z-3.000 I-4.338 J4.989 F720.000
G0 X132.088 Y-56.740 Z5.000
G0 X128.115 Y-51.791 Z5.000
G0 X128.115 Y-51.791 Z0.000
G1 X128.115 Y-51.791 Z-3.000 F60.000
G3 X116.817 Y-18.703 Z-3.000 I-11.641 J14.498 F720.000
G3 X97.884 Y-36.950 Z-3.000 I-0.343 J-18.590 F720.000
G3 X116.131 Y-55.883 Z-3.000 I18.590 J-0.343 F720.000
G3 X128.115 Y-51.791 Z-3.000 I0.343 J18.590 F720.000
G0 X128.115 Y-51.791 Z5.000
G0 X124.140 Y-46.841 Z5.000
G0 X124.140 Y-46.841 Z0.000
G1 X124.140 Y-46.841 Z-3.000 F60.000
G3 X116.817 Y-25.053 Z-3.000 I-7.666 J9.548 F720.000
G3 X104.234 Y-36.950 Z-3.000 I-0.343 J-12.240 F720.000
G3 X116.131 Y-49.533 Z-3.000 I12.240 J-0.343 F720.000
G3 X124.140 Y-46.841 Z-3.000 I0.343 J12.240 F720.000
G0 X124.140 Y-46.841 Z5.000
G0 X138.770 Y-46.841 Z5.000
G0 X138.770 Y-46.841 Z0.000
G1 X138.770 Y-46.841 Z-3.000 F60.000
G1 X138.770 Y-13.490 Z-3.000 F720.000
G1 X100.026 Y-13.490 Z-3.000 F720.000
G2 X62.922 Y-13.490 Z-3.000 I-18.552 J1.194 F720.000
G1 X14.170 Y-13.490 Z-3.000 F720.000
G1 X14.170 Y-63.090 Z-3.000 F720.000
G1 X138.770 Y-63.090 Z-3.000 F720.000
G1 X138.770 Y-46.841 Z-3.000 F720.000
G0 X138.770 Y-46.841 Z5.000
G0 X145.120 Y-46.841 Z5.000
G0 X145.120 Y-46.841 Z0.000
G1 X145.120 Y-46.841 Z-3.000 F60.000
G1 X145.120 Y-7.140 Z-3.000 F720.000
G1 X92.581 Y-7.140 Z-3.000 F720.000
G2 X70.371 Y-17.456 Z-3.000 I-11.107 J-5.153 F720.000
G2 X70.367 Y-7.140 Z-3.000 I11.101 J5.163 F720.000
G1 X7.820 Y-7.140 Z-3.000 F720.000
G1 X7.820 Y-69.440 Z-3.000 F720.000
G1 X145.120 Y-69.440 Z-3.000 F720.000
G1 X145.120 Y-46.841 Z-3.000 F720.000
G0 X145.120 Y-46.841 Z5.000
G0 X100.858 Y-56.740 Z5.000
G0 X100.858 Y-56.740 Z0.000
G1 X100.858 Y-56.740 Z-3.000 F60.000
G2 X91.635 Y-35.070 Z-3.000 I15.594 J19.434 F720.000
G2 X57.702 Y-19.840 Z-3.000 I-10.173 J22.752 F720.000
G1 X20.520 Y-19.840 Z-3.000 F720.000
G1 X20.520 Y-56.740 Z-3.000 F720.000
G1 X100.858 Y-56.740 Z-3.000 F720.000
G0 X100.858 Y-56.740 Z5.000
G0 X88.061 Y-50.390 Z5.000
G0 X88.061 Y-50.390 Z0.000
G1 X88.061 Y-50.390 Z-3.000 F60.000
G2 X85.765 Y-43.285 Z-3.000 I27.843 J12.920 F720.000
G2 X53.435 Y-26.190 Z-3.000 I-4.299 J30.989 F720.000
G1 X26.870 Y-26.190 Z-3.000 F720.000
G1 X26.870 Y-50.390 Z-3.000 F720.000
G1 X88.061 Y-50.390 Z-3.000 F720.000
G0 X88.061 Y-50.390 Z5.000
G0 X61.258 Y-44.040 Z5.000
G0 X61.258 Y-44.040 Z0.000
G1 X61.258 Y-44.040 Z-3.000 F60.000
G2 X49.752 Y-32.540 Z-3.000 I20.020 J31.538 F720.000
G1 X33.220 Y-32.540 Z-3.000 F720.000
G1 X33.220 Y-44.040 Z-3.000 F720.000
G1 X61.258 Y-44.040 Z-3.000 F720.000
G1 X61.258 Y-44.040 Z-4.000 F60.000
G2 X49.752 Y-32.540 Z-4.000 I20.020 J31.538 F720.000
G1 X33.220 Y-32.540 Z-4.000 F720.000
G1 X33.220 Y-44.040 Z-4.000 F720.000
G1 X61.258 Y-44.040 Z-4.000 F720.000
G0 X61.258 Y-44.040 Z5.000
G0 X64.665 Y-38.688 Z5.000
G0 X64.665 Y-38.688 Z-1.000
G1 X64.665 Y-38.688 Z-4.000 F60.000
G2 X53.435 Y-26.190 Z-4.000 I16.801 J26.392 F720.000
G1 X26.870 Y-26.190 Z-4.000 F720.000
G1 X26.870 Y-50.390 Z-4.000 F720.000
G1 X88.061 Y-50.390 Z-4.000 F720.000
G2 X85.765 Y-43.285 Z-4.000 I27.843 J12.920 F720.000
G2 X64.665 Y-38.688 Z-4.000 I-4.299 J30.989 F720.000
G0 X64.665 Y-38.688 Z5.000
G0 X68.073 Y-33.338 Z5.000
G0 X68.073 Y-33.338 Z-1.000
G1 X68.073 Y-33.338 Z-4.000 F60.000
G2 X57.702 Y-19.840 Z-4.000 I13.389 J21.021 F720.000
G1 X20.520 Y-19.840 Z-4.000 F720.000
G1 X20.520 Y-56.740 Z-4.000 F720.000
G1 X100.858 Y-56.740 Z-4.000 F720.000
G2 X91.635 Y-35.070 Z-4.000 I15.594 J19.434 F720.000
G2 X68.073 Y-33.338 Z-4.000 I-10.173 J22.752 F720.000
G0 X68.073 Y-33.338 Z5.000
G0 X71.488 Y-27.976 Z5.000
G0 X71.488 Y-27.976 Z-1.000
G1 X71.488 Y-27.976 Z-4.000 F60.000
G2 X62.922 Y-13.490 Z-4.000 I9.986 J15.680 F720.000
G1 X14.170 Y-13.490 Z-4.000 F720.000
G1 X14.170 Y-63.090 Z-4.000 F720.000
G1 X138.770 Y-63.090 Z-4.000 F720.000
G1 X138.770 Y-13.490 Z-4.000 F720.000
G1 X100.026 Y-13.490 Z-4.000 F720.000
G2 X71.488 Y-27.976 Z-4.000 I-18.552 J1.194 F720.000
G0 X71.488 Y-27.976 Z5.000
G0 X74.897 Y-22.622 Z5.000
G0 X74.897 Y-22.622 Z-1.000
G1 X74.897 Y-22.622 Z-4.000 F60.000
G2 X70.371 Y-17.456 Z-4.000 I6.577 J10.329 F720.000
G2 X70.367 Y-7.140 Z-4.000 I11.101 J5.163 F720.000
G1 X7.820 Y-7.140 Z-4.000 F720.000
G1 X7.820 Y-69.440 Z-4.000 F720.000
G1 X145.120 Y-69.440 Z-4.000 F720.000
G1 X145.120 Y-7.140 Z-4.000 F720.000
G1 X92.581 Y-7.140 Z-4.000 F720.000
G2 X74.897 Y-22.622 Z-4.000 I-11.107 J-5.153 F720.000
G0 X74.897 Y-22.622 Z5.000
G0 X98.940 Y-31.106 Z5.000
G0 X98.940 Y-31.106 Z-1.000
G1 X98.940 Y-31.106 Z-4.000 F60.000
G3 X116.131 Y-55.883 Z-4.000 I17.534 J-6.187 F720.000
G3 X135.064 Y-37.636 Z-4.000 I0.343 J18.590 F720.000
G3 X116.817 Y-18.703 Z-4.000 I-18.590 J0.343 F720.000
G3 X98.940 Y-31.106 Z-4.000 I-0.343 J-18.590 F720.000
G0 X98.940 Y-31.106 Z5.000
G0 X104.927 Y-33.218 Z5.000
G0 X104.927 Y-33.218 Z-1.000
G1 X104.927 Y-33.218 Z-4.000 F60.000
G3 X116.131 Y-49.533 Z-4.000 I11.547 J-4.075 F720.000
G3 X128.714 Y-37.636 Z-4.000 I0.343 J12.240 F720.000
G3 X116.817 Y-25.053 Z-4.000 I-12.240 J0.343 F720.000
G3 X104.927 Y-33.218 Z-4.000 I-0.343 J-12.240 F720.000
G0 X104.927 Y-33.218 Z5.000
G0 X132.088 Y-56.740 Z5.000
G0 X132.088 Y-56.740 Z-1.000
G1 X132.088 Y-56.740 Z-4.000 F60.000
G1 X132.420 Y-56.740 Z-4.000 F720.000
G1 X132.420 Y-56.470 Z-4.000 F720.000
G2 X132.088 Y-56.740 Z-4.000 I-4.338 J4.989 F720.000
G1 X132.088 Y-56.740 Z-5.000 F60.000
G1 X132.420 Y-56.740 Z-5.000 F720.000
G1 X132.420 Y-56.470 Z-5.000 F720.000
G2 X132.088 Y-56.740 Z-5.000 I-4.338 J4.989 F720.000
G0 X132.088 Y-56.740 Z5.000
G0 X128.115 Y-51.791 Z5.000
G0 X128.115 Y-51.791 Z-2.000
G1 X128.115 Y-51.791 Z-5.000 F60.000
G3 X116.817 Y-18.703 Z-5.000 I-11.641 J14.498 F720.000
G3 X97.884 Y-36.950 Z-5.000 I-0.343 J-18.590 F720.000
G3 X116.131 Y-55.883 Z-5.000 I18.590 J-0.343 F720.000
G3 X128.115 Y-51.791 Z-5.000 I0.343 J18.590 F720.000
G0 X128.115 Y-51.791 Z5.000
G0 X124.140 Y-46.841 Z5.000
G0 X124.140 Y-46.841 Z-2.000
G1 X124.140 Y-46.841 Z-5.000 F60.000
G3 X116.817 Y-25.053 Z-5.000 I-7.666 J9.548 F720.000
G3 X104.234 Y-36.950 Z-5.000 I-0.343 J-12.240 F720.000
G3 X116.131 Y-49.533 Z-5.000 I12.240 J-0.343 F720.000
G3 X124.140 Y-46.841 Z-5.000 I0.343 J12.240 F720.000
G0 X124.140 Y-46.841 Z5.000
G0 X138.770 Y-46.841 Z5.000
G0 X138.770 Y-46.841 Z-2.000
G1 X138.770 Y-46.841 Z-5.000 F60.000
G1 X138.770 Y-13.490 Z-5.000 F720.000
G1 X100.026 Y-13.490 Z-5.000 F720.000
G2 X62.922 Y-13.490 Z-5.000 I-18.552 J1.194 F720.000
G1 X14.170 Y-13.490 Z-5.000 F720.000
G1 X14.170 Y-63.090 Z-5.000 F720.000
G1 X138.770 Y-63.090 Z-5.000 F720.000
G1 X138.770 Y-46.841 Z-5.000 F720.000
G0 X138.770 Y-46.841 Z5.000
G0 X145.120 Y-46.841 Z5.000
G0 X145.120 Y-46.841 Z-2.000
G1 X145.120 Y-46.841 Z-5.000 F60.000
G1 X145.120 Y-7.140 Z-5.000 F720.000
G1 X92.581 Y-7.140 Z-5.000 F720.000
G2 X70.371 Y-17.456 Z-5.000 I-11.107 J-5.153 F720.000
G2 X70.367 Y-7.140 Z-5.000 I11.101 J5.163 F720.000
G1 X7.820 Y-7.140 Z-5.000 F720.000
G1 X7.820 Y-69.440 Z-5.000 F720.000
G1 X145.120 Y-69.440 Z-5.000 F720.000
G1 X145.120 Y-46.841 Z-5.000 F720.000
G0 X145.120 Y-46.841 Z5.000
G0 X100.858 Y-56.740 Z5.000
G0 X100.858 Y-56.740 Z-2.000
G1 X100.858 Y-56.740 Z-5.000 F60.000
G2 X91.635 Y-35.070 Z-5.000 I15.594 J19.434 F720.000
G2 X57.702 Y-19.840 Z-5.000 I-10.173 J22.752 F720.000
G1 X20.520 Y-19.840 Z-5.000 F720.000
G1 X20.520 Y-56.740 Z-5.000 F720.000
G1 X100.858 Y-56.740 Z-5.000 F720.000
G0 X100.858 Y-56.740 Z5.000
G0 X88.061 Y-50.390 Z5.000
G0 X88.061 Y-50.390 Z-2.000
G1 X88.061 Y-50.390 Z-5.000 F60.000
G2 X85.765 Y-43.285 Z-5.000 I27.843 J12.920 F720.000
G2 X53.435 Y-26.190 Z-5.000 I-4.299 J30.989 F720.000
G1 X26.870 Y-26.190 Z-5.000 F720.000
G1 X26.870 Y-50.390 Z-5.000 F720.000
G1 X88.061 Y-50.390 Z-5.000 F720.000
G0 X88.061 Y-50.390 Z5.000
G0 X61.258 Y-44.040 Z5.000
G0 X61.258 Y-44.040 Z-2.000
G1 X61.258 Y-44.040 Z-5.000 F60.000
G2 X49.752 Y-32.540 Z-5.000 I20.020 J31.538 F720.000
G1 X33.220 Y-32.540 Z-5.000 F720.000
G1 X33.220 Y-44.040 Z-5.000 F720.000
G1 X61.258 Y-44.040 Z-5.000 F720.000
G1 X61.258 Y-44.040 Z-6.000 F60.000
G2 X49.752 Y-32.540 Z-6.000 I20.020 J31.538 F720.000
G1 X33.220 Y-32.540 Z-6.000 F720.000
G1 X33.220 Y-44.040 Z-6.000 F720.000
G1 X61.258 Y-44.040 Z-6.000 F720.000
G0 X61.258 Y-44.040 Z5.000
G0 X64.665 Y-38.688 Z5.000
G0 X64.665 Y-38.688 Z-3.000
G1 X64.665 Y-38.688 Z-6.000 F60.000
G2 X53.435 Y-26.190 Z-6.000 I16.801 J26.392 F720.000
G1 X26.870 Y-26.190 Z-6.000 F720.000
G1 X26.870 Y-50.390 Z-6.000 F720.000
G1 X88.061 Y-50.390 Z-6.000 F720.000
G2 X85.765 Y-43.285 Z-6.000 I27.843 J12.920 F720.000
G2 X64.665 Y-38.688 Z-6.000 I-4.299 J30.989 F720.000
G0 X64.665 Y-38.688 Z5.000
G0 X68.073 Y-33.338 Z5.000
G0 X68.073 Y-33.338 Z-3.000
G1 X68.073 Y-33.338 Z-6.000 F60.000
G2 X57.702 Y-19.840 Z-6.000 I13.389 J21.021 F720.000
G1 X20.520 Y-19.840 Z-6.000 F720.000
G1 X20.520 Y-56.740 Z-6.000 F720.000
G1 X100.858 Y-56.740 Z-6.000 F720.000
G2 X91.635 Y-35.070 Z-6.000 I15.594 J19.434 F720.000
G2 X68.073 Y-33.338 Z-6.000 I-10.173 J22.752 F720.000
G0 X68.073 Y-33.338 Z5.000
G0 X71.488 Y-27.976 Z5.000
G0 X71.488 Y-27.976 Z-3.000
G1 X71.488 Y-27.976 Z-6.000 F60.000
G2 X62.922 Y-13.490 Z-6.000 I9.986 J15.680 F720.000
G1 X14.170 Y-13.490 Z-6.000 F720.000
G1 X14.170 Y-63.090 Z-6.000 F720.000
G1 X138.770 Y-63.090 Z-6.000 F720.000
G1 X138.770 Y-13.490 Z-6.000 F720.000
G1 X100.026 Y-13.490 Z-6.000 F720.000
G2 X71.488 Y-27.976 Z-6.000 I-18.552 J1.194 F720.000
G0 X71.488 Y-27.976 Z5.000
G0 X74.897 Y-22.622 Z5.000
G0 X74.897 Y-22.622 Z-3.000
G1 X74.897 Y-22.622 Z-6.000 F60.000
G2 X70.371 Y-17.456 Z-6.000 I6.577 J10.329 F720.000
G2 X70.367 Y-7.140 Z-6.000 I11.101 J5.163 F720.000
G1 X7.820 Y-7.140 Z-6.000 F720.000
G1 X7.820 Y-69.440 Z-6.000 F720.000
G1 X145.120 Y-69.440 Z-6.000 F720.000
G1 X145.120 Y-7.140 Z-6.000 F720.000
G1 X92.581 Y-7.140 Z-6.000 F720.000
G2 X74.897 Y-22.622 Z-6.000 I-11.107 J-5.153 F720.000
G0 X74.897 Y-22.622 Z5.000
G0 X98.940 Y-31.106 Z5.000
G0 X98.940 Y-31.106 Z-3.000
G1 X98.940 Y-31.106 Z-6.000 F60.000
G3 X116.131 Y-55.883 Z-6.000 I17.534 J-6.187 F720.000
G3 X135.064 Y-37.636 Z-6.000 I0.343 J18.590 F720.000
G3 X116.817 Y-18.703 Z-6.000 I-18.590 J0.343 F720.000
G3 X98.940 Y-31.106 Z-6.000 I-0.343 J-18.590 F720.000
G0 X98.940 Y-31.106 Z5.000
G0 X104.927 Y-33.218 Z5.000
G0 X104.927 Y-33.218 Z-3.000
G1 X104.927 Y-33.218 Z-6.000 F60.000
G3 X116.131 Y-49.533 Z-6.000 I11.547 J-4.075 F720.000
G3 X128.714 Y-37.636 Z-6.000 I0.343 J12.240 F720.000
G3 X116.817 Y-25.053 Z-6.000 I-12.240 J0.343 F720.000
G3 X104.927 Y-33.218 Z-6.000 I-0.343 J-12.240 F720.000
G0 X104.927 Y-33.218 Z5.000
G0 X132.088 Y-56.740 Z5.000
G0 X132.088 Y-56.740 Z-3.000
G1 X132.088 Y-56.740 Z-6.000 F60.000
G1 X132.420 Y-56.740 Z-6.000 F720.000
G1 X132.420 Y-56.470 Z-6.000 F720.000
G2 X132.088 Y-56.740 Z-6.000 I-4.338 J4.989 F720.000
G1 X132.088 Y-56.740 Z-7.000 F60.000
G1 X132.420 Y-56.740 Z-7.000 F720.000
G1 X132.420 Y-56.470 Z-7.000 F720.000
G2 X132.088 Y-56.740 Z-7.000 I-4.338 J4.989 F720.000
G0 X132.088 Y-56.740 Z5.000
G0 X128.115 Y-51.791 Z5.000
G0 X128.115 Y-51.791 Z-4.000
G1 X128.115 Y-51.791 Z-7.000 F60.000
G3 X116.817 Y-18.703 Z-7.000 I-11.641 J14.498 F720.000
G3 X97.884 Y-36.950 Z-7.000 I-0.343 J-18.590 F720.000
G3 X116.131 Y-55.883 Z-7.000 I18.590 J-0.343 F720.000
G3 X128.115 Y-51.791 Z-7.000 I0.343 J18.590 F720.000
G0 X128.115 Y-51.791 Z5.000
G0 X124.140 Y-46.841 Z5.000
G0 X124.140 Y-46.841 Z-4.000
G1 X124.140 Y-46.841 Z-7.000 F60.000
G3 X116.817 Y-25.053 Z-7.000 I-7.666 J9.548 F720.000
G3 X104.234 Y-36.950 Z-7.000 I-0.343 J-12.240 F720.000
G3 X116.131 Y-49.533 Z-7.000 I12.240 J-0.343 F720.000
G3 X124.140 Y-46.841 Z-7.000 I0.343 J12.240 F720.000
G0 X124.140 Y-46.841 Z5.000
G0 X138.770 Y-46.841 Z5.000
G0 X138.770 Y-46.841 Z-4.000
G1 X138.770 Y-46.841 Z-7.000 F60.000
G1 X138.770 Y-13.490 Z-7.000 F720.000
G1 X100.026 Y-13.490 Z-7.000 F720.000
G2 X62.922 Y-13.490 Z-7.000 I-18.552 J1.194 F720.000
G1 X14.170 Y-13.490 Z-7.000 F720.000
G1 X14.170 Y-63.090 Z-7.000 F720.000
G1 X138.770 Y-63.090 Z-7.000 F720.000
G1 X138.770 Y-46.841 Z-7.000 F720.000
G0 X138.770 Y-46.841 Z5.000
G0 X145.120 Y-46.841 Z5.000
G0 X145.120 Y-46.841 Z-4.000
G1 X145.120 Y-46.841 Z-7.000 F60.000
G1 X145.120 Y-7.140 Z-7.000 F720.000
G1 X92.581 Y-7.140 Z-7.000 F720.000
G2 X70.371 Y-17.456 Z-7.000 I-11.107 J-5.153 F720.000
G2 X70.367 Y-7.140 Z-7.000 I11.101 J5.163 F720.000
G1 X7.820 Y-7.140 Z-7.000 F720.000
G1 X7.820 Y-69.440 Z-7.000 F720.000
G1 X145.120 Y-69.440 Z-7.000 F720.000
G1 X145.120 Y-46.841 Z-7.000 F720.000
G0 X145.120 Y-46.841 Z5.000
G0 X100.858 Y-56.740 Z5.000
G0 X100.858 Y-56.740 Z-4.000
G1 X100.858 Y-56.740 Z-7.000 F60.000
G2 X91.635 Y-35.070 Z-7.000 I15.594 J19.434 F720.000
G2 X57.702 Y-19.840 Z-7.000 I-10.173 J22.752 F720.000
G1 X20.520 Y-19.840 Z-7.000 F720.000
G1 X20.520 Y-56.740 Z-7.000 F720.000
G1 X100.858 Y-56.740 Z-7.000 F720.000
G0 X100.858 Y-56.740 Z5.000
G0 X88.061 Y-50.390 Z5.000
G0 X88.061 Y-50.390 Z-4.000
G1 X88.061 Y-50.390 Z-7.000 F60.000
G2 X85.765 Y-43.285 Z-7.000 I27.843 J12.920 F720.000
G2 X53.435 Y-26.190 Z-7.000 I-4.299 J30.989 F720.000
G1 X26.870 Y-26.190 Z-7.000 F720.000
G1 X26.870 Y-50.390 Z-7.000 F720.000
G1 X88.061 Y-50.390 Z-7.000 F720.000
G0 X88.061 Y-50.390 Z5.000
G0 X61.258 Y-44.040 Z5.000
G0 X61.258 Y-44.040 Z-4.000
G1 X61.258 Y-44.040 Z-7.000 F60.000
G2 X49.752 Y-32.540 Z-7.000 I20.020 J31.538 F720.000
G1 X33.220 Y-32.540 Z-7.000 F720.000
G1 X33.220 Y-44.040 Z-7.000 F720.000
G1 X61.258 Y-44.040 Z-7.000 F720.000
G1 X61.258 Y-44.040 Z-8.000 F60.000
G2 X49.752 Y-32.540 Z-8.000 I20.020 J31.538 F720.000
G1 X33.220 Y-32.540 Z-8.000 F720.000
G1 X33.220 Y-44.040 Z-8.000 F720.000
G1 X61.258 Y-44.040 Z-8.000 F720.000
G0 X61.258 Y-44.040 Z5.000
G0 X64.665 Y-38.688 Z5.000
G0 X64.665 Y-38.688 Z-5.000
G1 X64.665 Y-38.688 Z-8.000 F60.000
G2 X53.435 Y-26.190 Z-8.000 I16.801 J26.392 F720.000
G1 X26.870 Y-26.190 Z-8.000 F720.000
G1 X26.870 Y-50.390 Z-8.000 F720.000
G1 X88.061 Y-50.390 Z-8.000 F720.000
G2 X85.765 Y-43.285 Z-8.000 I27.843 J12.920 F720.000
G2 X64.665 Y-38.688 Z-8.000 I-4.299 J30.989 F720.000
G0 X64.665 Y-38.688 Z5.000
G0 X68.073 Y-33.338 Z5.000
G0 X68.073 Y-33.338 Z-5.000
G1 X68.073 Y-33.338 Z-8.000 F60.000
G2 X57.702 Y-19.840 Z-8.000 I13.389 J21.021 F720.000
G1 X20.520 Y-19.840 Z-8.000 F720.000
G1 X20.520 Y-56.740 Z-8.000 F720.000
G1 X100.858 Y-56.740 Z-8.000 F720.000
G2 X91.635 Y-35.070 Z-8.000 I15.594 J19.434 F720.000
G2 X68.073 Y-33.338 Z-8.000 I-10.173 J22.752 F720.000
G0 X68.073 Y-33.338 Z5.000
G0 X71.488 Y-27.976 Z5.000
G0 X71.488 Y-27.976 Z-5.000
G1 X71.488 Y-27.976 Z-8.000 F60.000
G2 X62.922 Y-13.490 Z-8.000 I9.986 J15.680 F720.000
G1 X14.170 Y-13.490 Z-8.000 F720.000
G1 X14.170 Y-63.090 Z-8.000 F720.000
G1 X138.770 Y-63.090 Z-8.000 F720.000
G1 X138.770 Y-13.490 Z-8.000 F720.000
G1 X100.026 Y-13.490 Z-8.000 F720.000
G2 X71.488 Y-27.976 Z-8.000 I-18.552 J1.194 F720.000
G0 X71.488 Y-27.976 Z5.000
G0 X74.897 Y-22.622 Z5.000
G0 X74.897 Y-22.622 Z-5.000
G1 X74.897 Y-22.622 Z-8.000 F60.000
G2 X70.371 Y-17.456 Z-8.000 I6.577 J10.329 F720.000
G2 X70.367 Y-7.140 Z-8.000 I11.101 J5.163 F720.000
G1 X7.820 Y-7.140 Z-8.000 F720.000
G1 X7.820 Y-69.440 Z-8.000 F720.000
G1 X145.120 Y-69.440 Z-8.000 F720.000
G1 X145.120 Y-7.140 Z-8.000 F720.000
G1 X92.581 Y-7.140 Z-8.000 F720.000
G2 X74.897 Y-22.622 Z-8.000 I-11.107 J-5.153 F720.000
G0 X74.897 Y-22.622 Z5.000
G0 X98.940 Y-31.106 Z5.000
G0 X98.940 Y-31.106 Z-5.000
G1 X98.940 Y-31.106 Z-8.000 F60.000
G3 X116.131 Y-55.883 Z-8.000 I17.534 J-6.187 F720.000
G3 X135.064 Y-37.636 Z-8.000 I0.343 J18.590 F720.000
G3 X116.817 Y-18.703 Z-8.000 I-18.590 J0.343 F720.000
G3 X98.940 Y-31.106 Z-8.000 I-0.343 J-18.590 F720.000
G0 X98.940 Y-31.106 Z5.000
G0 X104.927 Y-33.218 Z5.000
G0 X104.927 Y-33.218 Z-5.000
G1 X104.927 Y-33.218 Z-8.000 F60.000
G3 X116.131 Y-49.533 Z-8.000 I11.547 J-4.075 F720.000
G3 X128.714 Y-37.636 Z-8.000 I0.343 J12.240 F720.000
G3 X116.817 Y-25.053 Z-8.000 I-12.240 J0.343 F720.000
G3 X104.927 Y-33.218 Z-8.000 I-0.343 J-12.240 F720.000
G0 X104.927 Y-33.218 Z5.000
G0 X132.088 Y-56.740 Z5.000
G0 X132.088 Y-56.740 Z-5.000
G1 X132.088 Y-56.740 Z-8.000 F60.000
G1 X132.420 Y-56.740 Z-8.000 F720.000
G1 X132.420 Y-56.470 Z-8.000 F720.000
G2 X132.088 Y-56.740 Z-8.000 I-4.338 J4.989 F720.000
G1 X132.088 Y-56.740 Z-9.000 F60.000
G1 X132.420 Y-56.740 Z-9.000 F720.000
G1 X132.420 Y-56.470 Z-9.000 F720.000
G2 X132.088 Y-56.740 Z-9.000 I-4.338 J4.989 F720.000
G0 X132.088 Y-56.740 Z5.000
G0 X128.115 Y-51.791 Z5.000
G0 X128.115 Y-51.791 Z-6.000
G1 X128.115 Y-51.791 Z-9.000 F60.000
G3 X116.817 Y-18.703 Z-9.000 I-11.641 J14.498 F720.000
G3 X97.884 Y-36.950 Z-9.000 I-0.343 J-18.590 F720.000
G3 X116.131 Y-55.883 Z-9.000 I18.590 J-0.343 F720.000
G3 X128.115 Y-51.791 Z-9.000 I0.343 J18.590 F720.000
G0 X128.115 Y-51.791 Z5.000
G0 X124.140 Y-46.841 Z5.000
G0 X124.140 Y-46.841 Z-6.000
G1 X124.140 Y-46.841 Z-9.000 F60.000
G3 X116.817 Y-25.053 Z-9.000 I-7.666 J9.548 F720.000
G3 X104.234 Y-36.950 Z-9.000 I-0.343 J-12.240 F720.000
G3 X116.131 Y-49.533 Z-9.000 I12.240 J-0.343 F720.000
G3 X124.140 Y-46.841 Z-9.000 I0.343 J12.240 F720.000
G0 X124.140 Y-46.841 Z5.000
G0 X138.770 Y-46.841 Z5.000
G0 X138.770 Y-46.841 Z-6.000
G1 X138.770 Y-46.841 Z-9.000 F60.000
G1 X138.770 Y-13.490 Z-9.000 F720.000
G1 X100.026 Y-13.490 Z-9.000 F720.000
G2 X62.922 Y-13.490 Z-9.000 I-18.552 J1.194 F720.000
G1 X14.170 Y-13.490 Z-9.000 F720.000
G1 X14.170 Y-63.090 Z-9.000 F720.000
G1 X138.770 Y-63.090 Z-9.000 F720.000
G1 X138.770 Y-46.841 Z-9.000 F720.000
G0 X138.770 Y-46.841 Z5.000
G0 X145.120 Y-46.841 Z5.000
G0 X145.120 Y-46.841 Z-6.000
G1 X145.120 Y-46.841 Z-9.000 F60.000
G1 X145.120 Y-7.140 Z-9.000 F720.000
G1 X92.581 Y-7.140 Z-9.000 F720.000
G2 X70.371 Y-17.456 Z-9.000 I-11.107 J-5.153 F720.000
G2 X70.367 Y-7.140 Z-9.000 I11.101 J5.163 F720.000
G1 X7.820 Y-7.140 Z-9.000 F720.000
G1 X7.820 Y-69.440 Z-9.000 F720.000
G1 X145.120 Y-69.440 Z-9.000 F720.000
G1 X145.120 Y-46.841 Z-9.000 F720.000
G0 X145.120 Y-46.841 Z5.000
G0 X100.858 Y-56.740 Z5.000
G0 X100.858 Y-56.740 Z-6.000
G1 X100.858 Y-56.740 Z-9.000 F60.000
G2 X91.635 Y-35.070 Z-9.000 I15.594 J19.434 F720.000
G2 X57.702 Y-19.840 Z-9.000 I-10.173 J22.752 F720.000
G1 X20.520 Y-19.840 Z-9.000 F720.000
G1 X20.520 Y-56.740 Z-9.000 F720.000
G1 X100.858 Y-56.740 Z-9.000 F720.000
G0 X100.858 Y-56.740 Z5.000
G0 X88.061 Y-50.390 Z5.000
G0 X88.061 Y-50.390 Z-6.000
G1 X88.061 Y-50.390 Z-9.000 F60.000
G2 X85.765 Y-43.285 Z-9.000 I27.843 J12.920 F720.000
G2 X53.435 Y-26.190 Z-9.000 I-4.299 J30.989 F720.000
G1 X26.870 Y-26.190 Z-9.000 F720.000
G1 X26.870 Y-50.390 Z-9.000 F720.000
G1 X88.061 Y-50.390 Z-9.000 F720.000
G0 X88.061 Y-50.390 Z5.000
G0 X61.258 Y-44.040 Z5.000
G0 X61.258 Y-44.040 Z-6.000
G1 X61.258 Y-44.040 Z-9.000 F60.000
G2 X49.752 Y-32.540 Z-9.000 I20.020 J31.538 F720.000
G1 X33.220 Y-32.540 Z-9.000 F720.000
G1 X33.220 Y-44.040 Z-9.000 F720.000
G1 X61.258 Y-44.040 Z-9.000 F720.000
G1 X61.258 Y-44.040 Z-10.000 F60.000
G2 X49.752 Y-32.540 Z-10.000 I20.020 J31.538 F720.000
G1 X33.220 Y-32.540 Z-10.000 F720.000
G1 X33.220 Y-44.040 Z-10.000 F720.000
G1 X61.258 Y-44.040 Z-10.000 F720.000
G0 X61.258 Y-44.040 Z5.000
G0 X64.665 Y-38.688 Z5.000
G0 X64.665 Y-38.688 Z-7.000
G1 X64.665 Y-38.688 Z-10.000 F60.000
G2 X53.435 Y-26.190 Z-10.000 I16.801 J26.392 F720.000
G1 X26.870 Y-26.190 Z-10.000 F720.000
G1 X26.870 Y-50.390 Z-10.000 F720.000
G1 X88.061 Y-50.390 Z-10.000 F720.000
G2 X85.765 Y-43.285 Z-10.000 I27.843 J12.920 F720.000
G2 X64.665 Y-38.688 Z-10.000 I-4.299 J30.989 F720.000
G0 X64.665 Y-38.688 Z5.000
G0 X68.073 Y-33.338 Z5.000
G0 X68.073 Y-33.338 Z-7.000
G1 X68.073 Y-33.338 Z-10.000 F60.000
G2 X57.702 Y-19.840 Z-10.000 I13.389 J21.021 F720.000
G1 X20.520 Y-19.840 Z-10.000 F720.000
G1 X20.520 Y-56.740 Z-10.000 F720.000
G1 X100.858 Y-56.740 Z-10.000 F720.000
G2 X91.635 Y-35.070 Z-10.000 I15.594 J19.434 F720.000
G2 X68.073 Y-33.338 Z-10.000 I-10.173 J22.752 F720.000
G0 X68.073 Y-33.338 Z5.000
G0 X71.488 Y-27.976 Z5.000
G0 X71.488 Y-27.976 Z-7.000
G1 X71.488 Y-27.976 Z-10.000 F60.000
G2 X62.922 Y-13.490 Z-10.000 I9.986 J15.680 F720.000
G1 X14.170 Y-13.490 Z-10.000 F720.000
G1 X14.170 Y-63.090 Z-10.000 F720.000
G1 X138.770 Y-63.090 Z-10.000 F720.000
G1 X138.770 Y-13.490 Z-10.000 F720.000
G1 X100.026 Y-13.490 Z-10.000 F720.000
G2 X71.488 Y-27.976 Z-10.000 I-18.552 J1.194 F720.000
G0 X71.488 Y-27.976 Z5.000
G0 X74.897 Y-22.622 Z5.000
G0 X74.897 Y-22.622 Z-7.000
G1 X74.897 Y-22.622 Z-10.000 F60.000
G2 X70.371 Y-17.456 Z-10.000 I6.577 J10.329 F720.000
G2 X70.367 Y-7.140 Z-10.000 I11.101 J5.163 F720.000
G1 X7.820 Y-7.140 Z-10.000 F720.000
G1 X7.820 Y-69.440 Z-10.000 F720.000
G1 X145.120 Y-69.440 Z-10.000 F720.000
G1 X145.120 Y-7.140 Z-10.000 F720.000
G1 X92.581 Y-7.140 Z-10.000 F720.000
G2 X74.897 Y-22.622 Z-10.000 I-11.107 J-5.153 F720.000
G0 X74.897 Y-22.622 Z5.000
G0 X98.940 Y-31.106 Z5.000
G0 X98.940 Y-31.106 Z-7.000
G1 X98.940 Y-31.106 Z-10.000 F60.000
G3 X116.131 Y-55.883 Z-10.000 I17.534 J-6.187 F720.000
G3 X135.064 Y-37.636 Z-10.000 I0.343 J18.590 F720.000
G3 X116.817 Y-18.703 Z-10.000 I-18.590 J0.343 F720.000
G3 X98.940 Y-31.106 Z-10.000 I-0.343 J-18.590 F720.000
G0 X98.940 Y-31.106 Z5.000
G0 X104.927 Y-33.218 Z5.000
G0 X104.927 Y-33.218 Z-7.000
G1 X104.927 Y-33.218 Z-10.000 F60.000
G3 X116.131 Y-49.533 Z-10.000 I11.547 J-4.075 F720.000
G3 X128.714 Y-37.636 Z-10.000 I0.343 J12.240 F720.000
G3 X116.817 Y-25.053 Z-10.000 I-12.240 J0.343 F720.000
G3 X104.927 Y-33.218 Z-10.000 I-0.343 J-12.240 F720.000
G0 X104.927 Y-33.218 Z5.000
G0 X132.088 Y-56.740 Z5.000
G0 X132.088 Y-56.740 Z-7.000
G1 X132.088 Y-56.740 Z-10.000 F60.000
G1 X132.420 Y-56.740 Z-10.000 F720.000
G1 X132.420 Y-56.470 Z-10.000 F720.000
G2 X132.088 Y-56.740 Z-10.000 I-4.338 J4.989 F720.000
G0 Z5.000
(finish operation: Pocket_3D)
(begin operation: Profile_Faces002)
(machine: not set, mm/min)
(Profile_Faces002)
(Compensated Tool Path. Diameter: 12.7)
G0 Z5.000
G0 X90.133 Y-3.634
G0 Z3.000
G1 X90.133 Y-3.634 Z-1.000 F60.000
G2 X82.554 Y-24.490 Z-1.000 I-8.659 J-8.659 F720.000
G2 X80.356 Y-0.099 Z-1.000 I-1.080 J12.197 F720.000
G2 X90.133 Y-3.634 Z-1.000 I1.118 J-12.194 F720.000
G1 X90.133 Y-3.634 Z-2.000 F60.000
G2 X82.554 Y-24.490 Z-2.000 I-8.659 J-8.659 F720.000
G2 X80.356 Y-0.099 Z-2.000 I-1.080 J12.197 F720.000
G2 X90.133 Y-3.634 Z-2.000 I1.118 J-12.194 F720.000
G1 X90.133 Y-3.634 Z-3.000 F60.000
G2 X82.554 Y-24.490 Z-3.000 I-8.659 J-8.659 F720.000
G2 X80.356 Y-0.099 Z-3.000 I-1.080 J12.197 F720.000
G2 X90.133 Y-3.634 Z-3.000 I1.118 J-12.194 F720.000
G1 X90.133 Y-3.634 Z-4.000 F60.000
G2 X82.554 Y-24.490 Z-4.000 I-8.659 J-8.659 F720.000
G2 X80.356 Y-0.099 Z-4.000 I-1.080 J12.197 F720.000
G2 X90.133 Y-3.634 Z-4.000 I1.118 J-12.194 F720.000
G1 X90.133 Y-3.634 Z-5.000 F60.000
G2 X82.554 Y-24.490 Z-5.000 I-8.659 J-8.659 F720.000
G2 X80.356 Y-0.099 Z-5.000 I-1.080 J12.197 F720.000
G2 X90.133 Y-3.634 Z-5.000 I1.118 J-12.194 F720.000
G1 X90.133 Y-3.634 Z-6.000 F60.000
G2 X82.554 Y-24.490 Z-6.000 I-8.659 J-8.659 F720.000
G2 X80.356 Y-0.099 Z-6.000 I-1.080 J12.197 F720.000
G2 X90.133 Y-3.634 Z-6.000 I1.118 J-12.194 F720.000
G1 X90.133 Y-3.634 Z-7.000 F60.000
G2 X82.554 Y-24.490 Z-7.000 I-8.659 J-8.659 F720.000
G2 X80.356 Y-0.099 Z-7.000 I-1.080 J12.197 F720.000
G2 X90.133 Y-3.634 Z-7.000 I1.118 J-12.194 F720.000
G1 X90.133 Y-3.634 Z-8.000 F60.000
G2 X82.554 Y-24.490 Z-8.000 I-8.659 J-8.659 F720.000
G2 X80.356 Y-0.099 Z-8.000 I-1.080 J12.197 F720.000
G2 X90.133 Y-3.634 Z-8.000 I1.118 J-12.194 F720.000
G1 X90.133 Y-3.634 Z-9.000 F60.000
G2 X82.554 Y-24.490 Z-9.000 I-8.659 J-8.659 F720.000
G2 X80.356 Y-0.099 Z-9.000 I-1.080 J12.197 F720.000
G2 X90.133 Y-3.634 Z-9.000 I1.118 J-12.194 F720.000
G1 X90.133 Y-3.634 Z-10.000 F60.000
G2 X82.554 Y-24.490 Z-10.000 I-8.659 J-8.659 F720.000
G2 X80.356 Y-0.099 Z-10.000 I-1.080 J12.197 F720.000
G2 X90.133 Y-3.634 Z-10.000 I1.118 J-12.194 F720.000
G0 Z5.000
(finish operation: Profile_Faces002)
(begin operation: Pocket_Shape)
(machine: not set, mm/min)
(Pocket_Shape)
G0 Z5.000
G0 X64.100 Y-28.059
G0 Z3.000
G1 X64.100 Y-28.059 Z-11.000 F60.000
G2 X64.588 Y-29.377 Z-11.000 I-1.191 J-1.191 F720.000
G1 X64.588 Y-48.559 Z-11.000 F720.000
G2 X62.782 Y-50.365 Z-11.000 I-1.680 J-0.126 F720.000
G1 X60.313 Y-50.365 Z-11.000 F720.000
G2 X58.508 Y-48.559 Z-11.000 I-0.126 J1.680 F720.000
G1 X58.508 Y-29.377 Z-11.000 F720.000
G2 X60.313 Y-27.571 Z-11.000 I1.680 J0.126 F720.000
G1 X62.782 Y-27.571 Z-11.000 F720.000
G2 X64.100 Y-28.059 Z-11.000 I0.126 J-1.680 F720.000
G1 X64.100 Y-28.059 Z-12.000 F60.000
G2 X64.588 Y-29.377 Z-12.000 I-1.191 J-1.191 F720.000
G1 X64.588 Y-48.559 Z-12.000 F720.000
G2 X62.782 Y-50.365 Z-12.000 I-1.680 J-0.126 F720.000
G1 X60.313 Y-50.365 Z-12.000 F720.000
G2 X58.508 Y-48.559 Z-12.000 I-0.126 J1.680 F720.000
G1 X58.508 Y-29.377 Z-12.000 F720.000
G2 X60.313 Y-27.571 Z-12.000 I1.680 J0.126 F720.000
G1 X62.782 Y-27.571 Z-12.000 F720.000
G2 X64.100 Y-28.059 Z-12.000 I0.126 J-1.680 F720.000
G1 X64.100 Y-28.059 Z-13.000 F60.000
G2 X64.588 Y-29.377 Z-13.000 I-1.191 J-1.191 F720.000
G1 X64.588 Y-48.559 Z-13.000 F720.000
G2 X62.782 Y-50.365 Z-13.000 I-1.680 J-0.126 F720.000
G1 X60.313 Y-50.365 Z-13.000 F720.000
G2 X58.508 Y-48.559 Z-13.000 I-0.126 J1.680 F720.000
G1 X58.508 Y-29.377 Z-13.000 F720.000
G2 X60.313 Y-27.571 Z-13.000 I1.680 J0.126 F720.000
G1 X62.782 Y-27.571 Z-13.000 F720.000
G2 X64.100 Y-28.059 Z-13.000 I0.126 J-1.680 F720.000
G1 X64.100 Y-28.059 Z-14.000 F60.000
G2 X64.588 Y-29.377 Z-14.000 I-1.191 J-1.191 F720.000
G1 X64.588 Y-48.559 Z-14.000 F720.000
G2 X62.782 Y-50.365 Z-14.000 I-1.680 J-0.126 F720.000
G1 X60.313 Y-50.365 Z-14.000 F720.000
G2 X58.508 Y-48.559 Z-14.000 I-0.126 J1.680 F720.000
G1 X58.508 Y-29.377 Z-14.000 F720.000
G2 X60.313 Y-27.571 Z-14.000 I1.680 J0.126 F720.000
G1 X62.782 Y-27.571 Z-14.000 F720.000
G2 X64.100 Y-28.059 Z-14.000 I0.126 J-1.680 F720.000
G1 X64.100 Y-28.059 Z-15.000 F60.000
G2 X64.588 Y-29.377 Z-15.000 I-1.191 J-1.191 F720.000
G1 X64.588 Y-48.559 Z-15.000 F720.000
G2 X62.782 Y-50.365 Z-15.000 I-1.680 J-0.126 F720.000
G1 X60.313 Y-50.365 Z-15.000 F720.000
G2 X58.508 Y-48.559 Z-15.000 I-0.126 J1.680 F720.000
G1 X58.508 Y-29.377 Z-15.000 F720.000
G2 X60.313 Y-27.571 Z-15.000 I1.680 J0.126 F720.000
G1 X62.782 Y-27.571 Z-15.000 F720.000
G2 X64.100 Y-28.059 Z-15.000 I0.126 J-1.680 F720.000
G1 X64.100 Y-28.059 Z-16.000 F60.000
G2 X64.588 Y-29.377 Z-16.000 I-1.191 J-1.191 F720.000
G1 X64.588 Y-48.559 Z-16.000 F720.000
G2 X62.782 Y-50.365 Z-16.000 I-1.680 J-0.126 F720.000
G1 X60.313 Y-50.365 Z-16.000 F720.000
G2 X58.508 Y-48.559 Z-16.000 I-0.126 J1.680 F720.000
G1 X58.508 Y-29.377 Z-16.000 F720.000
G2 X60.313 Y-27.571 Z-16.000 I1.680 J0.126 F720.000
G1 X62.782 Y-27.571 Z-16.000 F720.000
G2 X64.100 Y-28.059 Z-16.000 I0.126 J-1.680 F720.000
G1 X64.100 Y-28.059 Z-17.000 F60.000
G2 X64.588 Y-29.377 Z-17.000 I-1.191 J-1.191 F720.000
G1 X64.588 Y-48.559 Z-17.000 F720.000
G2 X62.782 Y-50.365 Z-17.000 I-1.680 J-0.126 F720.000
G1 X60.313 Y-50.365 Z-17.000 F720.000
G2 X58.508 Y-48.559 Z-17.000 I-0.126 J1.680 F720.000
G1 X58.508 Y-29.377 Z-17.000 F720.000
G2 X60.313 Y-27.571 Z-17.000 I1.680 J0.126 F720.000
G1 X62.782 Y-27.571 Z-17.000 F720.000
G2 X64.100 Y-28.059 Z-17.000 I0.126 J-1.680 F720.000
G1 X64.100 Y-28.059 Z-18.000 F60.000
G2 X64.588 Y-29.377 Z-18.000 I-1.191 J-1.191 F720.000
G1 X64.588 Y-48.559 Z-18.000 F720.000
G2 X62.782 Y-50.365 Z-18.000 I-1.680 J-0.126 F720.000
G1 X60.313 Y-50.365 Z-18.000 F720.000
G2 X58.508 Y-48.559 Z-18.000 I-0.126 J1.680 F720.000
G1 X58.508 Y-29.377 Z-18.000 F720.000
G2 X60.313 Y-27.571 Z-18.000 I1.680 J0.126 F720.000
G1 X62.782 Y-27.571 Z-18.000 F720.000
G2 X64.100 Y-28.059 Z-18.000 I0.126 J-1.680 F720.000
G1 X64.100 Y-28.059 Z-19.000 F60.000
G2 X64.588 Y-29.377 Z-19.000 I-1.191 J-1.191 F720.000
G1 X64.588 Y-48.559 Z-19.000 F720.000
G2 X62.782 Y-50.365 Z-19.000 I-1.680 J-0.126 F720.000
G1 X60.313 Y-50.365 Z-19.000 F720.000
G2 X58.508 Y-48.559 Z-19.000 I-0.126 J1.680 F720.000
G1 X58.508 Y-29.377 Z-19.000 F720.000
G2 X60.313 Y-27.571 Z-19.000 I1.680 J0.126 F720.000
G1 X62.782 Y-27.571 Z-19.000 F720.000
G2 X64.100 Y-28.059 Z-19.000 I0.126 J-1.680 F720.000
G0 Z5.000
(finish operation: Pocket_Shape)
(begin operation: T8: 635 end mill)
(machine: not set, mm/min)
(T8: 635 end mill)
M9
M6 T8 G43 H8
M8
M3 S3000
(finish operation: T8: 635 end mill)
(begin operation: Helix)
(machine: not set, mm/min)
(Helix)
(helix cut operation)
G0 Z5.000
G0 X46.797 Y-12.290
G0 Z3.000
G1 Z-10.000 F60.000
G2 X46.147 Y-12.290 Z-10.477 I-0.325 J0.000 F360.000
G2 X46.797 Y-12.290 Z-10.955 I0.325 J0.000 F360.000
G2 X46.147 Y-12.290 Z-11.432 I-0.325 J0.000 F360.000
G2 X46.797 Y-12.290 Z-11.909 I0.325 J0.000 F360.000
G2 X46.147 Y-12.290 Z-12.386 I-0.325 J0.000 F360.000
G2 X46.797 Y-12.290 Z-12.864 I0.325 J0.000 F360.000
G2 X46.147 Y-12.290 Z-13.341 I-0.325 J0.000 F360.000
G2 X46.797 Y-12.290 Z-13.818 I0.325 J0.000 F360.000
G2 X46.147 Y-12.290 Z-14.295 I-0.325 J0.000 F360.000
G2 X46.797 Y-12.290 Z-14.773 I0.325 J0.000 F360.000
G2 X46.147 Y-12.290 Z-15.250 I-0.325 J0.000 F360.000
G2 X46.797 Y-12.290 Z-15.727 I0.325 J0.000 F360.000
G2 X46.147 Y-12.290 Z-16.205 I-0.325 J0.000 F360.000
G2 X46.797 Y-12.290 Z-16.682 I0.325 J0.000 F360.000
G2 X46.147 Y-12.290 Z-17.159 I-0.325 J0.000 F360.000
G2 X46.797 Y-12.290 Z-17.636 I0.325 J0.000 F360.000
G2 X46.147 Y-12.290 Z-18.114 I-0.325 J0.000 F360.000
G2 X46.797 Y-12.290 Z-18.591 I0.325 J0.000 F360.000
G2 X46.147 Y-12.290 Z-19.068 I-0.325 J0.000 F360.000
G2 X46.797 Y-12.290 Z-19.545 I0.325 J0.000 F360.000
G2 X46.147 Y-12.290 Z-20.023 I-0.325 J0.000 F360.000
G2 X46.797 Y-12.290 Z-20.500 I0.325 J0.000 F360.000
G2 X46.147 Y-12.290 Z-20.500 I-0.325 J0.000 F360.000
G2 X46.797 Y-12.290 Z-20.500 I0.325 J0.000 F360.000
G0 Z3.000 F0.000
G0 X116.797 Y-12.290
G0 Z3.000
G1 Z-10.000 F60.000
G2 X116.147 Y-12.290 Z-10.477 I-0.325 J0.000 F360.000
G2 X116.797 Y-12.290 Z-10.955 I0.325 J0.000 F360.000
G2 X116.147 Y-12.290 Z-11.432 I-0.325 J0.000 F360.000
G2 X116.797 Y-12.290 Z-11.909 I0.325 J0.000 F360.000
G2 X116.147 Y-12.290 Z-12.386 I-0.325 J0.000 F360.000
G2 X116.797 Y-12.290 Z-12.864 I0.325 J0.000 F360.000
G2 X116.147 Y-12.290 Z-13.341 I-0.325 J0.000 F360.000
G2 X116.797 Y-12.290 Z-13.818 I0.325 J0.000 F360.000
G2 X116.147 Y-12.290 Z-14.295 I-0.325 J0.000 F360.000
G2 X116.797 Y-12.290 Z-14.773 I0.325 J0.000 F360.000
G2 X116.147 Y-12.290 Z-15.250 I-0.325 J0.000 F360.000
G2 X116.797 Y-12.290 Z-15.727 I0.325 J0.000 F360.000
G2 X116.147 Y-12.290 Z-16.205 I-0.325 J0.000 F360.000
G2 X116.797 Y-12.290 Z-16.682 I0.325 J0.000 F360.000
G2 X116.147 Y-12.290 Z-17.159 I-0.325 J0.000 F360.000
G2 X116.797 Y-12.290 Z-17.636 I0.325 J0.000 F360.000
G2 X116.147 Y-12.290 Z-18.114 I-0.325 J0.000 F360.000
G2 X116.797 Y-12.290 Z-18.591 I0.325 J0.000 F360.000
G2 X116.147 Y-12.290 Z-19.068 I-0.325 J0.000 F360.000
G2 X116.797 Y-12.290 Z-19.545 I0.325 J0.000 F360.000
G2 X116.147 Y-12.290 Z-20.023 I-0.325 J0.000 F360.000
G2 X116.797 Y-12.290 Z-20.500 I0.325 J0.000 F360.000
G2 X116.147 Y-12.290 Z-20.500 I-0.325 J0.000 F360.000
G2 X116.797 Y-12.290 Z-20.500 I0.325 J0.000 F360.000
G0 Z3.000 F0.000
G0 X116.797 Y-62.290
G0 Z3.000
G1 Z-10.000 F60.000
G2 X116.147 Y-62.290 Z-10.477 I-0.325 J0.000 F360.000
G2 X116.797 Y-62.290 Z-10.955 I0.325 J0.000 F360.000
G2 X116.147 Y-62.290 Z-11.432 I-0.325 J0.000 F360.000
G2 X116.797 Y-62.290 Z-11.909 I0.325 J0.000 F360.000
G2 X116.147 Y-62.290 Z-12.386 I-0.325 J0.000 F360.000
G2 X116.797 Y-62.290 Z-12.864 I0.325 J0.000 F360.000
G2 X116.147 Y-62.290 Z-13.341 I-0.325 J0.000 F360.000
G2 X116.797 Y-62.290 Z-13.818 I0.325 J0.000 F360.000
G2 X116.147 Y-62.290 Z-14.295 I-0.325 J0.000 F360.000
G2 X116.797 Y-62.290 Z-14.773 I0.325 J0.000 F360.000
G2 X116.147 Y-62.290 Z-15.250 I-0.325 J0.000 F360.000
G2 X116.797 Y-62.290 Z-15.727 I0.325 J0.000 F360.000
G2 X116.147 Y-62.290 Z-16.205 I-0.325 J0.000 F360.000
G2 X116.797 Y-62.290 Z-16.682 I0.325 J0.000 F360.000
G2 X116.147 Y-62.290 Z-17.159 I-0.325 J0.000 F360.000
G2 X116.797 Y-62.290 Z-17.636 I0.325 J0.000 F360.000
G2 X116.147 Y-62.290 Z-18.114 I-0.325 J0.000 F360.000
G2 X116.797 Y-62.290 Z-18.591 I0.325 J0.000 F360.000
G2 X116.147 Y-62.290 Z-19.068 I-0.325 J0.000 F360.000
G2 X116.797 Y-62.290 Z-19.545 I0.325 J0.000 F360.000
G2 X116.147 Y-62.290 Z-20.023 I-0.325 J0.000 F360.000
G2 X116.797 Y-62.290 Z-20.500 I0.325 J0.000 F360.000
G2 X116.147 Y-62.290 Z-20.500 I-0.325 J0.000 F360.000
G2 X116.797 Y-62.290 Z-20.500 I0.325 J0.000 F360.000
G0 Z3.000 F0.000
G0 Z5.000
(finish operation: Helix)
(begin postamble)
M9
M05
G17 G90
M2
