;This Gcode has been generated specifically for the LulzBot Mini
;Basic settings: Layer height: 0.35 Walls: 1 Fill: 60
;Filament Diameter: 2.89
;Nozzle Size: 0.5
G21                          ; metric values
G90                          ; absolute positioning
M82                          ; set extruder to absolute mode
M107                         ; start with the fan off
G92 E0                       ; set extruder position to 0
M140 S110; get bed heating up
G28                          ; home all
M907 X675                    ; reduce extruder torque for safety
M109 S180                    ; set to cleaning temp and wait
G1 Z150 E-30 F55             ; suck up XXmm of filament
M109 S180                    ; heat up rest of way
G1 X45 Y174 F11520           ; move behind scraper
G1 Z0  F1200                 ; CRITICAL: set Z to height of top of scraper
G1 X45 Y174 Z-.5 F4000       ; wiping ; plunge into wipe pad
G1 X55 Y172 Z-.5 F4000       ; wiping
G1 X45 Y174 Z0 F4000         ; wiping
G1 X55 Y172 F4000            ; wiping
G1 X45 Y174 F4000            ; wiping
G1 X55 Y172 F4000            ; wiping
G1 X45 Y174 F4000            ; wiping
G1 X55 Y172 F4000            ; wiping
G1 X60 Y174 F4000            ; wiping
G1 X80 Y172 F4000            ; wiping
G1 X60 Y174 F4000            ; wiping
G1 X80 Y172 F4000            ; wiping
G1 X60 Y174 F4000            ; wiping
G1 X90 Y172 F4000            ; wiping
G1 X80 Y174 F4000            ; wiping
G1 X100 Y172 F4000           ; wiping
G1 X80 Y174 F4000            ; wiping
G1 X100 Y172 F4000           ; wiping
G1 X80 Y174 F4000            ; wiping
G1 X100 Y172 F4000           ; wiping
G1 X110 Y174 F4000           ; wiping
G1 X100 Y172 F4000           ; wiping
G1 X110 Y174 F4000           ; wiping
G1 X100 Y172 F4000           ; wiping
G1 X110 Y174 F4000           ; wiping
G1 X115 Y172 Z-0.5 F1000     ; wipe slower and bury noz in cleanish area
G1 Z10                       ; raise z
G28 X0 Y0                    ; home x and y
M109 S180                    ; set to probing temp
M204 S300                    ; Set probing acceleration
G29                          ; Probe
M204 S2000                   ; Restore standard acceleration
G1 X5 Y15 Z10 F5000          ; get out the way
G4 S1                        ; pause
M400                         ; clear buffer
M109 S245    ; set extruder temp and wait
G1 Z2 E0 F45                 ; extrude filament back into nozzle
M140 S110; get bed temping up during first layer

;Layer count: 248
;LAYER:0
M107
G0 F10500 X67.117 Y67.412 Z0.425
;TYPE:SKIRT
G1 F1200 X67.691 Y66.900 E0.03115
G1 X68.363 Y66.354 E0.06621
G1 X68.947 Y65.915 E0.09579
G1 X69.947 Y65.262 E0.14415
G1 X76.590 Y61.423 E0.45484
G1 X82.951 Y57.750 E0.75227
G1 X82.951 Y57.749 E0.75231
G1 X86.578 Y55.651 E0.92198
G1 X98.929 Y77.040 E1.92213
G1 X101.002 Y80.668 E2.09133
G1 X70.549 Y98.251 E3.51526
G1 X66.922 Y100.350 E3.68495
G1 X59.236 Y87.037 E4.30743
G1 X62.797 Y84.974 E4.47407
G1 X62.695 Y84.685 E4.48648
G1 X62.369 Y83.546 E4.53446
G1 X62.094 Y82.195 E4.59029
G1 X61.933 Y80.818 E4.64643
G1 X61.888 Y79.495 E4.70003
G1 X61.901 Y78.794 E4.72842
G1 X61.959 Y78.032 E4.75936
G1 X62.062 Y77.143 E4.79560
G1 X62.193 Y76.353 E4.82803
G1 X62.494 Y75.083 E4.88088
G1 X62.691 Y74.425 E4.90869
G1 X62.998 Y73.546 E4.94640
G1 X63.360 Y72.690 E4.98403
G1 X63.640 Y72.099 E5.01051
G1 X64.010 Y71.402 E5.04247
G1 X64.697 Y70.281 E5.09571
G1 X65.247 Y69.507 E5.13416
G1 X65.746 Y68.871 E5.16689
G1 X66.622 Y67.902 E5.21978
G1 X67.117 Y67.412 E5.24799
G0 F10500 X67.545 Y67.868
G1 F1200 X68.097 Y67.376 E5.27793
G1 X68.748 Y66.846 E5.31192
G1 X69.306 Y66.427 E5.34018
G1 X70.274 Y65.795 E5.38699
G1 X76.902 Y61.964 E5.69699
G1 X83.264 Y58.291 E5.99446
G1 X83.264 Y58.290 E5.99450
G1 X86.350 Y56.505 E6.13886
G1 X98.387 Y77.351 E7.11360
G1 X100.151 Y80.438 E7.25757
G1 X70.236 Y97.709 E8.65632
G1 X70.236 Y97.710 E8.65636
G1 X67.150 Y99.495 E8.80072
G1 X60.089 Y87.265 E9.37257
G1 X63.497 Y85.290 E9.53207
G1 X63.554 Y85.252 E9.53484
G1 X63.546 Y85.219 E9.53622
G1 X63.290 Y84.495 E9.56731
G1 X62.976 Y83.398 E9.61352
G1 X62.712 Y82.096 E9.66731
G1 X62.557 Y80.771 E9.72133
G1 X62.513 Y79.491 E9.77320
G1 X62.525 Y78.824 E9.80021
G1 X62.582 Y78.092 E9.82994
G1 X62.681 Y77.230 E9.86507
G1 X62.806 Y76.476 E9.89602
G1 X63.098 Y75.244 E9.94729
G1 X63.285 Y74.618 E9.97375
G1 X63.582 Y73.771 E10.01009
G1 X63.931 Y72.945 E10.04640
G1 X64.199 Y72.379 E10.07176
G1 X64.553 Y71.712 E10.10234
G1 X65.219 Y70.626 E10.15393
G1 X65.748 Y69.881 E10.19093
G1 X66.225 Y69.274 E10.22219
G1 X67.074 Y68.334 E10.27348
G1 X67.545 Y67.868 E10.30031
G1 F420 E8.30031
G1 Z0.525
G0 F10500 X75.069 Y67.932
;TYPE:WALL-INNER
G1 Z0.425
G1 F420 E10.30031
G1 F1200 X84.796 Y62.312 E10.75520
G1 X94.360 Y78.875 E11.52968
G1 X83.087 Y85.384 E12.05679
G1 X83.654 Y84.878 E12.08756
G1 X84.364 Y84.096 E12.13033
G1 X85.018 Y83.196 E12.17538
G1 X85.568 Y82.230 E12.22039
G1 X85.878 Y81.510 E12.25213
G1 X85.997 Y81.238 E12.26416
G1 X86.306 Y80.239 E12.30650
G1 X86.509 Y79.210 E12.34897
G1 X86.586 Y78.394 E12.38216
G1 X86.611 Y77.937 E12.40069
G1 X86.594 Y77.312 E12.42601
G1 X86.542 Y76.648 E12.45298
G1 X86.462 Y76.063 E12.47689
G1 X86.231 Y75.055 E12.51877
G1 X86.055 Y74.506 E12.54211
G1 X85.853 Y73.968 E12.56538
G1 X85.604 Y73.409 E12.59016
G1 X85.272 Y72.784 E12.61882
G1 X84.962 Y72.304 E12.64196
G1 X84.729 Y71.948 E12.65919
G1 X84.319 Y71.428 E12.68600
G1 X84.112 Y71.173 E12.69930
G1 X83.516 Y70.556 E12.73404
G1 X82.802 Y69.937 E12.77230
G1 X82.032 Y69.388 E12.81060
G1 X81.364 Y68.998 E12.84192
G1 X80.915 Y68.765 E12.86240
G1 X80.343 Y68.515 E12.88768
G1 X79.459 Y68.207 E12.92559
G1 X78.666 Y68.009 E12.95868
G1 X78.044 Y67.897 E12.98427
G1 X77.436 Y67.834 E13.00903
G1 X76.851 Y67.800 E13.03275
G1 X76.542 Y67.798 E13.04527
G1 X75.814 Y67.829 E13.07477
G1 X75.069 Y67.932 E13.10523
G1 F420 E11.10523
G1 Z0.525
G0 F10500 X66.763 Y79.465
G1 Z0.425
G1 F420 E13.10523
G1 F1200 X66.766 Y79.313 E13.11138
G1 X66.803 Y79.593 E13.12282
G1 X67.021 Y80.505 E13.16079
G1 X67.187 Y81.044 E13.18363
G1 X67.449 Y81.727 E13.21325
G1 X67.846 Y82.534 E13.24967
G1 X68.080 Y82.952 E13.26907
G1 X68.549 Y83.658 E13.30339
G1 X69.248 Y84.515 E13.34817
G1 X69.877 Y85.135 E13.38393
G1 X70.691 Y85.804 E13.42660
G1 X70.940 Y85.994 E13.43928
G1 X71.834 Y86.545 E13.48181
G1 X72.779 Y87.000 E13.52428
G1 X73.548 Y87.276 E13.55736
G1 X74.138 Y87.449 E13.58226
G1 X74.766 Y87.594 E13.60836
G1 X75.034 Y87.642 E13.61938
G1 X75.629 Y87.714 E13.64365
G1 X76.123 Y87.758 E13.66373
G1 X76.676 Y87.764 E13.68613
G1 X76.893 Y87.768 E13.69492
G1 X77.934 Y87.684 E13.73721
G1 X78.867 Y87.516 E13.77560
G1 X79.659 Y87.295 E13.80889
G1 X79.956 Y87.192 E13.82162
G1 X68.704 Y93.689 E14.34775
G1 X65.884 Y88.806 E14.57608
G1 X66.199 Y88.594 E14.59146
G1 X66.528 Y88.313 E14.60898
G1 X66.951 Y87.842 E14.63462
G1 X67.199 Y87.483 E14.65228
G1 X67.479 Y86.943 E14.67691
G1 X67.536 Y86.807 E14.68289
G1 X67.722 Y86.207 E14.70832
G1 X67.813 Y85.580 E14.73398
G1 X67.823 Y85.287 E14.74585
G1 X67.777 Y84.656 E14.77147
G1 X67.634 Y84.037 E14.79719
G1 X67.338 Y83.196 E14.83330
G1 X67.106 Y82.384 E14.86749
G1 X66.912 Y81.431 E14.90687
G1 X66.796 Y80.442 E14.94720
G1 X66.763 Y79.465 E14.98678
G0 F10500 X66.138 Y79.454
;TYPE:WALL-OUTER
G1 F1200 X66.147 Y78.988 E15.00565
G1 X66.189 Y78.445 E15.02771
G1 X66.270 Y77.742 E15.05636
G1 X66.361 Y77.195 E15.07882
G1 X66.603 Y76.173 E15.12135
G1 X66.968 Y75.067 E15.16851
G1 X67.236 Y74.434 E15.19634
G1 X67.706 Y73.502 E15.23861
G1 X68.245 Y72.624 E15.28033
G1 X68.649 Y72.056 E15.30855
G1 X69.005 Y71.602 E15.33191
G1 X69.690 Y70.845 E15.37325
G1 X70.453 Y70.131 E15.41557
G1 X70.986 Y69.697 E15.44340
G1 X71.385 Y69.397 E15.46362
G1 X72.165 Y68.888 E15.50133
G1 X85.025 Y61.458 E16.10274
G1 X95.214 Y79.103 E16.92781
G1 X68.475 Y94.542 E18.17809
G1 X65.037 Y88.587 E18.45653
G1 X65.426 Y88.362 E18.47473
G1 X65.820 Y88.096 E18.49398
G1 X66.090 Y87.865 E18.50837
G1 X66.459 Y87.454 E18.53073
G1 X66.663 Y87.160 E18.54522
G1 X66.912 Y86.679 E18.56716
G1 X66.948 Y86.593 E18.57093
G1 X67.110 Y86.069 E18.59314
G1 X67.189 Y85.524 E18.61544
G1 X67.197 Y85.298 E18.62460
G1 X67.157 Y84.749 E18.64689
G1 X67.033 Y84.212 E18.66920
G1 X66.746 Y83.397 E18.70419
G1 X66.500 Y82.539 E18.74034
G1 X66.293 Y81.522 E18.78236
G1 X66.174 Y80.500 E18.82403
G1 X66.138 Y79.454 E18.86641
G0 F10500 X67.419 Y79.479
G1 F1200 X67.625 Y80.341 E18.90229
G1 X67.778 Y80.841 E18.92347
G1 X68.022 Y81.476 E18.95101
G1 X68.400 Y82.243 E18.98564
G1 X68.614 Y82.626 E19.00341
G1 X69.053 Y83.286 E19.03550
G1 X69.711 Y84.093 E19.07767
G1 X70.296 Y84.670 E19.11094
G1 X71.079 Y85.314 E19.15199
G1 X71.295 Y85.478 E19.16297
G1 X72.134 Y85.996 E19.20290
G1 X73.021 Y86.423 E19.24276
G1 X73.741 Y86.682 E19.27375
G1 X74.296 Y86.844 E19.29716
G1 X74.900 Y86.984 E19.32227
G1 X75.695 Y87.092 E19.35475
G1 X76.155 Y87.133 E19.37346
G1 X76.687 Y87.139 E19.39500
G1 X76.874 Y87.142 E19.40257
G1 X77.853 Y87.064 E19.44234
G1 X78.727 Y86.906 E19.47831
G1 X79.472 Y86.698 E19.50963
G1 X80.042 Y86.500 E19.53406
G1 X80.774 Y86.172 E19.56654
G1 X81.327 Y85.875 E19.59196
G1 X81.894 Y85.519 E19.61907
G1 X82.472 Y85.093 E19.64815
G1 X83.040 Y84.593 E19.67879
G1 X83.210 Y84.437 E19.68813
G1 X83.878 Y83.701 E19.72838
G1 X84.492 Y82.856 E19.77067
G1 X85.008 Y81.950 E19.81289
G1 X85.306 Y81.260 E19.84333
G1 X85.410 Y81.020 E19.85392
G1 X85.699 Y80.086 E19.89351
G1 X85.890 Y79.120 E19.93338
G1 X85.962 Y78.348 E19.96478
G1 X85.985 Y77.928 E19.98181
G1 X85.970 Y77.345 E20.00543
G1 X85.920 Y76.715 E20.03102
G1 X85.846 Y76.175 E20.05309
G1 X85.628 Y75.220 E20.09276
G1 X85.465 Y74.711 E20.11440
G1 X85.275 Y74.205 E20.13629
G1 X85.042 Y73.683 E20.15943
G1 X84.732 Y73.101 E20.18613
G1 X84.438 Y72.644 E20.20814
G1 X83.832 Y71.820 E20.24956
G1 X83.636 Y71.579 E20.26214
G1 X83.086 Y71.010 E20.29418
G1 X82.415 Y70.429 E20.33012
G1 X81.693 Y69.914 E20.36603
G1 X81.063 Y69.546 E20.39558
G1 X80.115 Y69.097 E20.43805
G1 X79.280 Y68.807 E20.47385
G1 X78.535 Y68.621 E20.50494
G1 X77.956 Y68.516 E20.52877
G1 X77.386 Y68.457 E20.55197
G1 X76.831 Y68.425 E20.57448
G1 X76.553 Y68.423 E20.58574
G1 X75.870 Y68.452 E20.61342
G1 X74.840 Y68.594 E20.65553
G1 X73.829 Y68.850 E20.69776
G1 X73.049 Y69.139 E20.73144
G1 X72.533 Y69.372 E20.75437
G1 X71.921 Y69.691 E20.78231
G1 X71.050 Y70.264 E20.82453
G1 X70.279 Y70.901 E20.86503
G1 X69.599 Y71.600 E20.90452
G1 X69.115 Y72.209 E20.93602
G1 X68.784 Y72.682 E20.95939
G1 X68.454 Y73.216 E20.98481
G1 X68.020 Y74.099 E21.02465
G1 X67.680 Y75.023 E21.06452
G1 X67.476 Y75.820 E21.09784
G1 X67.373 Y76.363 E21.12022
G1 X67.300 Y76.957 E21.14445
G1 X67.269 Y77.533 E21.16781
G1 X67.266 Y77.943 E21.18441
G1 X67.298 Y78.565 E21.20963
G1 X67.419 Y79.479 E21.24696
G1 F420 E19.24696
G1 Z0.525
G0 F10500 X76.861 Y67.581
;TYPE:SKIN
G1 Z0.425
G1 F420 E21.24696
G1 F1200 X76.867 Y67.145 E21.26261
G1 X77.817 Y67.653 E21.30624
G0 F10500 X77.707 Y66.659
G1 F1200 X78.886 Y67.838 E21.37375
G0 F10500 X80.147 Y68.215
G1 F1200 X78.267 Y66.335 E21.48142
G0 F10500 X78.828 Y66.012
G1 F1200 X81.834 Y69.019 E21.65359
G0 F10500 X79.948 Y65.364
G1 F1200 X93.627 Y79.043 E22.43693
G0 F10500 X93.067 Y79.367
G1 F1200 X79.388 Y65.688 E23.22028
G0 F10500 X80.509 Y65.041
G1 F1200 X93.784 Y78.317 E23.98051
G0 F10500 X92.506 Y79.690
G1 F1200 X85.408 Y72.592 E24.38699
G0 F10500 X86.198 Y74.266
G1 F1200 X91.946 Y80.014 E24.71615
G0 F10500 X91.385 Y80.337
G1 F1200 X86.558 Y75.510 E24.99258
G0 F10500 X86.752 Y76.588
G1 F1200 X90.825 Y80.661 E25.22582
G0 F10500 X90.265 Y80.984
G1 F1200 X86.819 Y77.539 E25.42313
G0 F10500 X86.803 Y78.406
G1 F1200 X89.704 Y81.308 E25.58929
G0 F10500 X89.144 Y81.631
G1 F1200 X86.727 Y79.215 E25.72768
G0 F10500 X86.583 Y79.955
G1 F1200 X88.584 Y81.955 E25.84224
G0 F10500 X88.023 Y82.278
G1 F1200 X86.404 Y80.659 E25.93495
G0 F10500 X86.193 Y81.332
G1 F1200 X87.463 Y82.602 E26.00768
G0 F10500 X86.902 Y82.925
G1 F1200 X85.926 Y81.950 E26.06354
G0 F10500 X85.639 Y82.546
G1 F1200 X86.061 Y83.410 E26.10379
G1 X85.141 Y83.374 E26.13027
G1 X85.221 Y83.896 E26.15166
G0 F10500 X82.809 Y85.903
G1 F1200 X82.162 Y85.698 E26.17382
G1 X81.968 Y86.388 E26.19360
G1 X81.061 Y86.365 E26.21271
G1 X80.847 Y87.035 E26.23321
G1 X80.160 Y86.790 E26.26275
G0 F10500 X80.208 Y86.879
G0 X77.937 Y88.102
G1 F1200 X77.564 Y88.172 E26.27327
G1 X76.875 Y88.366 E26.29868
G1 X76.035 Y87.969 E26.33631
G0 F10500 X75.048 Y87.865
G1 F1200 X76.256 Y89.073 E26.40548
G0 F10500 X75.696 Y89.397
G1 F1200 X73.909 Y87.610 E26.50782
G0 F10500 X72.544 Y87.129
G1 F1200 X75.135 Y89.720 E26.65620
G0 F10500 X74.575 Y90.044
G1 F1200 X70.284 Y85.753 E26.90192
G0 F10500 X68.041 Y85.277
G1 F1200 X73.454 Y90.691 E27.21194
G0 F10500 X72.894 Y91.015
G1 F1200 X67.961 Y86.081 E27.49446
G0 F10500 X67.774 Y86.778
G1 F1200 X72.334 Y91.338 E27.75559
G0 F10500 X71.774 Y91.662
G1 F1200 X67.495 Y87.383 E28.00063
G0 F10500 X67.156 Y87.928
G1 F1200 X71.214 Y91.986 E28.23302
G0 F10500 X70.653 Y92.309
G1 F1200 X66.743 Y88.398 E28.45696
G0 F10500 X66.270 Y88.809
G1 F1200 X70.093 Y92.633 E28.67592
G0 F10500 X69.532 Y92.956
G1 F1200 X67.168 Y90.592 E28.81129
G0 F10500 X68.375 Y92.683
G1 F1200 X68.972 Y93.280 E28.84548
G0 F10500 X74.015 Y90.368
G1 F1200 X67.910 Y84.263 E29.19509
G0 F10500 X68.614 Y84.082
G1 F1200 X67.501 Y82.969 E29.25883
G1 F420 E27.25883
G1 Z0.525
G0 F10500 X81.069 Y64.717
G1 Z0.425
G1 F420 E29.25883
G1 F1200 X92.576 Y76.225 E29.91782
G0 F10500 X91.368 Y74.133
G1 F1200 X81.629 Y64.394 E30.47554
G0 F10500 X82.189 Y64.070
G1 F1200 X90.161 Y72.042 E30.93206
G0 F10500 X88.953 Y69.950
G1 F1200 X82.749 Y63.747 E31.28731
G0 F10500 X83.309 Y63.423
G1 F1200 X87.745 Y67.858 E31.54132
G0 F10500 X86.537 Y65.767
G1 F1200 X83.869 Y63.099 E31.69410
G0 F10500 X84.429 Y62.775
G1 F1200 X85.330 Y63.675 E31.74567
;LAYER:1
M106 S12
G0 F10500 X84.986 Y61.768 Z0.775
;TYPE:WALL-INNER
G1 F1320 X94.926 Y78.982 E32.27597
G1 X94.904 Y79.064 E32.27823
G1 X91.936 Y80.778 E32.36967
G1 X91.711 Y80.847 E32.37595
G1 X91.165 Y81.121 E32.39225
G1 X91.023 Y81.212 E32.39674
G1 X90.560 Y81.573 E32.41241
G1 X72.888 Y91.777 E32.95681
G1 X72.659 Y91.847 E32.96320
G1 X72.113 Y92.121 E32.97949
G1 X71.970 Y92.212 E32.98402
G1 X71.519 Y92.567 E32.99933
G1 X68.595 Y94.254 E33.08939
G1 X68.514 Y94.233 E33.09162
G1 X65.294 Y88.656 E33.26342
G1 X65.914 Y88.264 E33.28299
G1 X66.464 Y87.750 E33.30307
G1 X66.838 Y87.238 E33.31999
G1 X67.112 Y86.691 E33.33631
G1 X67.267 Y86.229 E33.34931
G1 X67.369 Y85.639 E33.36528
G1 X67.386 Y85.306 E33.37418
G1 X67.363 Y84.846 E33.38646
G1 X67.277 Y84.383 E33.39903
G1 X66.873 Y83.180 E33.43288
G1 X66.658 Y82.399 E33.45449
G1 X66.453 Y81.332 E33.48348
G1 X66.344 Y80.251 E33.51246
G1 X66.328 Y79.165 E33.54144
G1 X66.410 Y78.083 E33.57039
G1 X66.585 Y77.022 E33.59908
G1 X66.851 Y75.983 E33.62769
G1 X67.146 Y75.129 E33.65179
G1 X67.499 Y74.308 E33.67563
G1 X68.012 Y73.339 E33.70488
G1 X68.597 Y72.436 E33.73359
G1 X69.272 Y71.575 E33.76277
G1 X70.013 Y70.783 E33.79171
G1 X70.829 Y70.055 E33.82088
G1 X71.614 Y69.466 E33.84706
G1 X72.470 Y68.925 E33.87408
G1 X84.903 Y61.746 E34.25709
G1 X84.986 Y61.768 E34.25938
G0 F10500 X80.978 Y69.398
G1 F1320 X80.157 Y69.019 E34.28350
G1 X79.797 Y68.882 E34.29378
G1 X78.901 Y68.613 E34.31874
G1 X77.966 Y68.429 E34.34416
G1 X76.932 Y68.339 E34.37185
G1 X76.549 Y68.335 E34.38207
G1 X75.879 Y68.365 E34.39996
G1 X74.834 Y68.507 E34.42809
G1 X73.798 Y68.767 E34.45659
G1 X72.820 Y69.134 E34.48446
G1 X71.878 Y69.614 E34.51266
G1 X70.998 Y70.192 E34.54075
G1 X70.220 Y70.837 E34.56771
G1 X69.525 Y71.548 E34.59424
G1 X68.912 Y72.326 E34.62066
G1 X68.378 Y73.171 E34.64733
G1 X67.939 Y74.064 E34.67387
G1 X67.595 Y74.999 E34.70045
G1 X67.353 Y75.965 E34.72702
G1 X67.213 Y76.949 E34.75353
G1 X67.177 Y77.931 E34.77975
G1 X67.200 Y78.451 E34.79364
G1 X67.247 Y78.935 E34.80661
G1 X67.332 Y79.492 E34.82164
G1 X67.421 Y79.916 E34.83320
G1 X67.583 Y80.523 E34.84996
G1 X67.935 Y81.494 E34.87751
G1 X68.072 Y81.799 E34.88643
G1 X68.410 Y82.453 E34.90607
G1 X68.971 Y83.322 E34.93367
G1 X69.107 Y83.505 E34.93975
G1 X69.648 Y84.156 E34.96233
G1 X70.394 Y84.887 E34.99019
G1 X71.223 Y85.536 E35.01828
G1 X72.091 Y86.074 E35.04553
G1 X72.988 Y86.505 E35.07207
G1 X73.926 Y86.839 E35.09864
G1 X74.893 Y87.072 E35.12517
G1 X75.874 Y87.203 E35.15158
G1 X76.872 Y87.230 E35.17821
G1 X77.852 Y87.153 E35.20444
G1 X78.745 Y86.991 E35.22865
G1 X79.183 Y86.880 E35.24070
G1 X80.059 Y86.585 E35.26536
G1 X80.943 Y86.189 E35.29120
G1 X81.757 Y85.717 E35.31631
G1 X82.526 Y85.164 E35.34158
G1 X83.235 Y84.536 E35.36684
G1 X83.947 Y83.757 E35.39500
G1 X84.566 Y82.904 E35.42311
G1 X85.086 Y81.990 E35.45117
G1 X85.488 Y81.059 E35.47822
G1 X85.784 Y80.108 E35.50479
G1 X85.977 Y79.132 E35.53133
G1 X86.066 Y78.157 E35.55745
G1 X86.072 Y77.917 E35.56386
G1 X86.053 Y77.148 E35.58438
G1 X85.936 Y76.177 E35.61047
G1 X85.870 Y75.832 E35.61984
G1 X85.713 Y75.200 E35.63722
G1 X85.390 Y74.253 E35.66391
G1 X85.120 Y73.648 E35.68158
G1 X84.807 Y73.055 E35.69947
G1 X84.484 Y72.555 E35.71535
G1 X84.325 Y72.305 E35.72326
G1 X83.769 Y71.599 E35.74723
G1 X83.147 Y70.947 E35.77127
G1 X82.471 Y70.360 E35.79515
G1 X81.741 Y69.839 E35.81908
G1 X80.978 Y69.398 E35.84259
G0 F10500 X80.741 Y69.839
;TYPE:WALL-OUTER
G1 F1260 X79.966 Y69.482 E35.86535
G1 X79.636 Y69.355 E35.87479
G1 X78.781 Y69.099 E35.89860
G1 X77.896 Y68.925 E35.92266
G1 X76.907 Y68.839 E35.94914
G1 X76.557 Y68.835 E35.95848
G1 X75.914 Y68.864 E35.97565
G1 X75.616 Y68.892 E35.98364
G1 X74.923 Y68.999 E36.00235
G1 X74.686 Y69.048 E36.00880
G1 X73.951 Y69.244 E36.02910
G1 X73.022 Y69.592 E36.05556
G1 X72.129 Y70.047 E36.08230
G1 X71.296 Y70.595 E36.10890
G1 X70.559 Y71.205 E36.13442
G1 X69.901 Y71.879 E36.15955
G1 X69.321 Y72.615 E36.18455
G1 X68.815 Y73.416 E36.20983
G1 X68.399 Y74.261 E36.23495
G1 X68.074 Y75.146 E36.26010
G1 X67.844 Y76.061 E36.28527
G1 X67.712 Y76.994 E36.31041
G1 X67.678 Y77.930 E36.33540
G1 X67.699 Y78.416 E36.34838
G1 X67.743 Y78.873 E36.36062
G1 X67.824 Y79.403 E36.37493
G1 X68.060 Y80.373 E36.40156
G1 X68.399 Y81.306 E36.42804
G1 X68.843 Y82.202 E36.45472
G1 X69.382 Y83.037 E36.48123
G1 X69.500 Y83.196 E36.48652
G1 X70.016 Y83.817 E36.50806
G1 X70.724 Y84.510 E36.53449
G1 X71.510 Y85.125 E36.56111
G1 X72.332 Y85.635 E36.58692
G1 X73.181 Y86.043 E36.61205
G1 X74.069 Y86.359 E36.63719
G1 X74.985 Y86.580 E36.66233
G1 X75.914 Y86.704 E36.68733
G1 X76.859 Y86.729 E36.71255
G1 X77.795 Y86.656 E36.73760
G1 X78.634 Y86.504 E36.76035
G1 X79.041 Y86.400 E36.77155
G1 X79.884 Y86.116 E36.79529
G1 X80.241 Y85.969 E36.80559
G1 X80.710 Y85.746 E36.81944
G1 X81.485 Y85.297 E36.84334
G1 X82.213 Y84.773 E36.86726
G1 X82.884 Y84.179 E36.89117
G1 X83.559 Y83.440 E36.91787
G1 X84.145 Y82.633 E36.94448
G1 X84.638 Y81.767 E36.97106
G1 X85.019 Y80.885 E36.99670
G1 X85.299 Y79.985 E37.02184
G1 X85.482 Y79.061 E37.04697
G1 X85.567 Y78.128 E37.07196
G1 X85.572 Y77.917 E37.07759
G1 X85.554 Y77.185 E37.09713
G1 X85.441 Y76.254 E37.12215
G1 X85.231 Y75.333 E37.14735
G1 X84.926 Y74.441 E37.17250
G1 X84.670 Y73.867 E37.18927
G1 X84.375 Y73.308 E37.20613
G1 X84.064 Y72.826 E37.22143
G1 X83.916 Y72.594 E37.22877
G1 X83.391 Y71.927 E37.25142
G1 X82.802 Y71.309 E37.27419
G1 X82.161 Y70.753 E37.29683
G1 X81.470 Y70.260 E37.31948
G1 X80.741 Y69.839 E37.34193
G0 F10500 X80.918 Y69.538
G0 X77.958 Y68.479
G0 X74.583 Y68.610
G0 X72.394 Y68.795
G0 X72.203 Y68.502
G1 F1260 X84.832 Y61.209 E37.73099
G1 X85.315 Y61.338 E37.74433
G1 X95.463 Y78.911 E38.28570
G1 X95.334 Y79.394 E38.29903
G1 X92.136 Y81.240 E38.39754
G1 X91.898 Y81.313 E38.40418
G1 X91.413 Y81.556 E38.41866
G1 X90.902 Y81.941 E38.43572
G1 X90.880 Y81.966 E38.43661
G1 X73.088 Y92.239 E38.98471
G1 X72.846 Y92.313 E38.99146
G1 X72.361 Y92.556 E39.00593
G1 X71.851 Y92.941 E39.02298
G1 X71.831 Y92.964 E39.02379
G1 X68.666 Y94.791 E39.12128
G1 X68.185 Y94.662 E39.13457
G1 X64.611 Y88.473 E39.32523
G1 X65.264 Y88.096 E39.34535
G1 X65.603 Y87.871 E39.35620
G1 X66.088 Y87.417 E39.37393
G1 X66.410 Y86.977 E39.38847
G1 X66.649 Y86.498 E39.40275
G1 X66.781 Y86.106 E39.41379
G1 X66.871 Y85.584 E39.42792
G1 X66.885 Y85.306 E39.43535
G1 X66.865 Y84.904 E39.44608
G1 X66.791 Y84.504 E39.45694
G1 X66.395 Y83.327 E39.49006
G1 X66.169 Y82.504 E39.51283
G1 X65.959 Y81.410 E39.54255
G1 X65.844 Y80.275 E39.57299
G1 X65.827 Y79.141 E39.60324
G1 X65.911 Y78.036 E39.63281
G1 X66.096 Y76.915 E39.66312
G1 X66.374 Y75.831 E39.69297
G1 X66.675 Y74.960 E39.71756
G1 X67.051 Y74.085 E39.74296
G1 X67.577 Y73.091 E39.77297
G1 X68.194 Y72.140 E39.80321
G1 X68.892 Y71.248 E39.83343
G1 X69.662 Y70.427 E39.86345
G1 X70.512 Y69.668 E39.89385
G1 X71.332 Y69.053 E39.92120
G1 X72.203 Y68.502 E39.94869
G0 F10500 X72.394 Y68.795
G0 X73.928 Y68.554
;TYPE:SKIN
G1 F1260 X74.565 Y67.916 E39.97275
G0 F10500 X74.862 Y68.326
G1 F1260 X76.238 Y66.950 E40.02466
G0 F10500 X76.438 Y68.165
G1 F1260 X79.584 Y65.019 E40.14335
G0 F10500 X81.257 Y64.053
G1 F1260 X77.129 Y68.181 E40.29910
G0 F10500 X77.779 Y68.237
G1 F1260 X82.930 Y63.087 E40.49342
G0 F10500 X84.603 Y62.120
G1 F1260 X78.389 Y68.334 E40.72786
G0 F10500 X78.977 Y68.454
G1 F1260 X85.105 Y62.326 E40.95906
G0 F10500 X85.364 Y62.774
G1 F1260 X79.521 Y68.616 E41.17949
G0 F10500 X77.911 Y65.985
G1 F1260 X75.680 Y68.216 E41.26366
G0 F10500 X71.903 Y69.657
G0 X69.563 Y71.582
G0 X67.986 Y74.085
G0 X67.166 Y76.022
G1 F1260 X67.010 Y76.531 E41.27099
G1 X66.877 Y77.371 E41.28265
G1 X66.809 Y78.147 E41.29824
G1 X66.802 Y78.861 E41.31656
G1 X66.837 Y79.532 E41.33782
G1 X66.518 Y80.205 E41.35769
G0 F10500 X66.581 Y80.849
G1 F1260 X67.297 Y80.134 E41.38468
G0 F10500 X67.455 Y80.683
G1 F1260 X66.661 Y81.477 E41.41464
G0 F10500 X66.774 Y82.071
G1 F1260 X67.643 Y81.202 E41.44743
G0 F10500 X67.840 Y81.712
G1 F1260 X66.907 Y82.645 E41.48263
G0 F10500 X67.063 Y83.196
G1 F1260 X68.074 Y82.185 E41.52077
G0 F10500 X68.324 Y82.643
G1 F1260 X67.241 Y83.725 E41.56161
G0 F10500 X67.419 Y84.254
G1 F1260 X68.601 Y83.073 E41.60619
G0 F10500 X68.883 Y83.497
G1 F1260 X67.538 Y84.842 E41.65693
G0 F10500 X67.549 Y85.539
G1 F1260 X69.198 Y83.889 E41.71916
G0 F10500 X69.519 Y84.275
G1 F1260 X67.393 Y86.402 E41.79939
G0 F10500 X65.625 Y88.877
G1 F1260 X69.877 Y84.625 E41.95981
G0 F10500 X70.235 Y84.974
G1 F1260 X65.883 Y89.325 E42.12399
G0 F10500 X66.142 Y89.774
G1 F1260 X70.627 Y85.289 E42.29320
G0 F10500 X71.023 Y85.600
G1 F1260 X66.402 Y90.221 E42.46754
G0 F10500 X66.661 Y90.670
G1 F1260 X71.450 Y85.880 E42.64824
G0 F10500 X71.886 Y86.151
G1 F1260 X66.919 Y91.118 E42.83564
G0 F10500 X67.178 Y91.566
G1 F1260 X72.353 Y86.392 E43.03086
G0 F10500 X72.830 Y86.621
G1 F1260 X67.437 Y92.015 E43.23435
G0 F10500 X67.696 Y92.463
G1 F1260 X73.343 Y86.815 E43.44742
G0 F10500 X73.865 Y87.001
G1 F1260 X67.955 Y92.911 E43.67040
G0 F10500 X68.214 Y93.359
G1 F1260 X74.433 Y87.140 E43.90503
G0 F10500 X75.016 Y87.264
G1 F1260 X68.473 Y93.807 E44.15189
G0 F10500 X69.403 Y93.584
G1 F1260 X75.640 Y87.347 E44.38720
G0 F10500 X76.306 Y87.388
G1 F1260 X71.076 Y92.618 E44.58452
G0 F10500 X72.774 Y91.627
G1 F1260 X77.009 Y87.392 E44.74430
G0 F10500 X77.777 Y87.331
G1 F1260 X74.421 Y90.687 E44.87091
G0 F10500 X76.095 Y89.721
G1 F1260 X78.627 Y87.189 E44.96644
G0 F10500 X79.600 Y86.923
G1 F1260 X77.768 Y88.755 E45.03556
G0 F10500 X79.442 Y87.788
G1 F1260 X80.775 Y86.455 E45.08585
G0 F10500 X81.115 Y86.822
G1 F1260 X82.650 Y85.286 E45.14378
G0 F10500 X82.788 Y85.856
G1 F1260 X92.869 Y75.774 E45.52414
G0 F10500 X92.611 Y75.326
G1 F1260 X84.115 Y83.822 E45.84468
G0 F10500 X84.461 Y84.890
G1 F1260 X93.129 Y76.222 E46.17171
G0 F10500 X93.388 Y76.670
G1 F1260 X86.135 Y83.923 E46.44535
G0 F10500 X87.808 Y82.957
G1 F1260 X93.647 Y77.119 E46.66563
G0 F10500 X93.905 Y77.567
G1 F1260 X89.482 Y81.991 E46.83252
G0 F10500 X91.346 Y80.833
G1 F1260 X94.164 Y78.015 E46.93884
G0 F10500 X94.423 Y78.464
G1 F1260 X92.825 Y80.062 E46.99913
G0 F10500 X92.352 Y74.878
G1 F1260 X85.302 Y81.928 E47.26511
G0 F10500 X85.763 Y80.760
G1 F1260 X92.093 Y74.430 E47.50393
G0 F10500 X91.834 Y73.981
G1 F1260 X86.023 Y79.792 E47.72317
G0 F10500 X86.170 Y78.939
G1 F1260 X91.575 Y73.533 E47.92711
G0 F10500 X91.317 Y73.085
G1 F1260 X86.240 Y78.161 E48.11864
G0 F10500 X86.235 Y77.460
G1 F1260 X91.058 Y72.636 E48.30062
G0 F10500 X90.799 Y72.188
G1 F1260 X86.187 Y76.800 E48.47463
G0 F10500 X86.111 Y76.169
G1 F1260 X90.540 Y71.740 E48.64173
G0 F10500 X90.281 Y71.291
G1 F1260 X85.988 Y75.585 E48.80371
G0 F10500 X85.839 Y75.027
G1 F1260 X90.023 Y70.843 E48.96157
G0 F10500 X89.764 Y70.395
G1 F1260 X85.658 Y74.500 E49.11646
G0 F10500 X85.463 Y73.988
G1 F1260 X89.505 Y69.947 E49.26894
G0 F10500 X89.246 Y69.498
G1 F1260 X85.241 Y73.503 E49.42004
G0 F10500 X84.997 Y73.040
G1 F1260 X88.987 Y69.050 E49.57058
G0 F10500 X88.728 Y68.602
G1 F1260 X84.725 Y72.605 E49.72160
G0 F10500 X84.446 Y72.177
G1 F1260 X88.469 Y68.154 E49.87339
G0 F10500 X88.210 Y67.706
G1 F1260 X84.135 Y71.781 E50.02713
G0 F10500 X83.816 Y71.393
G1 F1260 X87.952 Y67.257 E50.18317
G0 F10500 X87.693 Y66.809
G1 F1260 X83.471 Y71.031 E50.34246
G0 F10500 X83.111 Y70.684
G1 F1260 X87.434 Y66.361 E50.50556
G0 F10500 X87.175 Y65.912
G1 F1260 X82.732 Y70.355 E50.67319
G0 F10500 X82.333 Y70.048
G1 F1260 X86.916 Y65.464 E50.84612
G0 F10500 X86.658 Y65.016
G1 F1260 X81.920 Y69.753 E51.02485
G0 F10500 X81.479 Y69.487
G1 F1260 X86.399 Y64.568 E51.21046
G0 F10500 X86.140 Y64.119
G1 F1260 X81.029 Y69.230 E51.40329
G0 F10500 X80.546 Y69.006
G1 F1260 X85.881 Y63.671 E51.60457
G0 F10500 X85.622 Y63.223
G1 F1260 X80.053 Y68.792 E51.81468
G0 F10500 X94.498 Y79.096
G1 F1260 X94.682 Y78.912 E51.82162
;LAYER:2
M106 S25
G0 F10500 X94.727 Y78.637 Z1.125
;TYPE:WALL-INNER
G1 F1500 X94.926 Y78.982 E51.83225
G1 X94.905 Y79.063 E51.83448
G1 X92.770 Y80.297 E51.90026
G1 X92.150 Y80.372 E51.91693
G1 X91.567 Y80.541 E51.93312
G1 X91.451 Y80.579 E51.93638
G1 X90.869 Y80.889 E51.95397
G1 X90.341 Y81.324 E51.97222
G1 X89.912 Y81.828 E51.98987
G1 X89.785 Y82.020 E51.99602
G1 X73.718 Y91.297 E52.49097
G1 X73.099 Y91.372 E52.50760
G1 X72.515 Y91.541 E52.52382
G1 X72.399 Y91.579 E52.52708
G1 X71.817 Y91.890 E52.54468
G1 X71.288 Y92.326 E52.56297
G1 X70.801 Y92.906 E52.58318
G1 X70.726 Y93.024 E52.58691
G1 X68.595 Y94.254 E52.65255
G1 X68.514 Y94.233 E52.65478
G1 X65.294 Y88.655 E52.82661
G1 X65.908 Y88.269 E52.84595
G1 X66.370 Y87.853 E52.86254
G1 X66.834 Y87.247 E52.88290
G1 X67.112 Y86.691 E52.89948
G1 X67.267 Y86.229 E52.91248
G1 X67.369 Y85.639 E52.92846
G1 X67.386 Y85.305 E52.93738
G1 X67.363 Y84.846 E52.94964
G1 X67.279 Y84.390 E52.96201
G1 X66.871 Y83.174 E52.99623
G1 X66.659 Y82.402 E53.01759
G1 X66.454 Y81.337 E53.04652
G1 X66.344 Y80.254 E53.07556
G1 X66.328 Y79.170 E53.10448
G1 X66.411 Y78.077 E53.13373
G1 X66.582 Y77.038 E53.16182
G1 X66.854 Y75.975 E53.19109
G1 X67.146 Y75.129 E53.21497
G1 X67.499 Y74.308 E53.23881
G1 X68.012 Y73.339 E53.26806
G1 X68.597 Y72.436 E53.29676
G1 X69.272 Y71.575 E53.32595
G1 X70.013 Y70.783 E53.35488
G1 X70.829 Y70.055 E53.38406
G1 X71.614 Y69.466 E53.41024
G1 X72.446 Y68.939 E53.43651
G1 X84.905 Y61.746 E53.82031
G1 X84.986 Y61.767 E53.82254
G1 X94.727 Y78.637 E54.34224
G0 F10500 X85.724 Y77.977
G1 F1500 X85.689 Y76.977 E54.36893
G1 X85.546 Y75.989 E54.39556
G1 X85.295 Y75.024 E54.42216
G1 X84.965 Y74.144 E54.44724
G1 X84.581 Y73.374 E54.47019
G1 X84.021 Y72.479 E54.49836
G1 X83.452 Y71.766 E54.52269
G1 X82.824 Y71.121 E54.54671
G1 X82.135 Y70.541 E54.57074
G1 X81.391 Y70.031 E54.59480
G1 X80.601 Y69.598 E54.61883
G1 X79.774 Y69.246 E54.64281
G1 X78.915 Y68.977 E54.66683
G1 X78.031 Y68.794 E54.69091
G1 X77.079 Y68.699 E54.71643
G1 X76.810 Y68.688 E54.72362
G1 X76.077 Y68.705 E54.74318
G1 X75.813 Y68.721 E54.75023
G1 X75.084 Y68.820 E54.76986
G1 X74.112 Y69.044 E54.79647
G1 X73.857 Y69.115 E54.80353
G1 X73.169 Y69.373 E54.82313
G1 X72.923 Y69.471 E54.83020
G1 X72.270 Y69.804 E54.84975
G1 X72.035 Y69.927 E54.85683
G1 X71.421 Y70.330 E54.87642
G1 X71.201 Y70.478 E54.88350
G1 X70.433 Y71.113 E54.91008
G1 X69.738 Y71.834 E54.93680
G1 X69.128 Y72.625 E54.96345
G1 X68.607 Y73.479 E54.99013
G1 X68.183 Y74.385 E55.01682
G1 X67.862 Y75.332 E55.04350
G1 X67.646 Y76.307 E55.07014
G1 X67.539 Y77.291 E55.09654
G1 X67.532 Y77.559 E55.10370
G1 X67.542 Y78.306 E55.12363
G1 X67.653 Y79.295 E55.15018
G1 X67.875 Y80.271 E55.17688
G1 X68.202 Y81.215 E55.20353
G1 X68.629 Y82.119 E55.23020
G1 X69.141 Y82.950 E55.25624
G1 X69.775 Y83.764 E55.28377
G1 X70.448 Y84.454 E55.30948
G1 X70.646 Y84.642 E55.31677
G1 X71.247 Y85.113 E55.33714
G1 X72.274 Y85.778 E55.36978
G1 X73.186 Y86.209 E55.39669
G1 X74.131 Y86.536 E55.42336
G1 X75.107 Y86.757 E55.45006
G1 X76.094 Y86.867 E55.47655
G1 X76.359 Y86.873 E55.48363
G1 X77.103 Y86.870 E55.50347
G1 X78.092 Y86.764 E55.53001
G1 X78.975 Y86.574 E55.55411
G1 X79.833 Y86.297 E55.57816
G1 X80.656 Y85.939 E55.60210
G1 X81.442 Y85.500 E55.62612
G1 X82.166 Y84.996 E55.64965
G1 X82.871 Y84.395 E55.67437
G1 X83.521 Y83.710 E55.69956
G1 X83.699 Y83.506 E55.70678
G1 X84.132 Y82.913 E55.72637
G1 X84.284 Y82.696 E55.73344
G1 X84.647 Y82.060 E55.75298
G1 X84.776 Y81.828 E55.76006
G1 X85.171 Y80.913 E55.78665
G1 X85.463 Y79.955 E55.81336
G1 X85.648 Y78.972 E55.84005
G1 X85.724 Y77.977 E55.86667
G0 F10500 X85.223 Y77.966
;TYPE:WALL-OUTER
G1 F1320 X85.190 Y77.022 E55.89187
G1 X85.055 Y76.088 E55.91705
G1 X84.818 Y75.175 E55.94221
G1 X84.506 Y74.344 E55.96589
G1 X84.144 Y73.619 E55.98751
G1 X83.612 Y72.768 E56.01428
G1 X83.077 Y72.097 E56.03718
G1 X82.483 Y71.488 E56.05987
G1 X81.832 Y70.940 E56.08258
G1 X81.129 Y70.458 E56.10531
G1 X80.382 Y70.049 E56.12803
G1 X79.601 Y69.716 E56.15069
G1 X78.789 Y69.462 E56.17338
G1 X77.955 Y69.289 E56.19611
G1 X77.044 Y69.198 E56.22053
G1 X76.806 Y69.188 E56.22689
G1 X76.098 Y69.204 E56.24578
G1 X75.160 Y69.314 E56.27097
G1 X74.927 Y69.354 E56.27728
G1 X74.241 Y69.527 E56.29615
G1 X73.350 Y69.839 E56.32134
G1 X72.499 Y70.248 E56.34653
G1 X72.289 Y70.358 E56.35285
G1 X71.698 Y70.746 E56.37171
G1 X71.501 Y70.879 E56.37806
G1 X70.774 Y71.480 E56.40322
G1 X70.117 Y72.161 E56.42846
G1 X69.541 Y72.909 E56.45365
G1 X69.048 Y73.716 E56.47888
G1 X68.648 Y74.572 E56.50408
G1 X68.344 Y75.467 E56.52930
G1 X68.140 Y76.388 E56.55447
G1 X68.038 Y77.325 E56.57961
G1 X68.032 Y77.562 E56.58594
G1 X68.041 Y78.275 E56.60496
G1 X68.147 Y79.212 E56.63012
G1 X68.356 Y80.134 E56.65534
G1 X68.665 Y81.026 E56.68052
G1 X69.069 Y81.880 E56.70573
G1 X69.560 Y82.677 E56.73070
G1 X69.696 Y82.875 E56.73711
G1 X70.148 Y83.431 E56.75622
G1 X70.799 Y84.098 E56.78109
G1 X71.538 Y84.706 E56.80662
G1 X72.518 Y85.340 E56.83776
G1 X73.375 Y85.746 E56.86306
G1 X74.268 Y86.055 E56.88826
G1 X75.190 Y86.263 E56.91348
G1 X76.127 Y86.368 E56.93863
G1 X76.364 Y86.373 E56.94496
G1 X77.075 Y86.370 E56.96393
G1 X78.013 Y86.269 E56.98909
G1 X78.846 Y86.091 E57.01182
G1 X79.656 Y85.829 E57.03453
G1 X80.434 Y85.490 E57.05717
G1 X81.177 Y85.075 E57.07987
G1 X81.870 Y84.593 E57.10239
G1 X82.524 Y84.035 E57.12533
G1 X83.151 Y83.373 E57.14965
G1 X83.308 Y83.193 E57.15603
G1 X83.725 Y82.622 E57.17489
G1 X83.861 Y82.428 E57.18121
G1 X84.212 Y81.814 E57.20008
G1 X84.327 Y81.607 E57.20639
G1 X84.701 Y80.740 E57.23158
G1 X84.977 Y79.836 E57.25680
G1 X85.151 Y78.907 E57.28202
G1 X85.223 Y77.966 E57.30719
G0 F10500 X85.571 Y77.991
G0 X90.022 Y81.937
G0 X90.313 Y82.129
G1 F1320 X90.137 Y82.395 E57.31570
G1 X73.878 Y91.782 E57.81656
G1 X73.199 Y91.863 E57.83480
G1 X72.664 Y92.018 E57.84966
G1 X72.597 Y92.040 E57.85154
G1 X72.096 Y92.307 E57.86669
G1 X71.641 Y92.683 E57.88243
G1 X71.206 Y93.202 E57.90050
G1 X71.083 Y93.395 E57.90661
G1 X68.666 Y94.791 E57.98107
G1 X68.185 Y94.662 E57.99436
G1 X64.611 Y88.473 E58.18502
G1 X65.255 Y88.101 E58.20486
G1 X65.601 Y87.872 E58.21593
G1 X66.001 Y87.512 E58.23028
G1 X66.408 Y86.981 E58.24813
G1 X66.649 Y86.498 E58.26253
G1 X66.781 Y86.106 E58.27357
G1 X66.871 Y85.584 E58.28770
G1 X66.885 Y85.305 E58.29515
G1 X66.865 Y84.904 E58.30586
G1 X66.792 Y84.506 E58.31666
G1 X66.716 Y84.249 E58.32381
G1 X66.396 Y83.330 E58.34977
G1 X66.170 Y82.507 E58.37254
G1 X65.960 Y81.415 E58.40220
G1 X65.844 Y80.278 E58.43269
G1 X65.827 Y79.146 E58.46290
G1 X65.912 Y78.029 E58.49278
G1 X66.095 Y76.920 E58.52277
G1 X66.373 Y75.834 E58.55267
G1 X66.675 Y74.960 E58.57734
G1 X67.051 Y74.085 E58.60275
G1 X67.577 Y73.091 E58.63275
G1 X68.194 Y72.140 E58.66300
G1 X68.892 Y71.248 E58.69321
G1 X69.662 Y70.427 E58.72324
G1 X70.512 Y69.668 E58.75364
G1 X71.332 Y69.053 E58.78099
G1 X72.188 Y68.511 E58.80802
G1 X84.834 Y61.209 E59.19759
G1 X85.314 Y61.338 E59.21085
G1 X85.405 Y61.492 E59.21562
G1 X95.363 Y78.738 E59.74690
G1 X95.463 Y78.912 E59.75225
G1 X95.335 Y79.391 E59.76548
G1 X92.928 Y80.783 E59.83966
G1 X92.909 Y80.783 E59.84016
G1 X92.251 Y80.863 E59.85785
G1 X91.716 Y81.018 E59.87271
G1 X91.649 Y81.040 E59.87459
G1 X91.148 Y81.307 E59.88973
G1 X90.693 Y81.682 E59.90546
G1 X90.313 Y82.129 E59.92111
G0 F10500 X89.588 Y81.931
;TYPE:FILL
G1 F2400 X85.879 Y78.222 E60.06105
G0 F10500 X85.765 Y79.287
G1 F2400 X88.840 Y82.362 E60.17706
G0 F10500 X88.094 Y82.793
G1 F2400 X85.552 Y80.252 E60.27295
G0 F10500 X85.262 Y81.139
G1 F2400 X87.347 Y83.225 E60.35163
G0 F10500 X86.600 Y83.656
G1 F2400 X84.903 Y81.958 E60.41568
G0 F10500 X84.475 Y82.709
G1 F2400 X85.854 Y84.087 E60.46768
G0 F10500 X85.106 Y84.518
G1 F2400 X83.990 Y83.401 E60.50981
G0 F10500 X83.448 Y84.038
G1 F2400 X84.359 Y84.949 E60.54418
G0 F10500 X83.613 Y85.381
G1 F2400 X82.863 Y84.631 E60.57247
G0 F10500 X82.223 Y85.168
G1 F2400 X82.492 Y86.027 E60.59673
G1 X81.149 Y85.862 E60.61896
G1 X80.998 Y86.889 E60.64156
G1 X79.954 Y86.434 E60.67194
G0 F10500 X79.070 Y86.728
G1 F2400 X79.879 Y87.536 E60.70245
G0 F10500 X79.131 Y87.967
G1 F2400 X78.102 Y86.938 E60.74127
G0 F10500 X77.030 Y87.044
G1 F2400 X78.384 Y88.398 E60.79235
G0 F10500 X77.638 Y88.830
G1 F2400 X75.819 Y87.011 E60.86098
G0 F10500 X74.407 Y86.777
G1 F2400 X76.891 Y89.261 E60.95470
G0 F10500 X76.144 Y89.692
G1 F2400 X72.556 Y86.105 E61.09005
G0 F10500 X71.787 Y87.691
G1 F2400 X74.650 Y90.554 E61.19807
G0 F10500 X75.397 Y90.123
G1 F2400 X66.636 Y81.362 E61.52860
G0 F10500 X66.516 Y80.064
G1 F2400 X68.314 Y81.862 E61.59644
G0 F10500 X66.969 Y82.873
G1 F2400 X70.441 Y86.346 E61.72745
G0 F10500 X69.694 Y86.776
G1 F2400 X67.490 Y84.572 E61.81060
G0 F10500 X67.520 Y85.781
G1 F2400 X68.947 Y87.208 E61.86444
G0 F10500 X68.201 Y87.639
G1 F2400 X67.284 Y86.723 E61.89902
G0 F10500 X66.869 Y87.486
G1 F2400 X68.096 Y88.712 E61.94529
G0 F10500 X66.329 Y88.123
G1 F2400 X69.724 Y91.519 E62.07340
G0 F10500 X70.169 Y93.141
G1 F2400 X65.659 Y88.631 E62.24356
G0 F10500 X66.853 Y91.003
G1 F2400 X69.422 Y93.572 E62.34048
G0 F10500 X68.675 Y94.004
G1 F2400 X68.463 Y93.792 E62.34848
G0 F10500 X73.394 Y90.477
G1 F2400 X73.903 Y90.986 E62.36768
G0 F10500 X67.634 Y80.004
G1 F2400 X66.523 Y78.893 E62.40960
G0 F10500 X67.398 Y78.590
G1 F2400 X66.629 Y77.822 E62.43859
G0 F10500 X67.361 Y77.375
G1 F2400 X67.142 Y76.567 E62.45918
G1 X67.372 Y75.619 E62.47449
G1 X67.675 Y74.744 E62.48595
G1 X68.039 Y73.930 E62.49470
G1 X68.455 Y73.168 E62.50184
G1 X68.926 Y72.461 E62.50759
G1 X69.383 Y71.740 E62.51242
G1 X70.066 Y71.244 E62.51692
G1 X70.542 Y70.543 E62.52163
G1 X71.261 Y70.083 E62.52718
G1 X71.965 Y69.609 E62.53397
G1 X72.710 Y69.177 E62.54257
G1 X73.490 Y68.779 E62.55406
G1 X74.306 Y68.416 E62.57074
G1 X75.117 Y68.638 E62.59317
G0 F10500 X76.184 Y68.527
G1 F2400 X75.205 Y67.549 E62.63009
G0 F10500 X75.952 Y67.117
G1 F2400 X77.389 Y68.554 E62.68430
G0 F10500 X78.783 Y68.771
G1 F2400 X76.699 Y66.686 E62.76295
G0 F10500 X77.445 Y66.255
G1 F2400 X80.596 Y69.406 E62.88183
G0 F10500 X78.192 Y65.823
G1 F2400 X88.365 Y75.997 E63.26566
G0 F10500 X87.619 Y76.428
G1 F2400 X84.985 Y73.795 E63.36502
G0 F10500 X85.628 Y75.615
G1 F2400 X86.872 Y76.859 E63.41195
G0 F10500 X85.863 Y77.029
G1 F2400 X87.970 Y79.135 E63.49143
G0 F10500 X89.113 Y75.566
G1 F2400 X78.939 Y65.393 E63.87525
G0 F10500 X79.686 Y64.961
G1 F2400 X89.859 Y75.135 E64.25908
G0 F10500 X90.038 Y75.313
G1 F2400 X94.068 Y79.343 E64.41113
G0 F10500 X94.501 Y78.598
G1 F2400 X80.433 Y64.530 E64.94189
G0 F10500 X81.180 Y64.099
G1 F2400 X92.891 Y75.811 E65.38375
G0 F10500 X91.650 Y78.104
G1 F2400 X93.321 Y79.775 E65.44679
G0 F10500 X91.282 Y73.023
G1 F2400 X81.926 Y63.667 E65.79978
G0 F10500 X82.674 Y63.237
G1 F2400 X89.672 Y70.235 E66.06380
G0 F10500 X88.063 Y67.448
G1 F2400 X83.420 Y62.805 E66.23897
G0 F10500 X84.167 Y62.374
G1 F2400 X86.453 Y64.660 E66.32522
G0 F10500 X86.762 Y65.195
;TYPE:SKIN
G1 F1320 X85.839 Y64.273 E66.36002
G0 F10500 X85.796 Y63.522
G1 F1320 X84.873 Y62.599 E66.39485
G0 F10500 X84.717 Y62.443
G1 F1320 X84.248 Y62.327 E66.40407
G1 X84.045 Y62.831 E66.41329
G1 X83.351 Y62.845 E66.42255
G1 X83.148 Y63.349 E66.43180
G1 X82.454 Y63.362 E66.44106
G1 X82.252 Y63.867 E66.45032
G1 X81.558 Y63.880 E66.45958
G1 X81.356 Y64.385 E66.46883
G1 X80.661 Y64.397 E66.47814
G1 X80.459 Y64.902 E66.48740
G1 X79.765 Y64.915 E66.49666
G1 X79.563 Y65.420 E66.50592
G1 X78.868 Y65.433 E66.51519
G1 X78.666 Y65.938 E66.52450
G1 X77.971 Y65.950 E66.53378
G1 X77.770 Y66.456 E66.54307
G1 X77.075 Y66.468 E66.55238
G1 X76.873 Y66.973 E66.56164
G1 X76.179 Y66.986 E66.57090
G1 X76.202 Y67.363 E66.58097
G0 F10500 X75.882 Y67.750
G1 F1320 X76.648 Y68.516 E66.60987
G0 F10500 X75.961 Y68.537
G1 F1320 X75.058 Y67.634 E66.64394
G0 F10500 X74.610 Y67.892
G1 F1320 X75.327 Y68.609 E66.67099
G0 F10500 X74.731 Y68.721
G1 F1320 X73.937 Y68.280 E66.69246
G1 X73.885 Y68.935 E66.70918
G1 X73.041 Y68.798 E66.72228
G1 X72.857 Y69.321 E66.73296
G1 X72.157 Y69.329 E66.74200
G1 X71.924 Y69.802 E66.74970
G1 X71.319 Y69.904 E66.75648
G1 X71.075 Y70.367 E66.76251
G1 X70.543 Y70.543 E66.76789
G1 X70.304 Y71.011 E66.77277
G1 X69.824 Y71.239 E66.77754
G1 X69.611 Y71.732 E66.78206
G1 X69.164 Y71.993 E66.78684
G1 X68.996 Y72.531 E66.79177
G1 X68.563 Y72.806 E66.79738
G1 X68.365 Y73.315 E66.80336
G1 X68.120 Y73.777 E66.81044
G1 X67.885 Y74.250 E66.81828
G1 X67.680 Y74.751 E66.82787
G1 X67.489 Y75.268 E66.83875
G1 X67.328 Y75.813 E66.85194
G1 X67.190 Y76.382 E66.86731
G1 X67.083 Y76.983 E66.88578
G1 X67.010 Y77.617 E66.90805
G1 X67.369 Y78.329 E66.92932
G0 F10500 X67.457 Y79.125
G1 F1320 X66.571 Y78.239 E66.96275
G0 F10500 X66.522 Y78.896
G1 F1320 X67.636 Y80.010 E67.00477
G0 F10500 X66.900 Y80.688
G1 F1320 X66.526 Y80.314 E67.01889
G0 F10500 X66.509 Y79.590
G1 F1320 X67.955 Y81.036 E67.07344
G0 F10500 X67.042 Y80.831
G1 F1320 X68.573 Y82.361 E67.13118
G0 F10500 X67.494 Y81.990
G1 F1320 X72.408 Y86.904 E67.31658
G0 F10500 X72.605 Y87.808
G1 F1320 X68.469 Y83.671 E67.47264
G0 F10500 X67.798 Y84.415
G1 F1320 X67.398 Y83.662 E67.49111
G1 X67.078 Y82.634 E67.51065
G1 X66.875 Y81.724 E67.52701
G1 X66.605 Y81.101 E67.54513
G0 F10500 X67.538 Y84.862
G1 F1320 X67.719 Y85.396 E67.55848
G1 X67.647 Y86.032 E67.56972
G1 X67.501 Y86.594 E67.57994
G1 X67.541 Y86.986 E67.59046
G0 F10500 X67.721 Y87.167
G1 F1320 X72.095 Y91.540 E67.75546
G0 F10500 X71.648 Y91.800
G1 F1320 X67.051 Y87.203 E67.92890
G0 F10500 X66.764 Y87.623
G1 F1320 X71.260 Y92.120 E68.09854
G0 F10500 X70.922 Y92.488
G1 F1320 X67.614 Y89.181 E68.22333
G0 F10500 X66.684 Y88.251
G1 F1320 X66.262 Y88.183 E68.23220
G1 X66.244 Y88.871 E68.24116
G1 X65.654 Y88.635 E68.25811
G0 F10500 X66.221 Y89.910
G1 F1320 X67.139 Y90.827 E68.29273
G0 F10500 X67.187 Y91.583
G1 F1320 X68.105 Y92.500 E68.32735
G0 F10500 X68.153 Y93.256
G1 F1320 X69.043 Y93.791 E68.35244
G1 X69.246 Y93.288 E68.36168
G1 X69.939 Y93.274 E68.37085
G1 X69.567 Y92.548 E68.39261
G0 F10500 X70.608 Y92.882
G1 F1320 X68.591 Y90.865 E68.46871
G0 F10500 X68.170 Y86.908
G1 F1320 X72.595 Y91.334 E68.63568
G0 F10500 X73.155 Y91.187
G1 F1320 X68.618 Y86.649 E68.80687
G0 F10500 X69.065 Y86.390
G1 F1320 X73.750 Y91.074 E68.98361
G0 F10500 X74.198 Y90.815
G1 F1320 X69.514 Y86.131 E69.16033
G0 F10500 X69.962 Y85.872
G1 F1320 X73.570 Y89.480 E69.29645
G0 F10500 X74.402 Y90.312
G1 F1320 X74.870 Y90.427 E69.30568
G1 X75.074 Y89.923 E69.31488
G1 X75.767 Y89.908 E69.32405
G1 X75.971 Y89.406 E69.33324
G1 X76.663 Y89.391 E69.34244
G1 X76.867 Y88.887 E69.35164
G1 X77.560 Y88.873 E69.36084
G1 X77.763 Y88.370 E69.37005
G1 X78.456 Y88.356 E69.37922
G1 X78.436 Y87.982 E69.38921
G0 F10500 X78.170 Y87.716
G1 F1320 X77.461 Y87.007 E69.41596
G0 F10500 X78.099 Y86.938
G1 F1320 X78.826 Y87.665 E69.44119
G1 X79.353 Y87.838 E69.45043
G1 X79.331 Y87.463 E69.45967
G1 X78.684 Y86.816 E69.48408
G0 F10500 X79.246 Y86.671
G1 F1320 X80.026 Y87.450 E69.51349
G0 F10500 X80.474 Y87.191
G1 F1320 X79.780 Y86.497 E69.53967
G0 F10500 X77.537 Y87.790
G1 F1320 X76.793 Y87.046 E69.56774
G0 F10500 X76.081 Y87.041
G1 F1320 X76.881 Y87.841 E69.59792
G0 F10500 X76.165 Y87.832
G1 F1320 X75.284 Y86.952 E69.63114
G0 F10500 X75.385 Y87.759
G1 F1320 X74.401 Y86.776 E69.66825
G0 F10500 X74.534 Y87.616
G1 F1320 X73.379 Y86.460 E69.71184
G0 F10500 X73.570 Y87.359
G1 F1320 X72.056 Y85.844 E69.76898
G0 F10500 X76.359 Y86.823
G0 X78.962 Y86.526
G0 X80.281 Y86.291
G1 F1320 X81.146 Y86.803 E69.79317
G1 X80.998 Y85.947 E69.81579
G1 X82.043 Y86.285 E69.83818
G1 X81.874 Y85.410 E69.86081
G1 X82.939 Y85.768 E69.88461
G1 X82.481 Y84.956 E69.90948
G0 F10500 X82.863 Y84.631
G1 F1320 X83.612 Y85.380 E69.93774
G0 F10500 X84.060 Y85.121
G1 F1320 X83.800 Y84.860 E69.94698
G1 X83.391 Y84.098 E69.96830
G1 X84.191 Y84.545 E69.98927
G1 X84.733 Y84.732 E69.99851
G1 X84.582 Y84.228 E70.00772
G1 X84.040 Y83.332 E70.02889
G1 X84.899 Y83.485 E70.05008
G1 X84.603 Y82.482 E70.07167
G1 X85.437 Y82.609 E70.09341
G1 X85.085 Y81.549 E70.11552
G1 X85.897 Y81.654 E70.13815
G1 X85.470 Y80.521 E70.16134
G1 X86.268 Y80.611 E70.18517
G1 X85.747 Y79.383 E70.21008
G1 X86.477 Y79.759 E70.23198
G0 F10500 X86.588 Y79.163
G1 F1320 X85.863 Y78.438 E70.25934
G0 F10500 X85.890 Y77.758
G1 F1320 X86.649 Y78.517 E70.28797
G0 F10500 X87.145 Y79.013
G1 F1320 X89.809 Y81.677 E70.38848
G0 F10500 X89.440 Y82.015
G1 F1320 X88.125 Y80.700 E70.43809
G0 F10500 X88.746 Y82.029
G1 F1320 X88.767 Y82.403 E70.44735
G1 X88.074 Y82.417 E70.45655
G1 X87.871 Y82.921 E70.46580
G1 X87.177 Y82.934 E70.47506
G1 X86.974 Y83.438 E70.48428
G1 X86.281 Y83.452 E70.49349
G1 X86.078 Y83.956 E70.50271
G1 X85.384 Y83.969 E70.51197
G1 X85.405 Y84.345 E70.52201
G0 F10500 X90.134 Y81.296
G1 F1320 X85.863 Y77.025 E70.68315
G0 F10500 X85.752 Y76.207
G1 F1320 X90.505 Y80.959 E70.86246
G0 F10500 X90.916 Y80.663
G1 F1320 X85.544 Y75.291 E71.06513
G0 F10500 X86.394 Y75.434
G1 F1320 X85.180 Y74.220 E71.11093
G0 F10500 X86.112 Y74.444
G1 F1320 X84.357 Y72.690 E71.17713
G0 F10500 X85.579 Y73.205
G1 F1320 X81.205 Y68.831 E71.34215
G0 F10500 X80.195 Y69.234
G1 F1320 X78.967 Y68.007 E71.38846
G0 F10500 X79.107 Y68.854
G1 F1320 X78.080 Y67.827 E71.42721
G0 F10500 X77.297 Y67.751
G1 F1320 X78.195 Y68.649 E71.46109
G0 F10500 X77.393 Y68.554
G1 F1320 X76.562 Y67.723 E71.49244
G0 F10500 X75.753 Y67.622
G1 F1320 X75.506 Y67.375 E71.50176
G0 F10500 X79.975 Y68.307
G1 F1320 X81.695 Y70.028 E71.56667
G0 F10500 X87.772 Y67.619
G1 F1320 X88.694 Y68.541 E71.60146
G0 F10500 X88.739 Y69.293
G1 F1320 X89.661 Y70.215 E71.63624
G0 F10500 X89.705 Y70.967
G1 F1320 X90.627 Y71.888 E71.67101
G0 F10500 X90.672 Y72.641
G1 F1320 X91.592 Y73.561 E71.70572
G0 F10500 X91.638 Y74.314
G1 F1320 X92.559 Y75.235 E71.74047
G0 F10500 X92.605 Y75.988
G1 F1320 X93.525 Y76.908 E71.77518
G0 F10500 X93.572 Y77.662
G1 F1320 X94.492 Y78.582 E71.80989
G0 F10500 X94.125 Y78.923
G1 F1320 X94.146 Y79.297 E71.81914
G1 X93.453 Y79.311 E71.82839
G1 X93.475 Y79.686 E71.83841
G0 F10500 X93.026 Y79.945
G1 F1320 X88.343 Y75.261 E72.01511
G0 F10500 X88.791 Y75.002
G1 F1320 X93.101 Y79.313 E72.17774
G0 F10500 X92.524 Y80.149
G1 F1320 X87.894 Y75.520 E72.35240
G0 F10500 X87.446 Y75.779
G1 F1320 X91.922 Y80.255 E72.52127
G0 F10500 X91.377 Y80.417
G1 F1320 X86.998 Y76.038 E72.68649
G0 F10500 X89.239 Y74.744
G1 F1320 X92.131 Y77.636 E72.79560
G0 F10500 X91.160 Y75.958
G1 F1320 X89.688 Y74.485 E72.85115
G0 F10500 X87.728 Y66.868
G1 F1320 X86.806 Y65.946 E72.88594
;LAYER:3
M106 S38
G0 F10500 X84.983 Y61.767 Z1.475
;TYPE:WALL-INNER
G1 F1620 X94.451 Y78.158 E73.39092
G1 X94.927 Y78.982 E73.41631
G1 X94.905 Y79.065 E73.41860
G1 X93.868 Y79.662 E73.45052
G1 X93.207 Y80.045 E73.47090
G1 X92.841 Y80.034 E73.48067
G1 X90.221 Y75.457 E73.62137
G1 X89.702 Y74.565 E73.64890
G1 X87.169 Y76.026 E73.72691
G1 X86.355 Y76.499 E73.75203
G1 X88.728 Y80.619 E73.87887
G1 X89.511 Y81.963 E73.92036
G1 X89.338 Y82.278 E73.92995
G1 X74.155 Y91.045 E74.39768
G1 X73.789 Y91.034 E74.40745
G1 X72.761 Y89.234 E74.46275
G1 X70.649 Y85.564 E74.57571
G1 X68.170 Y86.995 E74.65207
G1 X67.303 Y87.497 E74.67880
G1 X69.347 Y91.050 E74.78815
G1 X70.458 Y92.959 E74.84708
G1 X70.412 Y93.033 E74.84940
G1 X70.287 Y93.278 E74.85674
G1 X68.595 Y94.254 E74.90885
G1 X68.514 Y94.233 E74.91108
G1 X65.294 Y88.656 E75.08288
G1 X65.517 Y88.527 E75.08976
G1 X66.018 Y88.182 E75.10598
G1 X66.364 Y87.858 E75.11863
G1 X66.667 Y87.493 E75.13129
G1 X66.986 Y86.972 E75.14758
G1 X67.168 Y86.542 E75.16004
G1 X67.269 Y86.222 E75.16899
G1 X67.369 Y85.640 E75.18475
G1 X67.386 Y85.304 E75.19372
G1 X67.363 Y84.853 E75.20577
G1 X67.310 Y84.528 E75.21455
G1 X67.195 Y84.103 E75.22630
G1 X66.873 Y83.182 E75.25233
G1 X66.660 Y82.406 E75.27380
G1 X66.455 Y81.344 E75.30265
G1 X66.344 Y80.256 E75.33183
G1 X66.328 Y79.174 E75.36070
G1 X66.409 Y78.095 E75.38956
G1 X66.581 Y77.044 E75.41797
G1 X66.855 Y75.971 E75.44752
G1 X67.145 Y75.133 E75.47118
G1 X67.499 Y74.308 E75.49512
G1 X68.012 Y73.339 E75.52438
G1 X68.597 Y72.436 E75.55308
G1 X69.272 Y71.575 E75.58227
G1 X70.013 Y70.783 E75.61120
G1 X70.829 Y70.055 E75.64037
G1 X71.614 Y69.466 E75.66656
G1 X72.458 Y68.932 E75.69320
G1 X84.904 Y61.745 E76.07662
G1 X84.983 Y61.767 E76.07881
G0 F10500 X80.551 Y69.630
G1 F1620 X79.718 Y69.280 E76.10291
G1 X78.839 Y69.009 E76.12745
G1 X77.948 Y68.831 E76.15169
G1 X76.978 Y68.742 E76.17767
G1 X76.848 Y68.738 E76.18114
G1 X75.943 Y68.759 E76.20529
G1 X74.938 Y68.892 E76.23234
G1 X73.971 Y69.132 E76.25892
G1 X73.021 Y69.483 E76.28594
G1 X72.114 Y69.939 E76.31302
G1 X71.280 Y70.482 E76.33957
G1 X70.511 Y71.113 E76.36611
G1 X69.787 Y71.855 E76.39377
G1 X69.168 Y72.656 E76.42077
G1 X68.650 Y73.507 E76.44735
G1 X68.230 Y74.408 E76.47387
G1 X67.898 Y75.390 E76.50152
G1 X67.689 Y76.361 E76.52802
G1 X67.586 Y77.353 E76.55463
G1 X67.582 Y77.484 E76.55813
G1 X67.595 Y78.385 E76.58216
G1 X67.717 Y79.374 E76.60875
G1 X67.950 Y80.359 E76.63575
G1 X68.292 Y81.315 E76.66284
G1 X68.732 Y82.210 E76.68945
G1 X69.276 Y83.064 E76.71646
G1 X69.914 Y83.854 E76.74355
G1 X70.622 Y84.555 E76.77013
G1 X71.417 Y85.184 E76.79717
G1 X72.278 Y85.721 E76.82424
G1 X73.178 Y86.150 E76.85084
G1 X74.135 Y86.483 E76.87787
G1 X75.124 Y86.707 E76.90493
G1 X76.116 Y86.817 E76.93155
G1 X76.228 Y86.822 E76.93454
G1 X77.130 Y86.819 E76.95861
G1 X78.135 Y86.707 E76.98559
G1 X79.021 Y86.511 E77.00979
G1 X79.896 Y86.222 E77.03438
G1 X80.721 Y85.853 E77.05849
G1 X81.505 Y85.404 E77.08259
G1 X82.241 Y84.879 E77.10671
G1 X82.923 Y84.282 E77.13089
G1 X83.610 Y83.538 E77.15791
G1 X84.210 Y82.720 E77.18497
G1 X84.706 Y81.857 E77.21152
G1 X85.111 Y80.927 E77.23859
G1 X85.410 Y79.956 E77.26569
G1 X85.595 Y78.978 E77.29224
G1 X85.671 Y77.991 E77.31865
G1 X85.674 Y77.859 E77.32217
G1 X85.637 Y76.954 E77.34634
G1 X85.492 Y75.971 E77.37285
G1 X85.233 Y74.993 E77.39984
G1 X84.897 Y74.113 E77.42497
G1 X84.482 Y73.293 E77.44948
G1 X83.993 Y72.530 E77.47366
G1 X83.429 Y71.817 E77.49791
G1 X82.787 Y71.155 E77.52252
G1 X82.105 Y70.583 E77.54626
G1 X81.344 Y70.062 E77.57087
G1 X80.551 Y69.630 E77.59496
G0 F10500 X80.334 Y70.081
;TYPE:WALL-OUTER
G1 F1380 X79.547 Y69.751 E77.61772
G1 X78.716 Y69.494 E77.64093
G1 X77.876 Y69.326 E77.66378
G1 X76.947 Y69.241 E77.68867
G1 X76.845 Y69.238 E77.69139
G1 X75.982 Y69.258 E77.71442
G1 X75.031 Y69.384 E77.74001
G1 X74.118 Y69.611 E77.76511
G1 X73.220 Y69.942 E77.79065
G1 X72.363 Y70.373 E77.81624
G1 X71.576 Y70.886 E77.84130
G1 X70.840 Y71.490 E77.86670
G1 X70.166 Y72.182 E77.89247
G1 X69.581 Y72.940 E77.91801
G1 X69.091 Y73.744 E77.94313
G1 X68.689 Y74.606 E77.96851
G1 X68.381 Y75.521 E77.99426
G1 X68.184 Y76.440 E78.01934
G1 X68.085 Y77.388 E78.04477
G1 X68.082 Y77.489 E78.04746
G1 X68.094 Y78.351 E78.07046
G1 X68.210 Y79.285 E78.09557
G1 X68.430 Y80.217 E78.12112
G1 X68.753 Y81.120 E78.14670
G1 X69.169 Y81.965 E78.17183
G1 X69.683 Y82.772 E78.19735
G1 X70.285 Y83.518 E78.22293
G1 X70.954 Y84.180 E78.24803
G1 X71.705 Y84.775 E78.27360
G1 X72.519 Y85.282 E78.29918
G1 X73.369 Y85.687 E78.32430
G1 X74.273 Y86.002 E78.34984
G1 X75.207 Y86.213 E78.37538
G1 X76.155 Y86.318 E78.40083
G1 X76.238 Y86.322 E78.40304
G1 X77.101 Y86.319 E78.42607
G1 X78.053 Y86.213 E78.45162
G1 X78.888 Y86.028 E78.47444
G1 X79.715 Y85.755 E78.49767
G1 X80.494 Y85.407 E78.52043
G1 X81.235 Y84.983 E78.54321
G1 X81.930 Y84.486 E78.56600
G1 X82.574 Y83.923 E78.58882
G1 X83.223 Y83.219 E78.61437
G1 X83.791 Y82.447 E78.63994
G1 X84.259 Y81.632 E78.66501
G1 X84.642 Y80.753 E78.69059
G1 X84.924 Y79.836 E78.71618
G1 X85.098 Y78.912 E78.74127
G1 X85.172 Y77.966 E78.76658
G1 X85.174 Y77.864 E78.76930
G1 X85.138 Y77.001 E78.79235
G1 X85.001 Y76.072 E78.81740
G1 X84.756 Y75.146 E78.84295
G1 X84.439 Y74.316 E78.86665
G1 X84.047 Y73.541 E78.88982
G1 X83.586 Y72.821 E78.91263
G1 X83.052 Y72.147 E78.93557
G1 X82.446 Y71.522 E78.95880
G1 X81.794 Y70.975 E78.98150
G1 X81.084 Y70.490 E79.00444
G1 X80.334 Y70.081 E79.02723
G0 F10500 X80.469 Y69.760
G0 X77.940 Y68.881
G0 X75.947 Y68.810
G0 X72.382 Y68.802
G0 X72.191 Y68.509
G1 F1380 X84.833 Y61.209 E79.41668
G1 X85.311 Y61.337 E79.42988
G1 X95.463 Y78.912 E79.97135
G1 X95.334 Y79.394 E79.98466
G1 X93.333 Y80.549 E80.04630
G1 X92.669 Y80.531 E80.06402
G1 X92.642 Y80.532 E80.06474
G1 X92.593 Y80.531 E80.06605
G1 X92.550 Y80.533 E80.06720
G1 X89.788 Y75.707 E80.21554
G1 X89.520 Y75.247 E80.22974
G1 X87.037 Y76.680 E80.30622
G1 X89.161 Y80.368 E80.41976
G1 X90.094 Y81.970 E80.46922
G1 X89.873 Y82.329 E80.48047
G1 X89.717 Y82.637 E80.48968
G1 X74.281 Y91.550 E80.96520
G1 X73.617 Y91.531 E80.98292
G1 X73.590 Y91.532 E80.98364
G1 X73.541 Y91.531 E80.98495
G1 X73.498 Y91.533 E80.98610
G1 X70.466 Y86.247 E81.14867
G1 X67.985 Y87.679 E81.22509
G1 X69.780 Y90.799 E81.32112
G1 X71.042 Y92.968 E81.38806
G1 X70.665 Y93.637 E81.40855
G1 X68.666 Y94.791 E81.47013
G1 X68.185 Y94.662 E81.48341
G1 X64.611 Y88.473 E81.67407
G1 X65.250 Y88.104 E81.69376
G1 X65.703 Y87.791 E81.70845
G1 X65.999 Y87.514 E81.71926
G1 X66.260 Y87.201 E81.73014
G1 X66.540 Y86.743 E81.74446
G1 X66.698 Y86.369 E81.75529
G1 X66.782 Y86.104 E81.76271
G1 X66.871 Y85.585 E81.77675
G1 X66.885 Y85.304 E81.78426
G1 X66.865 Y84.906 E81.79489
G1 X66.821 Y84.634 E81.80224
G1 X66.717 Y84.251 E81.81283
G1 X66.397 Y83.334 E81.83874
G1 X66.171 Y82.511 E81.86151
G1 X65.961 Y81.422 E81.89110
G1 X65.844 Y80.281 E81.92169
G1 X65.827 Y79.151 E81.95184
G1 X65.910 Y78.049 E81.98133
G1 X66.093 Y76.931 E82.01155
G1 X66.373 Y75.834 E82.04175
G1 X66.675 Y74.960 E82.06642
G1 X67.051 Y74.085 E82.09183
G1 X67.577 Y73.091 E82.12183
G1 X68.194 Y72.140 E82.15207
G1 X68.892 Y71.248 E82.18229
G1 X69.662 Y70.427 E82.21232
G1 X70.512 Y69.668 E82.24272
G1 X71.332 Y69.053 E82.27006
G1 X72.191 Y68.509 E82.29719
G0 F10500 X73.318 Y68.636
;TYPE:FILL
G1 F3000 X72.310 Y69.644 E82.33522
G0 F10500 X74.249 Y68.883
G1 F3000 X76.106 Y67.025 E82.40530
G0 F10500 X75.695 Y68.615
G1 F3000 X78.894 Y65.415 E82.52601
G0 F10500 X81.682 Y63.806
G1 F3000 X76.923 Y68.565 E82.70556
G0 F10500 X78.002 Y68.664
G1 F3000 X84.470 Y62.196 E82.94959
G0 F10500 X85.254 Y62.590
G1 F3000 X78.976 Y68.868 E83.18645
G0 F10500 X79.868 Y69.154
G1 F3000 X85.685 Y63.336 E83.40593
G0 F10500 X86.117 Y64.083
G1 F3000 X80.692 Y69.508 E83.61061
G0 F10500 X81.453 Y69.925
G1 F3000 X86.548 Y64.830 E83.80283
G0 F10500 X86.979 Y65.577
G1 F3000 X82.152 Y70.404 E83.98495
G0 F10500 X82.798 Y70.936
G1 F3000 X87.411 Y66.323 E84.15899
G0 F10500 X87.842 Y67.070
G1 F3000 X83.388 Y71.524 E84.32703
G0 F10500 X83.926 Y72.164
G1 F3000 X88.273 Y67.817 E84.49104
G0 F10500 X88.705 Y68.563
G1 F3000 X84.410 Y72.858 E84.65308
G0 F10500 X84.837 Y73.609
G1 F3000 X89.136 Y69.310 E84.81527
G0 F10500 X89.567 Y70.057
G1 F3000 X85.202 Y74.422 E84.97996
G0 F10500 X85.496 Y75.306
G1 F3000 X89.999 Y70.804 E85.14983
G0 F10500 X90.430 Y71.550
G1 F3000 X85.711 Y76.269 E85.32787
G0 F10500 X86.337 Y76.821
G1 F3000 X85.827 Y77.332 E85.34713
G0 F10500 X86.769 Y77.568
G1 F3000 X85.804 Y78.532 E85.38352
G0 F10500 X85.594 Y79.920
G1 F3000 X87.200 Y78.314 E85.44411
G0 F10500 X87.631 Y79.061
G1 F3000 X84.943 Y81.750 E85.54554
G0 F10500 X86.530 Y83.697
G1 F3000 X88.925 Y81.302 E85.63590
G0 F10500 X88.493 Y80.555
G1 F3000 X83.741 Y85.307 E85.81519
G0 F10500 X80.953 Y86.917
G1 F3000 X88.062 Y79.809 E86.08338
G0 F10500 X86.503 Y76.539
G0 X89.662 Y74.713
G0 X91.573 Y77.475
G1 F3000 X93.018 Y76.030 E86.13790
G0 F10500 X92.587 Y75.284
G1 F3000 X91.144 Y76.726 E86.19232
G0 F10500 X90.714 Y75.978
G1 F3000 X92.155 Y74.537 E86.24669
G0 F10500 X91.724 Y73.790
G1 F3000 X90.284 Y75.230 E86.30101
G0 F10500 X89.855 Y74.481
G1 F3000 X91.293 Y73.044 E86.35525
G0 F10500 X90.861 Y72.297
G1 F3000 X87.556 Y75.602 E86.47994
G0 F10500 X89.662 Y74.713
G0 X92.003 Y78.223
G1 F3000 X93.449 Y76.777 E86.53450
G0 F10500 X93.881 Y77.524
G1 F3000 X92.432 Y78.972 E86.58915
G0 F10500 X92.862 Y79.720
G1 F3000 X94.312 Y78.271 E86.64383
G0 F10500 X89.662 Y74.713
G0 X86.503 Y76.539
G0 X89.136 Y81.224
G0 X80.590 Y86.102
G1 F3000 X78.165 Y88.527 E86.73532
G0 F10500 X77.370 Y86.967
G1 F3000 X73.740 Y90.596 E86.87226
G0 F10500 X73.311 Y89.847
G1 F3000 X76.166 Y86.993 E86.97995
G0 F10500 X75.101 Y86.879
G1 F3000 X72.881 Y89.099 E87.06371
G0 F10500 X72.452 Y88.350
G1 F3000 X74.140 Y86.663 E87.12738
G0 F10500 X73.261 Y86.363
G1 F3000 X72.023 Y87.602 E87.17410
G0 F10500 X71.593 Y86.853
G1 F3000 X72.450 Y85.996 E87.20644
G0 F10500 X71.702 Y85.566
G1 F3000 X70.948 Y85.730 E87.22678
G1 X71.008 Y85.082 E87.24414
G0 F10500 X70.366 Y84.546
G1 F3000 X68.051 Y86.861 E87.33148
G0 F10500 X67.424 Y86.310
G1 F3000 X69.774 Y83.960 E87.42014
G0 F10500 X69.248 Y83.308
G1 F3000 X67.547 Y85.009 E87.48432
G0 F10500 X67.353 Y84.025
G1 F3000 X68.774 Y82.604 E87.53793
G0 F10500 X68.356 Y81.844
G1 F3000 X67.048 Y83.152 E87.58728
G0 F10500 X66.802 Y82.220
G1 F3000 X68.001 Y81.021 E87.63251
G0 F10500 X67.715 Y80.129
G1 F3000 X66.620 Y81.224 E87.67382
G0 F10500 X66.517 Y80.149
G1 F3000 X67.513 Y79.153 E87.71140
G0 F10500 X66.518 Y78.970
G1 F3000 X67.415 Y78.073 E87.74524
G0 F10500 X66.659 Y77.650
G1 F3000 X67.462 Y76.847 E87.77554
G0 F10500 X66.991 Y76.141
G1 F3000 X67.711 Y75.420 E87.80272
G0 F10500 X67.752 Y74.201
G1 F3000 X68.464 Y73.489 E87.82959
G0 F10500 X67.632 Y77.485
G0 X67.216 Y87.696
G1 F3000 X65.775 Y89.137 E87.88395
G0 F10500 X66.207 Y89.883
G1 F3000 X67.647 Y88.443 E87.93828
G0 F10500 X68.078 Y89.190
G1 F3000 X66.638 Y90.630 E87.99261
G0 F10500 X67.069 Y91.377
G1 F3000 X68.510 Y89.936 E88.04698
G0 F10500 X68.941 Y90.683
G1 F3000 X67.501 Y92.123 E88.10131
G0 F10500 X67.931 Y92.871
G1 F3000 X69.372 Y91.430 E88.15567
G0 F10500 X69.803 Y92.177
G1 F3000 X68.363 Y93.618 E88.21002
G0 F10500 X69.806 Y93.352
G1 F3000 X70.234 Y92.924 E88.22617
G0 F10500 X67.451 Y87.537
G0 X70.608 Y85.713
G0 X75.377 Y90.137
G1 F3000 X78.770 Y86.744 E88.35418
G0 F10500 X78.751 Y87.065
;TYPE:SKIN
G1 F1380 X79.466 Y86.703 E88.37009
G1 X80.284 Y86.239 E88.39518
G0 F10500 X80.974 Y86.256
G1 F1380 X81.882 Y85.347 E88.42945
G0 F10500 X84.198 Y83.032
G1 F1380 X85.079 Y82.151 E88.46269
G0 F10500 X85.073 Y81.450
G1 F1380 X85.541 Y80.627 E88.48295
G1 X85.792 Y79.670 E88.49889
G1 X85.927 Y78.827 E88.51278
G1 X86.199 Y78.202 E88.52526
G1 X86.922 Y77.833 E88.54501
G1 X86.657 Y78.805 E88.56473
G1 X87.439 Y78.729 E88.58448
G1 X87.176 Y79.700 E88.60418
G1 X87.957 Y79.626 E88.62385
G1 X87.694 Y80.595 E88.64351
G1 X88.474 Y80.523 E88.66311
G1 X88.213 Y81.491 E88.68269
G1 X88.992 Y81.419 E88.70227
G1 X88.603 Y82.162 E88.72464
G0 F10500 X86.503 Y76.539
G0 X89.662 Y74.713
G0 X92.715 Y79.464
G1 F1380 X93.375 Y79.158 E88.74463
G1 X93.022 Y79.864 E88.76569
G0 F10500 X92.457 Y79.015
G1 F1380 X92.857 Y78.261 E88.78564
G1 X92.071 Y78.340 E88.80553
G1 X92.339 Y77.365 E88.82539
G1 X91.555 Y77.442 E88.84523
G1 X91.822 Y76.468 E88.86506
G1 X91.039 Y76.544 E88.88487
G1 X91.304 Y75.571 E88.90456
G1 X90.524 Y75.645 E88.92425
G1 X90.787 Y74.675 E88.94388
G1 X90.008 Y74.746 E88.96349
G1 X90.230 Y74.171 E88.97994
G0 F10500 X85.759 Y75.107
G1 F1380 X85.706 Y75.512 E88.98935
G1 X85.838 Y76.088 E88.99868
G1 X86.013 Y76.620 E89.00884
G1 X85.834 Y77.506 E89.02601
G1 X86.535 Y77.160 E89.04687
G0 F10500 X85.349 Y74.809
G1 F1380 X85.366 Y74.438 E89.05555
G1 X85.162 Y73.936 E89.06431
G1 X85.044 Y73.346 E89.07291
G1 X84.567 Y73.117 E89.08127
G1 X84.513 Y72.464 E89.08948
G1 X84.004 Y72.266 E89.09758
G1 X83.903 Y71.659 E89.10560
G1 X83.360 Y71.495 E89.11349
G1 X83.219 Y70.929 E89.12149
G1 X82.638 Y70.803 E89.12936
G1 X82.462 Y70.272 E89.13748
G1 X81.838 Y70.189 E89.14554
G1 X81.628 Y69.691 E89.15384
G1 X80.958 Y69.654 E89.16211
G1 X80.713 Y69.192 E89.17060
G1 X80.108 Y69.090 E89.17927
G1 X79.591 Y68.900 E89.18812
G1 X79.048 Y68.735 E89.19720
G1 X78.472 Y68.605 E89.20684
G1 X77.869 Y68.501 E89.21641
G1 X77.224 Y68.438 E89.22682
G1 X76.539 Y68.417 E89.23786
G1 X75.792 Y68.456 E89.24963
G1 X74.975 Y68.566 E89.26270
G1 X74.057 Y68.777 E89.27813
G1 X73.283 Y69.198 E89.30163
G0 F10500 X72.627 Y69.147
G1 F1380 X71.916 Y69.858 E89.32846
G0 F10500 X70.366 Y70.701
G1 F1380 X69.791 Y71.276 E89.35015
G0 F10500 X68.719 Y73.055
G1 F1380 X67.995 Y73.779 E89.37747
G0 F10500 X68.030 Y74.451
G1 F1380 X67.614 Y75.220 E89.39622
G1 X67.401 Y76.141 E89.41145
G1 X67.298 Y76.951 E89.42439
G1 X67.264 Y77.691 E89.43609
G1 X67.277 Y78.385 E89.44735
G1 X67.341 Y79.029 E89.45778
G1 X67.444 Y79.632 E89.46780
G1 X67.575 Y80.208 E89.47744
G1 X67.743 Y80.748 E89.48643
G1 X67.931 Y81.267 E89.49521
G1 X68.146 Y81.759 E89.50369
G1 X68.273 Y82.340 E89.51219
G1 X68.751 Y82.568 E89.52036
G1 X68.814 Y83.212 E89.52844
G1 X69.327 Y83.406 E89.53649
G1 X69.431 Y84.010 E89.54456
G1 X69.982 Y84.166 E89.55257
G1 X70.125 Y84.730 E89.56061
G1 X70.713 Y84.849 E89.56858
G1 X70.812 Y85.457 E89.57663
G1 X71.523 Y85.454 E89.59082
G1 X71.186 Y86.144 E89.61131
G0 F10500 X71.444 Y86.593
G1 F1380 X72.176 Y85.861 E89.63892
G0 F10500 X72.426 Y86.318
G1 F1380 X72.778 Y86.319 E89.64745
G1 X73.277 Y86.528 E89.65605
G1 X73.802 Y86.710 E89.66498
G1 X74.353 Y86.866 E89.67424
G1 X74.936 Y86.990 E89.68374
G1 X75.550 Y87.084 E89.69375
G1 X76.205 Y87.135 E89.70430
G1 X76.909 Y87.139 E89.71554
G1 X77.665 Y87.090 E89.72782
G1 X78.249 Y86.859 E89.74458
G0 F10500 X73.777 Y89.210
G1 F1380 X73.120 Y89.513 E89.76446
G1 X73.389 Y88.537 E89.78434
G1 X72.604 Y88.615 E89.80420
G1 X72.871 Y87.640 E89.82400
G1 X72.088 Y87.717 E89.84381
G1 X72.355 Y86.743 E89.86359
G1 X71.702 Y87.043 E89.88276
G0 F10500 X74.036 Y89.659
G1 F1380 X73.635 Y90.412 E89.90270
G1 X74.423 Y90.332 E89.92264
G1 X74.418 Y90.690 E89.93220
G0 F10500 X70.608 Y85.713
G0 X67.451 Y87.537
G0 X70.172 Y92.815
G1 F1380 X69.523 Y93.110 E89.95175
G1 X69.783 Y92.143 E89.97130
G1 X69.005 Y92.214 E89.99085
G1 X69.265 Y91.247 E90.01046
G1 X68.486 Y91.318 E90.03003
G1 X68.748 Y90.350 E90.04967
G1 X67.968 Y90.422 E90.06927
G1 X68.230 Y89.453 E90.08887
G1 X67.449 Y89.527 E90.10855
G1 X67.712 Y88.557 E90.12823
G1 X66.931 Y88.631 E90.14790
G1 X67.069 Y87.786 E90.16764
G1 X66.542 Y87.959 E90.18243
;LAYER:4
M106 S51
G0 F10500 X66.460 Y87.753 Z1.825
;TYPE:WALL-INNER
G1 F1800 X66.840 Y87.236 E90.19955
G1 X67.165 Y86.555 E90.21968
G1 X67.300 Y86.083 E90.23278
G1 X67.369 Y85.633 E90.24492
G1 X67.386 Y85.303 E90.25374
G1 X67.363 Y84.846 E90.26595
G1 X67.276 Y84.374 E90.27875
G1 X66.863 Y83.147 E90.31329
G1 X66.659 Y82.402 E90.33390
G1 X66.455 Y81.340 E90.36275
G1 X66.344 Y80.259 E90.39174
G1 X66.327 Y79.179 E90.42055
G1 X66.408 Y78.101 E90.44939
G1 X66.580 Y77.049 E90.47783
G1 X66.853 Y75.977 E90.50734
G1 X67.145 Y75.133 E90.53117
G1 X67.499 Y74.308 E90.55512
G1 X68.012 Y73.339 E90.58437
G1 X68.597 Y72.436 E90.61307
G1 X69.272 Y71.575 E90.64226
G1 X70.013 Y70.783 E90.67119
G1 X70.829 Y70.055 E90.70037
G1 X71.614 Y69.466 E90.72655
G1 X72.453 Y68.935 E90.75304
G1 X84.903 Y61.746 E91.13657
G1 X84.987 Y61.768 E91.13889
G1 X85.442 Y62.557 E91.16319
G1 X85.701 Y63.005 E91.17699
G1 X94.691 Y78.575 E91.65664
G1 X94.926 Y78.982 E91.66917
G1 X94.903 Y79.066 E91.67150
G1 X93.524 Y79.862 E91.71398
G1 X93.318 Y79.839 E91.71951
G1 X92.911 Y79.129 E91.74134
G1 X90.127 Y74.319 E91.88960
G1 X85.922 Y76.745 E92.01911
G1 X86.635 Y77.984 E92.05725
G1 X89.116 Y82.253 E92.18898
G1 X89.021 Y82.460 E92.19505
G1 X74.471 Y90.863 E92.64330
G1 X74.267 Y90.839 E92.64878
G1 X72.458 Y87.700 E92.74543
G1 X71.078 Y85.317 E92.81890
G1 X69.932 Y85.976 E92.85416
G1 X68.821 Y86.619 E92.88841
G1 X68.275 Y86.934 E92.90523
G1 X67.803 Y87.207 E92.91977
G1 X66.869 Y87.746 E92.94854
G1 X70.063 Y93.252 E93.11835
G1 X69.977 Y93.457 E93.12429
G1 X68.596 Y94.255 E93.16684
G1 X68.514 Y94.233 E93.16910
G1 X65.294 Y88.655 E93.34093
G1 X65.768 Y88.368 E93.35571
G1 X65.924 Y88.255 E93.36085
G1 X66.460 Y87.753 E93.38044
G0 F10500 X69.883 Y83.819
G1 F1800 X70.578 Y84.513 E93.40664
G1 X71.373 Y85.152 E93.43385
G1 X72.237 Y85.697 E93.46110
G1 X73.099 Y86.114 E93.48665
G1 X73.280 Y86.192 E93.49191
G1 X74.070 Y86.462 E93.51418
G1 X75.081 Y86.699 E93.54188
G1 X76.073 Y86.814 E93.56853
G1 X76.269 Y86.824 E93.57376
G1 X77.076 Y86.821 E93.59529
G1 X78.067 Y86.716 E93.62188
G1 X78.957 Y86.526 E93.64615
G1 X79.865 Y86.233 E93.67161
G1 X80.683 Y85.872 E93.69546
G1 X81.465 Y85.428 E93.71945
G1 X82.184 Y84.921 E93.74292
G1 X82.884 Y84.317 E93.76759
G1 X83.577 Y83.576 E93.79465
G1 X84.185 Y82.756 E93.82189
G1 X84.679 Y81.906 E93.84811
G1 X85.085 Y80.989 E93.87487
G1 X85.165 Y80.768 E93.88114
G1 X85.399 Y79.996 E93.90266
G1 X85.586 Y79.036 E93.92875
G1 X85.668 Y78.044 E93.95531
G1 X85.675 Y77.847 E93.96057
G1 X85.640 Y76.997 E93.98326
G1 X85.502 Y76.029 E94.00935
G1 X85.248 Y75.044 E94.03648
G1 X84.912 Y74.149 E94.06199
G1 X84.504 Y73.332 E94.08635
G1 X84.021 Y72.570 E94.11042
G1 X83.463 Y71.859 E94.13453
G1 X82.813 Y71.182 E94.15957
G1 X82.125 Y70.599 E94.18363
G1 X81.385 Y70.088 E94.20762
G1 X80.597 Y69.654 E94.23162
G1 X79.772 Y69.301 E94.25556
G1 X78.877 Y69.019 E94.28059
G1 X77.991 Y68.838 E94.30472
G1 X77.036 Y68.746 E94.33031
G1 X76.802 Y68.738 E94.33656
G1 X75.993 Y68.757 E94.35815
G1 X74.983 Y68.884 E94.38530
G1 X74.048 Y69.111 E94.41097
G1 X73.824 Y69.179 E94.41722
G1 X73.087 Y69.457 E94.43823
G1 X72.910 Y69.532 E94.44336
G1 X72.152 Y69.918 E94.46605
G1 X71.330 Y70.447 E94.49213
G1 X70.550 Y71.079 E94.51891
G1 X69.819 Y71.822 E94.54672
G1 X69.192 Y72.622 E94.57383
G1 X68.678 Y73.459 E94.60004
G1 X68.241 Y74.380 E94.62723
G1 X67.916 Y75.331 E94.65405
G1 X67.699 Y76.308 E94.68075
G1 X67.590 Y77.300 E94.70737
G1 X67.581 Y77.497 E94.71263
G1 X67.593 Y78.344 E94.73523
G1 X67.704 Y79.293 E94.76072
G1 X67.937 Y80.314 E94.78866
G1 X68.270 Y81.257 E94.81534
G1 X68.698 Y82.143 E94.84159
G1 X68.810 Y82.344 E94.84773
G1 X69.248 Y83.024 E94.86930
G1 X69.883 Y83.819 E94.89645
G0 F10500 X70.256 Y83.485
;TYPE:WALL-OUTER
G1 F1500 X70.912 Y84.140 E94.92118
G1 X71.664 Y84.744 E94.94691
G1 X72.480 Y85.259 E94.97265
G1 X73.307 Y85.659 E94.99716
G1 X74.219 Y85.985 E95.02300
G1 X75.164 Y86.205 E95.04888
G1 X76.115 Y86.315 E95.07442
G1 X76.281 Y86.324 E95.07886
G1 X77.049 Y86.321 E95.09935
G1 X78.000 Y86.221 E95.12486
G1 X78.834 Y86.041 E95.14762
G1 X79.684 Y85.766 E95.17145
G1 X80.458 Y85.425 E95.19402
G1 X81.197 Y85.005 E95.21669
G1 X81.886 Y84.520 E95.23917
G1 X82.535 Y83.958 E95.26208
G1 X83.192 Y83.255 E95.28775
G1 X83.767 Y82.481 E95.31347
G1 X84.233 Y81.679 E95.33821
G1 X84.621 Y80.802 E95.36380
G1 X84.690 Y80.611 E95.36922
G1 X84.913 Y79.875 E95.38973
G1 X85.090 Y78.967 E95.41441
G1 X85.169 Y78.015 E95.43990
G1 X85.174 Y77.849 E95.44433
G1 X85.141 Y77.042 E95.46587
G1 X85.011 Y76.127 E95.49053
G1 X84.771 Y75.195 E95.51620
G1 X84.453 Y74.349 E95.54032
G1 X84.068 Y73.578 E95.56331
G1 X83.612 Y72.859 E95.58602
G1 X83.085 Y72.187 E95.60880
G1 X82.470 Y71.547 E95.63248
G1 X81.821 Y70.996 E95.65519
G1 X81.122 Y70.514 E95.67785
G1 X80.378 Y70.104 E95.70051
G1 X79.598 Y69.770 E95.72315
G1 X78.752 Y69.504 E95.74680
G1 X77.917 Y69.333 E95.76954
G1 X77.003 Y69.245 E95.79404
G1 X76.799 Y69.238 E95.79948
G1 X76.030 Y69.256 E95.82001
G1 X75.074 Y69.377 E95.84571
G1 X74.180 Y69.594 E95.87026
G1 X73.273 Y69.921 E95.89598
G1 X72.401 Y70.352 E95.92193
G1 X71.623 Y70.852 E95.94660
G1 X70.878 Y71.457 E95.97220
G1 X70.197 Y72.150 E95.99812
G1 X69.603 Y72.908 E96.02381
G1 X69.118 Y73.698 E96.04854
G1 X68.705 Y74.569 E96.07426
G1 X68.395 Y75.476 E96.09983
G1 X68.193 Y76.387 E96.12473
G1 X68.089 Y77.339 E96.15027
G1 X68.081 Y77.505 E96.15471
G1 X68.092 Y78.311 E96.17621
G1 X68.199 Y79.222 E96.20068
G1 X68.417 Y80.171 E96.22666
G1 X68.736 Y81.075 E96.25223
G1 X69.140 Y81.910 E96.27698
G1 X69.655 Y82.732 E96.30286
G1 X70.256 Y83.485 E96.32856
G0 F10500 X70.009 Y83.731
G0 X71.198 Y85.824
G0 X70.896 Y85.999
G1 F1500 X67.553 Y87.928 E96.43153
G1 X70.629 Y93.230 E96.59505
G1 X70.498 Y93.500 E96.60306
G1 X70.377 Y93.803 E96.61177
G1 X68.667 Y94.791 E96.66445
G1 X68.185 Y94.662 E96.67776
G1 X64.611 Y88.472 E96.86845
G1 X65.236 Y88.111 E96.88770
G1 X65.605 Y87.868 E96.89949
G1 X66.085 Y87.420 E96.91701
G1 X66.409 Y86.978 E96.93163
G1 X66.696 Y86.378 E96.94937
G1 X66.811 Y85.976 E96.96053
G1 X66.871 Y85.582 E96.97116
G1 X66.885 Y85.303 E96.97861
G1 X66.865 Y84.904 E96.98927
G1 X66.791 Y84.500 E97.00023
G1 X66.393 Y83.320 E97.03345
G1 X66.171 Y82.511 E97.05583
G1 X65.961 Y81.416 E97.08557
G1 X65.844 Y80.284 E97.11593
G1 X65.827 Y79.156 E97.14603
G1 X65.909 Y78.056 E97.17546
G1 X66.092 Y76.936 E97.20573
G1 X66.372 Y75.837 E97.23599
G1 X66.675 Y74.960 E97.26074
G1 X67.051 Y74.085 E97.28615
G1 X67.577 Y73.091 E97.31615
G1 X68.194 Y72.140 E97.34639
G1 X68.892 Y71.248 E97.37661
G1 X69.662 Y70.427 E97.40664
G1 X70.512 Y69.668 E97.43704
G1 X71.332 Y69.053 E97.46438
G1 X72.186 Y68.512 E97.49135
G1 X84.832 Y61.210 E97.88093
G1 X85.316 Y61.339 E97.89429
G1 X95.123 Y78.324 E98.41752
G1 X95.462 Y78.911 E98.43561
G1 X95.333 Y79.395 E98.44897
G1 X93.631 Y80.378 E98.50140
G1 X93.096 Y80.317 E98.51577
G1 X93.011 Y80.308 E98.51805
G1 X89.945 Y75.001 E98.68156
G1 X86.605 Y76.929 E98.78444
G1 X87.068 Y77.734 E98.80922
G1 X89.681 Y82.230 E98.94795
G1 X89.441 Y82.747 E98.96315
G1 X89.422 Y82.807 E98.96483
G1 X74.577 Y91.378 E99.42214
G1 X74.046 Y91.317 E99.43639
G1 X73.960 Y91.308 E99.43870
G1 X70.896 Y85.999 E99.60223
G0 F10500 X70.640 Y85.366
;TYPE:FILL
G1 F3600 X66.638 Y81.364 E99.75322
G0 F10500 X66.515 Y80.063
G1 F3600 X68.421 Y81.969 E99.82513
G0 F10500 X66.969 Y82.873
G1 F3600 X69.893 Y85.798 E99.93547
G0 F10500 X69.147 Y86.229
G1 F3600 X67.490 Y84.572 E99.99798
G0 F10500 X67.522 Y85.782
G1 F3600 X68.399 Y86.660 E100.03109
G0 F10500 X67.653 Y87.091
G1 F3600 X67.280 Y86.718 E100.04516
G0 F10500 X66.325 Y88.119
G1 F3600 X67.655 Y89.450 E100.09536
G0 F10500 X66.851 Y91.001
G1 F3600 X69.423 Y93.574 E100.19241
G0 F10500 X68.677 Y94.005
G1 F3600 X68.462 Y93.790 E100.20053
G0 F10500 X69.283 Y92.255
G1 F3600 X65.663 Y88.635 E100.33710
G0 F10500 X71.038 Y85.465
G0 X72.224 Y86.950
G1 F3600 X75.398 Y90.124 E100.45685
G0 F10500 X76.144 Y89.692
G1 F3600 X72.440 Y85.989 E100.59658
G0 F10500 X74.332 Y86.702
G1 F3600 X76.891 Y89.261 E100.69313
G0 F10500 X77.638 Y88.830
G1 F3600 X75.760 Y86.952 E100.76398
G0 F10500 X76.982 Y86.996
G1 F3600 X78.385 Y88.399 E100.81691
G0 F10500 X79.132 Y87.968
G1 F3600 X78.056 Y86.892 E100.85751
G0 F10500 X79.029 Y86.687
G1 F3600 X79.879 Y87.536 E100.88956
G0 F10500 X80.625 Y87.105
G1 F3600 X79.919 Y86.399 E100.91619
G0 F10500 X74.651 Y90.555
G1 F3600 X73.833 Y89.738 E100.94704
G0 F10500 X68.742 Y82.120
G0 X67.701 Y80.072
G1 F3600 X66.522 Y78.892 E100.99154
G0 F10500 X67.451 Y78.643
G1 F3600 X66.629 Y77.822 E101.02253
G0 F10500 X67.409 Y77.423
G1 F3600 X67.166 Y76.591 E101.04492
G1 X67.393 Y75.640 E101.06208
G1 X67.695 Y74.764 E101.07518
G1 X68.060 Y73.951 E101.08550
G1 X68.474 Y73.187 E101.09417
G1 X68.944 Y72.479 E101.10129
G1 X69.383 Y71.740 E101.10752
G1 X70.103 Y71.282 E101.11344
G1 X70.542 Y70.543 E101.11963
G1 X71.281 Y70.103 E101.12670
G1 X71.984 Y69.628 E101.13494
G1 X72.727 Y69.194 E101.14481
G1 X73.508 Y68.797 E101.15771
G1 X74.326 Y68.436 E101.17598
G1 X75.162 Y68.684 E101.19925
G0 F10500 X76.231 Y68.575
G1 F3600 X75.204 Y67.547 E101.23801
G0 F10500 X75.951 Y67.117
G1 F3600 X77.443 Y68.609 E101.29430
G0 F10500 X78.847 Y68.834
G1 F3600 X76.698 Y66.685 E101.37538
G0 F10500 X77.445 Y66.254
G1 F3600 X80.702 Y69.512 E101.49828
G0 F10500 X78.191 Y65.823
G1 F3600 X87.817 Y75.448 E101.86144
G0 F10500 X88.564 Y75.017
G1 F3600 X78.938 Y65.391 E102.22461
G0 F10500 X79.685 Y64.960
G1 F3600 X89.311 Y74.586 E102.58778
G0 F10500 X90.058 Y74.155
G1 F3600 X80.431 Y64.529 E102.95097
G0 F10500 X81.179 Y64.098
G1 F3600 X92.891 Y75.811 E103.39287
G0 F10500 X92.087 Y77.363
G1 F3600 X94.068 Y79.343 E103.46759
G0 F10500 X94.501 Y78.599
G1 F3600 X90.475 Y74.572 E103.61950
G0 F10500 X91.281 Y73.022
G1 F3600 X81.926 Y63.667 E103.97245
G0 F10500 X82.672 Y63.235
G1 F3600 X89.672 Y70.235 E104.23655
G0 F10500 X88.062 Y67.447
G1 F3600 X83.419 Y62.804 E104.41172
G0 F10500 X84.166 Y62.373
G1 F3600 X86.452 Y64.659 E104.49797
G0 F10500 X84.875 Y73.684
G1 F3600 X87.069 Y75.878 E104.58074
G0 F10500 X86.322 Y76.310
G1 F3600 X85.556 Y75.543 E104.60966
G0 F10500 X85.831 Y78.174
G1 F3600 X87.537 Y79.881 E104.67405
G0 F10500 X85.722 Y79.244
G1 F3600 X88.840 Y82.361 E104.79166
G0 F10500 X88.093 Y82.793
G1 F3600 X85.513 Y80.213 E104.88900
G0 F10500 X85.224 Y81.102
G1 F3600 X87.346 Y83.224 E104.96906
G0 F10500 X86.600 Y83.655
G1 F3600 X84.863 Y81.919 E105.03458
G0 F10500 X84.436 Y82.669
G1 F3600 X85.853 Y84.087 E105.08806
G0 F10500 X85.106 Y84.518
G1 F3600 X83.951 Y83.362 E105.13165
G0 F10500 X83.414 Y84.004
G1 F3600 X84.359 Y84.949 E105.16731
G0 F10500 X83.612 Y85.380
G1 F3600 X82.828 Y84.596 E105.19688
G0 F10500 X82.187 Y85.132
G1 F3600 X82.492 Y86.026 E105.22244
G1 X81.113 Y85.826 E105.24608
G1 X81.372 Y86.674 E105.26973
G0 F10500 X87.604 Y80.886
;TYPE:SKIN
G1 F1500 X88.833 Y82.116 E105.31612
G0 F10500 X87.858 Y80.433
G1 F1500 X86.638 Y79.213 E105.36215
G0 F10500 X86.881 Y78.749
G1 F1500 X85.843 Y77.711 E105.40131
G0 F10500 X86.071 Y76.785
G0 X90.087 Y74.468
G0 X90.465 Y74.555
G1 F1500 X91.664 Y75.754 E105.44655
G0 F10500 X91.434 Y76.231
G1 F1500 X92.621 Y77.419 E105.49135
G0 F10500 X92.403 Y77.907
G1 F1500 X93.578 Y79.082 E105.53568
G0 F10500 X93.372 Y79.584
G1 F1500 X93.474 Y79.685 E105.53951
G0 F10500 X90.706 Y74.089
G1 F1500 X90.586 Y73.969 E105.54404
G0 F10500 X85.569 Y77.219
G0 X85.117 Y80.753
G0 X83.538 Y83.544
G0 X80.660 Y85.826
G0 X77.072 Y86.770
G0 X74.086 Y86.415
G0 X72.137 Y85.926
G1 F1500 X71.902 Y85.691 E105.55290
G0 F10500 X71.909 Y86.404
G1 F1500 X73.097 Y87.593 E105.59774
G0 F10500 X72.875 Y88.078
G1 F1500 X74.057 Y89.260 E105.64234
G0 F10500 X73.841 Y89.751
G1 F1500 X74.647 Y90.557 E105.67275
G0 F10500 X71.038 Y85.465
G0 X67.018 Y87.787
G0 X69.295 Y92.276
G1 F1500 X68.075 Y91.056 E105.71878
G0 F10500 X68.318 Y90.592
G1 F1500 X67.110 Y89.384 E105.76435
G0 F10500 X67.341 Y88.908
G1 F1500 X66.442 Y88.009 E105.79827
G0 F10500 X69.039 Y92.727
G1 F1500 X69.717 Y93.405 E105.82385
;LAYER:5
M106 S63
G0 F10500 X69.751 Y93.588 Z2.175
;TYPE:WALL-INNER
G1 F1800 X68.596 Y94.255 E105.85943
G1 X68.514 Y94.233 E105.86170
G1 X65.294 Y88.656 E106.03350
G1 X65.910 Y88.267 E106.05293
G1 X66.353 Y87.869 E106.06882
G1 X66.571 Y87.618 E106.07769
G1 X66.762 Y87.355 E106.08636
G1 X67.061 Y86.815 E106.10283
G1 X67.295 Y86.106 E106.12275
G1 X67.369 Y85.635 E106.13547
G1 X67.386 Y85.302 E106.14436
G1 X67.363 Y84.846 E106.15654
G1 X67.276 Y84.373 E106.16937
G1 X66.871 Y83.175 E106.20311
G1 X66.661 Y82.406 E106.22438
G1 X66.456 Y81.352 E106.25302
G1 X66.343 Y80.259 E106.28234
G1 X66.327 Y79.183 E106.31105
G1 X66.408 Y78.108 E106.33981
G1 X66.580 Y77.051 E106.36837
G1 X66.851 Y75.984 E106.39774
G1 X67.145 Y75.132 E106.42179
G1 X67.499 Y74.308 E106.44571
G1 X68.012 Y73.339 E106.47496
G1 X68.597 Y72.436 E106.50367
G1 X69.272 Y71.575 E106.53286
G1 X70.013 Y70.783 E106.56179
G1 X70.829 Y70.055 E106.59096
G1 X71.614 Y69.466 E106.61715
G1 X72.447 Y68.939 E106.64344
G1 X84.904 Y61.746 E107.02719
G1 X84.986 Y61.768 E107.02946
G1 X94.926 Y78.983 E107.55978
G1 X94.904 Y79.065 E107.56204
G1 X94.168 Y79.489 E107.58470
G1 X93.749 Y79.732 E107.59763
G1 X93.605 Y79.705 E107.60153
G1 X92.236 Y77.323 E107.67483
G1 X90.404 Y74.159 E107.77237
G1 X88.866 Y75.047 E107.81975
G1 X88.402 Y75.315 E107.83404
G1 X87.963 Y75.567 E107.84754
G1 X87.523 Y75.822 E107.86111
G1 X87.040 Y76.100 E107.87598
G1 X86.544 Y76.388 E107.89128
G1 X85.645 Y76.901 E107.91889
G1 X87.029 Y79.302 E107.99283
G1 X88.852 Y82.443 E108.08971
G1 X88.800 Y82.589 E108.09385
G1 X74.697 Y90.732 E108.52830
G1 X74.553 Y90.705 E108.53221
G1 X74.092 Y89.901 E108.55693
G1 X71.354 Y85.158 E108.70304
G1 X70.247 Y85.795 E108.73711
G1 X68.667 Y86.707 E108.78578
G1 X68.138 Y87.014 E108.80210
G1 X66.595 Y87.902 E108.84959
G1 X67.678 Y89.783 E108.90749
G1 X69.804 Y93.447 E109.02050
G1 X69.751 Y93.588 E109.02452
G0 F10500 X66.743 Y87.942
G0 X71.313 Y85.307
G0 X73.050 Y86.093
G1 F1800 X74.035 Y86.452 E109.05249
G1 X75.028 Y86.689 E109.07973
G1 X76.035 Y86.812 E109.10679
G1 X76.314 Y86.825 E109.11424
G1 X77.022 Y86.822 E109.13313
G1 X78.019 Y86.723 E109.15986
G1 X78.921 Y86.535 E109.18444
G1 X79.824 Y86.248 E109.20972
G1 X80.645 Y85.891 E109.23360
G1 X81.413 Y85.460 E109.25710
G1 X82.163 Y84.938 E109.28147
G1 X82.840 Y84.358 E109.30526
G1 X83.532 Y83.626 E109.33213
G1 X84.155 Y82.799 E109.35975
G1 X84.647 Y81.965 E109.38558
G1 X85.075 Y81.016 E109.41336
G1 X85.387 Y80.042 E109.44064
G1 X85.576 Y79.094 E109.46643
G1 X85.666 Y78.094 E109.49322
G1 X85.674 Y77.813 E109.50072
G1 X85.644 Y77.055 E109.52095
G1 X85.618 Y76.783 E109.52824
G1 X85.511 Y76.083 E109.54714
G1 X85.264 Y75.095 E109.57430
G1 X84.927 Y74.184 E109.60022
G1 X84.525 Y73.371 E109.62441
G1 X84.057 Y72.624 E109.64793
G1 X83.495 Y71.896 E109.67247
G1 X82.841 Y71.207 E109.69781
G1 X82.176 Y70.640 E109.72112
G1 X81.421 Y70.111 E109.74572
G1 X80.643 Y69.678 E109.76947
G1 X79.825 Y69.321 E109.79328
G1 X78.916 Y69.030 E109.81874
G1 X78.035 Y68.846 E109.84275
G1 X77.096 Y68.750 E109.86793
G1 X76.817 Y68.737 E109.87539
G1 X76.043 Y68.754 E109.89604
G1 X75.029 Y68.876 E109.92329
G1 X74.088 Y69.099 E109.94908
G1 X73.121 Y69.441 E109.97645
G1 X72.196 Y69.893 E110.00391
G1 X71.380 Y70.412 E110.02971
G1 X70.589 Y71.044 E110.05672
G1 X69.849 Y71.788 E110.08472
G1 X69.216 Y72.589 E110.11195
G1 X68.705 Y73.410 E110.13775
G1 X68.265 Y74.323 E110.16479
G1 X67.921 Y75.311 E110.19270
G1 X67.710 Y76.249 E110.21835
G1 X67.594 Y77.250 E110.24523
G1 X67.580 Y77.530 E110.25271
G1 X67.591 Y78.302 E110.27331
G1 X67.698 Y79.258 E110.29897
G1 X67.922 Y80.259 E110.32634
G1 X68.259 Y81.230 E110.35376
G1 X68.669 Y82.089 E110.37915
G1 X68.834 Y82.384 E110.38817
G1 X69.220 Y82.983 E110.40718
G1 X69.852 Y83.784 E110.43440
G1 X70.533 Y84.472 E110.46022
G1 X71.329 Y85.120 E110.48761
G1 X72.196 Y85.673 E110.51504
G1 X73.050 Y86.093 E110.54043
G0 F10500 X73.256 Y85.637
;TYPE:WALL-OUTER
G1 F1500 X73.539 Y85.754 E110.54860
G1 X74.174 Y85.971 E110.56650
G1 X75.117 Y86.196 E110.59237
G1 X76.077 Y86.313 E110.61817
G1 X76.325 Y86.325 E110.62479
G1 X76.996 Y86.322 E110.64269
G1 X77.954 Y86.227 E110.66837
G1 X78.790 Y86.052 E110.69116
G1 X79.648 Y85.779 E110.71518
G1 X80.422 Y85.442 E110.73770
G1 X81.155 Y85.031 E110.76012
G1 X81.854 Y84.545 E110.78283
G1 X82.495 Y83.995 E110.80537
G1 X83.157 Y83.295 E110.83107
G1 X83.316 Y83.103 E110.83772
G1 X83.742 Y82.516 E110.85707
G1 X84.206 Y81.730 E110.88142
G1 X84.606 Y80.841 E110.90743
G1 X84.902 Y79.917 E110.93331
G1 X85.081 Y79.023 E110.95763
G1 X85.167 Y78.064 E110.98332
G1 X85.174 Y77.816 E110.98994
G1 X85.145 Y77.089 E111.00935
G1 X85.020 Y76.182 E111.03378
G1 X84.785 Y75.243 E111.05960
G1 X84.467 Y74.382 E111.08408
G1 X84.088 Y73.615 E111.10691
G1 X83.641 Y72.902 E111.12936
G1 X83.118 Y72.225 E111.15218
G1 X82.496 Y71.570 E111.17628
G1 X81.859 Y71.026 E111.19863
G1 X81.158 Y70.537 E111.22143
G1 X80.421 Y70.127 E111.24393
G1 X79.648 Y69.790 E111.26642
G1 X78.788 Y69.514 E111.29052
G1 X77.958 Y69.341 E111.31314
G1 X77.059 Y69.249 E111.33725
G1 X76.811 Y69.237 E111.34387
G1 X76.079 Y69.253 E111.36340
G1 X75.117 Y69.369 E111.38925
G1 X74.229 Y69.580 E111.41360
G1 X73.314 Y69.903 E111.43949
G1 X72.441 Y70.330 E111.46542
G1 X71.671 Y70.819 E111.48975
G1 X70.916 Y71.423 E111.51555
G1 X70.226 Y72.117 E111.54165
G1 X69.626 Y72.877 E111.56749
G1 X69.144 Y73.651 E111.59181
G1 X68.724 Y74.522 E111.61761
G1 X68.404 Y75.445 E111.64367
G1 X68.203 Y76.333 E111.66796
G1 X68.093 Y77.291 E111.69368
G1 X68.080 Y77.539 E111.70031
G1 X68.090 Y78.271 E111.71984
G1 X68.192 Y79.175 E111.74411
G1 X68.404 Y80.122 E111.77000
G1 X68.722 Y81.040 E111.79592
G1 X69.113 Y81.859 E111.82013
G1 X69.627 Y82.692 E111.84624
G1 X70.227 Y83.452 E111.87207
G1 X70.870 Y84.101 E111.89645
G1 X71.622 Y84.714 E111.92233
G1 X72.441 Y85.236 E111.94824
G1 X73.256 Y85.637 E111.97247
G0 F10500 X73.124 Y85.960
G0 X71.473 Y85.666
G0 X71.171 Y85.840
G1 F1500 X67.278 Y88.086 E112.09237
G1 X70.356 Y93.402 E112.25625
G1 X70.164 Y93.926 E112.27114
G1 X68.667 Y94.791 E112.31726
G1 X68.185 Y94.662 E112.33057
G1 X64.611 Y88.473 E112.52124
G1 X65.230 Y88.115 E112.54031
G1 X65.604 Y87.870 E112.55224
G1 X65.996 Y87.518 E112.56630
G1 X66.339 Y87.086 E112.58101
G1 X66.601 Y86.614 E112.59541
G1 X66.808 Y85.988 E112.61300
G1 X66.871 Y85.584 E112.62391
G1 X66.885 Y85.302 E112.63144
G1 X66.865 Y84.904 E112.64208
G1 X66.791 Y84.499 E112.65306
G1 X66.396 Y83.330 E112.68598
G1 X66.173 Y82.518 E112.70844
G1 X65.962 Y81.431 E112.73798
G1 X65.844 Y80.287 E112.76866
G1 X65.827 Y79.168 E112.79852
G1 X65.828 Y79.134 E112.79943
G1 X65.909 Y78.063 E112.82808
G1 X66.092 Y76.941 E112.85841
G1 X66.371 Y75.841 E112.88868
G1 X66.675 Y74.960 E112.91355
G1 X67.051 Y74.085 E112.93896
G1 X67.577 Y73.091 E112.96896
G1 X68.194 Y72.140 E112.99920
G1 X68.892 Y71.248 E113.02942
G1 X69.662 Y70.427 E113.05944
G1 X70.512 Y69.668 E113.08985
G1 X71.332 Y69.053 E113.11719
G1 X72.180 Y68.516 E113.14397
G1 X84.832 Y61.209 E113.53374
G1 X85.315 Y61.338 E113.54708
G1 X95.462 Y78.912 E114.08846
G1 X95.334 Y79.395 E114.10179
G1 X93.839 Y80.258 E114.14784
G1 X93.338 Y80.163 E114.16144
G1 X93.288 Y80.156 E114.16279
G1 X90.222 Y74.841 E114.32648
G1 X86.330 Y77.087 E114.44636
G1 X89.403 Y82.395 E114.60999
G1 X89.210 Y82.929 E114.62514
G1 X74.787 Y91.258 E115.06946
G1 X74.286 Y91.163 E115.08307
G1 X74.236 Y91.156 E115.08441
G1 X71.171 Y85.840 E115.24812
G0 F10500 X70.838 Y85.252
;TYPE:FILL
G1 F3600 X71.008 Y85.082 E115.25453
G0 F10500 X70.363 Y84.549
G1 F3600 X68.056 Y86.856 E115.34157
G0 F10500 X67.405 Y86.329
G1 F3600 X69.777 Y83.957 E115.43106
G0 F10500 X69.251 Y83.305
G1 F3600 X67.547 Y85.009 E115.49535
G0 F10500 X67.346 Y84.031
G1 F3600 X68.770 Y82.608 E115.54906
G0 F10500 X68.358 Y81.842
G1 F3600 X67.049 Y83.151 E115.59844
G0 F10500 X66.803 Y82.219
G1 F3600 X68.001 Y81.021 E115.64364
G0 F10500 X67.713 Y80.131
G1 F3600 X66.620 Y81.224 E115.68488
G0 F10500 X66.516 Y80.149
G1 F3600 X67.510 Y79.156 E115.72236
G0 F10500 X66.518 Y78.970
G1 F3600 X67.412 Y78.076 E115.75609
G0 F10500 X66.658 Y77.651
G1 F3600 X67.465 Y76.845 E115.78652
G0 F10500 X66.991 Y76.141
G1 F3600 X67.716 Y75.415 E115.81389
G0 F10500 X67.752 Y74.201
G1 F3600 X68.479 Y73.474 E115.84132
G0 F10500 X72.313 Y69.640
G1 F3600 X73.314 Y68.639 E115.87909
G0 F10500 X74.251 Y68.880
G1 F3600 X76.103 Y67.028 E115.94896
G0 F10500 X75.690 Y68.619
G1 F3600 X78.891 Y65.418 E116.06973
G0 F10500 X81.680 Y63.807
G1 F3600 X76.921 Y68.567 E116.24930
G0 F10500 X77.998 Y68.667
G1 F3600 X84.468 Y62.197 E116.49340
G0 F10500 X85.255 Y62.588
G1 F3600 X78.978 Y68.866 E116.73024
G0 F10500 X79.870 Y69.152
G1 F3600 X85.687 Y63.335 E116.94970
G0 F10500 X86.118 Y64.082
G1 F3600 X80.690 Y69.510 E117.15449
G0 F10500 X81.450 Y69.927
G1 F3600 X86.549 Y64.828 E117.34687
G0 F10500 X86.981 Y65.575
G1 F3600 X82.148 Y70.408 E117.52921
G0 F10500 X82.795 Y70.939
G1 F3600 X87.411 Y66.323 E117.70336
G0 F10500 X87.843 Y67.069
G1 F3600 X83.386 Y71.526 E117.87152
G0 F10500 X83.924 Y72.166
G1 F3600 X88.274 Y67.816 E118.03564
G0 F10500 X88.705 Y68.563
G1 F3600 X84.410 Y72.858 E118.19768
G0 F10500 X84.837 Y73.609
G1 F3600 X89.137 Y69.309 E118.35991
G0 F10500 X89.568 Y70.056
G1 F3600 X85.202 Y74.422 E118.52463
G0 F10500 X85.496 Y75.306
G1 F3600 X89.999 Y70.803 E118.69452
G0 F10500 X90.430 Y71.550
G1 F3600 X85.715 Y76.265 E118.87241
G0 F10500 X86.172 Y78.164
G1 F3600 X85.801 Y78.535 E118.88641
G0 F10500 X86.604 Y78.910
G1 F3600 X85.586 Y79.928 E118.92482
G0 F10500 X87.036 Y79.656
G1 F3600 X84.928 Y81.764 E119.00435
G0 F10500 X86.532 Y83.694
G1 F3600 X88.331 Y81.895 E119.07222
G0 F10500 X87.899 Y81.149
G1 F3600 X83.745 Y85.303 E119.22895
G0 F10500 X80.957 Y86.914
G1 F3600 X87.468 Y80.402 E119.47461
G0 F10500 X80.588 Y86.104
G1 F3600 X78.169 Y88.524 E119.56590
G0 F10500 X77.375 Y86.961
G1 F3600 X74.345 Y89.991 E119.68022
G0 F10500 X73.914 Y89.244
G1 F3600 X76.167 Y86.991 E119.76522
G0 F10500 X75.107 Y86.873
G1 F3600 X73.483 Y88.497 E119.82649
G0 F10500 X73.053 Y87.749
G1 F3600 X74.145 Y86.657 E119.86769
G0 F10500 X73.267 Y86.357
G1 F3600 X72.406 Y86.629 E119.89206
G1 X72.452 Y85.994 E119.90905
G0 F10500 X75.381 Y90.134
G1 F3600 X78.770 Y86.744 E120.03693
G0 F10500 X73.960 Y89.775
G0 X71.313 Y85.307
G0 X66.743 Y87.942
G0 X69.210 Y92.770
G1 F3600 X68.363 Y93.618 E120.06890
G0 F10500 X67.931 Y92.871
G1 F3600 X68.778 Y92.024 E120.10086
G0 F10500 X68.346 Y91.278
G1 F3600 X67.501 Y92.123 E120.13274
G0 F10500 X67.069 Y91.377
G1 F3600 X67.914 Y90.532 E120.16462
G0 F10500 X67.483 Y89.785
G1 F3600 X66.638 Y90.630 E120.19650
G0 F10500 X66.207 Y89.883
G1 F3600 X67.051 Y89.039 E120.22834
G0 F10500 X66.620 Y88.292
G1 F3600 X65.775 Y89.137 E120.26022
G0 F10500 X66.743 Y87.942
G0 X71.313 Y85.307
G0 X75.037 Y86.639
G0 X78.284 Y86.628
G0 X81.615 Y85.270
G0 X84.261 Y82.542
G0 X85.526 Y79.086
G0 X85.551 Y76.844
G0 X87.564 Y75.594
G1 F3600 X90.861 Y72.297 E120.38462
G0 F10500 X91.293 Y73.044
G1 F3600 X90.347 Y73.990 E120.42031
G0 F10500 X90.880 Y74.634
G1 F3600 X91.724 Y73.790 E120.45215
G0 F10500 X92.155 Y74.537
G1 F3600 X91.312 Y75.381 E120.48397
G0 F10500 X91.742 Y76.128
G1 F3600 X92.587 Y75.284 E120.51583
G0 F10500 X93.018 Y76.030
G1 F3600 X92.174 Y76.875 E120.54770
G0 F10500 X92.605 Y77.621
G1 F3600 X93.449 Y76.778 E120.57952
G0 F10500 X93.880 Y77.525
G1 F3600 X93.036 Y78.369 E120.61136
G0 F10500 X93.467 Y79.116
G1 F3600 X94.311 Y78.271 E120.64322
G0 F10500 X93.511 Y78.669
;TYPE:SKIN
G1 F1500 X93.190 Y78.635 E120.65044
G1 X93.123 Y77.995 E120.65762
G1 X92.673 Y77.739 E120.66485
G1 X92.607 Y77.097 E120.67209
G1 X92.155 Y76.842 E120.67934
G1 X92.091 Y76.199 E120.68665
G1 X91.637 Y75.945 E120.69398
G1 X91.574 Y75.301 E120.70130
G1 X91.120 Y75.049 E120.70864
G1 X91.057 Y74.404 E120.71600
G1 X90.732 Y74.377 E120.72470
G0 F10500 X93.769 Y79.118
G1 F1500 X93.578 Y79.309 E120.73191
G0 F10500 X90.364 Y74.308
G0 X85.794 Y76.942
G0 X87.232 Y79.997
G1 F1500 X87.164 Y80.419 E120.73937
G1 X87.621 Y80.669 E120.74684
G1 X87.682 Y81.315 E120.75432
G1 X88.139 Y81.565 E120.76180
G1 X88.201 Y82.210 E120.76920
G1 X88.529 Y82.237 E120.77798
G0 F10500 X86.776 Y79.747
G1 F1500 X86.844 Y79.325 E120.78543
G1 X86.386 Y79.075 E120.79290
G1 X86.325 Y78.429 E120.80037
G1 X85.998 Y78.403 E120.80913
G0 F10500 X84.114 Y82.771
G0 X81.615 Y85.270
G0 X78.284 Y86.628
G0 X75.037 Y86.639
G0 X72.496 Y86.248
G1 F1500 X72.429 Y86.669 E120.81652
G1 X72.883 Y86.921 E120.82386
G1 X72.946 Y87.565 E120.83121
G1 X73.400 Y87.819 E120.83857
G1 X73.463 Y88.463 E120.84589
G1 X73.916 Y88.717 E120.85318
G1 X73.981 Y89.359 E120.86041
G1 X74.432 Y89.615 E120.86766
G1 X74.498 Y90.257 E120.87489
G1 X74.819 Y90.289 E120.88349
G0 F10500 X72.041 Y85.996
G1 F1500 X72.179 Y85.859 E120.88868
G0 F10500 X71.313 Y85.307
G0 X66.743 Y87.942
G0 X66.988 Y88.928
G1 F1500 X66.919 Y89.350 E120.89619
G1 X67.376 Y89.600 E120.90366
G1 X67.437 Y90.246 E120.91114
G1 X67.895 Y90.496 E120.91860
G1 X67.956 Y91.141 E120.92607
G1 X68.413 Y91.392 E120.93347
G1 X68.474 Y92.037 E120.94094
G1 X68.931 Y92.288 E120.94836
G1 X68.993 Y92.933 E120.95576
G1 X69.450 Y93.184 E120.96316
G1 X69.398 Y93.589 E120.97406
G0 F10500 X66.530 Y88.678
G1 F1500 X66.599 Y88.256 E120.98152
G1 X66.271 Y88.231 E120.99029
;LAYER:6
M106 S76
G0 F10500 X66.030 Y88.174 Z2.525
;TYPE:WALL-INNER
G1 F1800 X66.561 Y87.633 E121.01052
G1 X66.914 Y87.107 E121.02742
G1 X67.169 Y86.540 E121.04400
G1 X67.300 Y86.081 E121.05674
G1 X67.369 Y85.635 E121.06878
G1 X67.386 Y85.299 E121.07775
G1 X67.362 Y84.846 E121.08985
G1 X67.276 Y84.372 E121.10270
G1 X66.881 Y83.207 E121.13552
G1 X66.664 Y82.417 E121.15738
G1 X66.457 Y81.355 E121.18624
G1 X66.345 Y80.265 E121.21548
G1 X66.327 Y79.183 E121.24435
G1 X66.407 Y78.113 E121.27297
G1 X66.579 Y77.056 E121.30154
G1 X66.850 Y75.987 E121.33096
G1 X67.145 Y75.132 E121.35509
G1 X67.499 Y74.308 E121.37902
G1 X68.012 Y73.339 E121.40827
G1 X68.597 Y72.436 E121.43697
G1 X69.272 Y71.575 E121.46616
G1 X70.013 Y70.783 E121.49509
G1 X70.829 Y70.055 E121.52426
G1 X71.614 Y69.466 E121.55045
G1 X72.441 Y68.943 E121.57655
G1 X84.904 Y61.745 E121.96051
G1 X84.987 Y61.768 E121.96280
G1 X94.927 Y78.982 E122.49310
G1 X94.905 Y79.064 E122.49537
G1 X93.913 Y79.637 E122.52593
G1 X93.797 Y79.610 E122.52911
G1 X90.597 Y74.049 E122.70027
G1 X89.506 Y74.676 E122.73384
G1 X87.715 Y75.711 E122.78903
G1 X87.235 Y75.987 E122.80380
G1 X86.757 Y76.264 E122.81854
G1 X86.290 Y76.533 E122.83291
G1 X85.624 Y76.919 E122.85345
G1 X85.522 Y76.147 E122.87422
G1 X85.279 Y75.146 E122.90170
G1 X84.942 Y74.219 E122.92802
G1 X84.546 Y73.409 E122.95207
G1 X84.084 Y72.663 E122.97548
G1 X83.876 Y72.370 E122.98507
G1 X83.528 Y71.936 E122.99991
G1 X82.869 Y71.234 E123.02560
G1 X82.191 Y70.651 E123.04945
G1 X81.475 Y70.147 E123.07281
G1 X81.169 Y69.959 E123.08239
G1 X80.683 Y69.698 E123.09711
G1 X79.877 Y69.342 E123.12061
G1 X78.954 Y69.040 E123.14652
G1 X78.093 Y68.856 E123.17001
G1 X77.145 Y68.754 E123.19545
G1 X76.792 Y68.737 E123.20488
G1 X76.107 Y68.752 E123.22315
G1 X75.066 Y68.871 E123.25111
G1 X74.159 Y69.080 E123.27594
G1 X73.737 Y69.210 E123.28772
G1 X73.174 Y69.421 E123.30376
G1 X72.242 Y69.869 E123.33134
G1 X71.936 Y70.047 E123.34079
G1 X71.425 Y70.382 E123.35709
G1 X70.629 Y71.009 E123.38412
G1 X69.880 Y71.753 E123.41229
G1 X69.249 Y72.545 E123.43930
G1 X68.730 Y73.368 E123.46526
G1 X68.284 Y74.280 E123.49234
G1 X67.933 Y75.272 E123.52041
G1 X67.719 Y76.193 E123.54564
G1 X67.597 Y77.203 E123.57278
G1 X67.580 Y77.566 E123.58248
G1 X67.589 Y78.260 E123.60099
G1 X67.690 Y79.200 E123.62621
G1 X67.908 Y80.209 E123.65375
G1 X68.242 Y81.189 E123.68137
G1 X68.649 Y82.051 E123.70680
G1 X69.185 Y82.932 E123.73432
G1 X69.822 Y83.749 E123.76195
G1 X70.489 Y84.430 E123.78738
G1 X71.285 Y85.087 E123.81492
G1 X71.377 Y85.146 E123.81783
G1 X70.532 Y85.630 E123.84381
G1 X69.591 Y86.175 E123.87282
G1 X69.062 Y86.479 E123.88910
G1 X68.531 Y86.787 E123.90548
G1 X68.088 Y87.041 E123.91910
G1 X67.176 Y87.569 E123.94721
G1 X66.405 Y88.012 E123.97094
G1 X69.291 Y93.019 E124.12511
G1 X69.618 Y93.581 E124.14246
G1 X69.584 Y93.684 E124.14535
G1 X68.596 Y94.255 E124.17580
G1 X68.514 Y94.233 E124.17806
G1 X65.294 Y88.656 E124.34986
G1 X66.030 Y88.174 E124.37333
G0 F10500 X71.504 Y85.198
G0 X72.142 Y85.642
G1 F1800 X72.461 Y85.816 E124.38303
G1 X73.015 Y86.077 E124.39936
G1 X73.976 Y86.433 E124.42670
G1 X74.980 Y86.680 E124.45429
G1 X75.995 Y86.809 E124.48158
G1 X76.356 Y86.826 E124.49123
G1 X76.967 Y86.824 E124.50753
G1 X77.986 Y86.729 E124.53483
G1 X78.862 Y86.550 E124.55868
G1 X79.789 Y86.261 E124.58459
G1 X80.607 Y85.909 E124.60834
G1 X81.385 Y85.477 E124.63208
G1 X82.117 Y84.973 E124.65579
G1 X82.798 Y84.397 E124.67959
G1 X83.512 Y83.652 E124.70712
G1 X84.126 Y82.842 E124.73423
G1 X84.283 Y82.604 E124.74184
G1 X84.621 Y82.013 E124.76000
G1 X84.816 Y81.625 E124.77159
G1 X85.058 Y81.060 E124.78798
G1 X85.375 Y80.085 E124.81534
G1 X85.565 Y79.164 E124.84042
G1 X85.664 Y78.134 E124.86803
G1 X85.674 Y77.778 E124.87753
G1 X85.657 Y77.361 E124.88866
G1 X88.383 Y82.088 E125.03424
G1 X88.669 Y82.580 E125.04942
G1 X88.636 Y82.683 E125.05230
G1 X74.859 Y90.638 E125.47672
G1 X74.748 Y90.612 E125.47976
G1 X73.187 Y87.895 E125.56335
G1 X71.731 Y85.376 E125.64097
G1 X72.142 Y85.642 E125.65403
G0 F10500 X72.398 Y85.212
;TYPE:WALL-OUTER
G1 F1500 X72.688 Y85.370 E125.66284
G1 X73.209 Y85.616 E125.67822
G1 X74.123 Y85.954 E125.70421
G1 X75.071 Y86.187 E125.73026
G1 X76.038 Y86.310 E125.75626
G1 X76.367 Y86.326 E125.76505
G1 X76.943 Y86.324 E125.78042
G1 X77.913 Y86.234 E125.80640
G1 X78.737 Y86.065 E125.82884
G1 X79.615 Y85.792 E125.85337
G1 X80.386 Y85.460 E125.87577
G1 X81.121 Y85.052 E125.89820
G1 X81.813 Y84.575 E125.92062
G1 X82.455 Y84.032 E125.94305
G1 X83.131 Y83.327 E125.96911
G1 X83.718 Y82.553 E125.99502
G1 X84.180 Y81.777 E126.01911
G1 X84.362 Y81.414 E126.02995
G1 X84.589 Y80.884 E126.04533
G1 X84.891 Y79.957 E126.07134
G1 X85.072 Y79.081 E126.09520
G1 X85.165 Y78.109 E126.12125
G1 X85.174 Y77.781 E126.13001
G1 X85.147 Y77.126 E126.14749
G1 X85.030 Y76.239 E126.17136
G1 X84.800 Y75.291 E126.19739
G1 X84.481 Y74.415 E126.22226
G1 X84.108 Y73.651 E126.24494
G1 X83.667 Y72.940 E126.26726
G1 X83.477 Y72.671 E126.27605
G1 X83.150 Y72.264 E126.28997
G1 X82.522 Y71.595 E126.31445
G1 X81.884 Y71.046 E126.33691
G1 X81.200 Y70.565 E126.35922
G1 X80.463 Y70.147 E126.38182
G1 X79.698 Y69.809 E126.40413
G1 X78.824 Y69.523 E126.42867
G1 X78.005 Y69.349 E126.45100
G1 X77.679 Y69.302 E126.45979
G1 X77.112 Y69.253 E126.47497
G1 X76.785 Y69.237 E126.48371
G1 X76.133 Y69.251 E126.50110
G1 X75.157 Y69.363 E126.52731
G1 X74.289 Y69.563 E126.55108
G1 X73.898 Y69.683 E126.56199
G1 X73.363 Y69.884 E126.57723
G1 X72.481 Y70.308 E126.60334
G1 X71.718 Y70.788 E126.62739
G1 X70.955 Y71.389 E126.65330
G1 X70.657 Y71.668 E126.66419
G1 X70.257 Y72.083 E126.67957
G1 X69.652 Y72.842 E126.70546
G1 X69.169 Y73.607 E126.72960
G1 X68.743 Y74.480 E126.75551
G1 X68.415 Y75.407 E126.78175
G1 X68.212 Y76.280 E126.80566
G1 X68.096 Y77.245 E126.83159
G1 X68.080 Y77.575 E126.84040
G1 X68.088 Y78.230 E126.85788
G1 X68.184 Y79.120 E126.88176
G1 X68.391 Y80.075 E126.90783
G1 X68.706 Y81.001 E126.93392
G1 X69.090 Y81.814 E126.95791
G1 X69.597 Y82.647 E126.98392
G1 X70.199 Y83.419 E127.01004
G1 X70.828 Y84.061 E127.03402
G1 X71.581 Y84.683 E127.06007
G1 X72.398 Y85.212 E127.08604
G0 F10500 X71.360 Y85.732
G1 F1500 X70.799 Y86.053 E127.10328
G1 X70.361 Y86.306 E127.11678
G1 X67.089 Y88.197 E127.21760
G1 X70.162 Y93.522 E127.38161
G1 X70.004 Y94.019 E127.39553
G1 X68.666 Y94.791 E127.43674
G1 X68.185 Y94.662 E127.45002
G1 X64.611 Y88.473 E127.64069
G1 X65.224 Y88.119 E127.65957
G1 X65.707 Y87.789 E127.67518
G1 X66.172 Y87.316 E127.69287
G1 X66.475 Y86.863 E127.70741
G1 X66.698 Y86.368 E127.72189
G1 X66.811 Y85.974 E127.73283
G1 X66.871 Y85.584 E127.74336
G1 X66.885 Y85.300 E127.75094
G1 X66.865 Y84.904 E127.76152
G1 X66.791 Y84.498 E127.77253
G1 X66.399 Y83.340 E127.80515
G1 X66.174 Y82.522 E127.82778
G1 X65.963 Y81.436 E127.85729
G1 X65.845 Y80.290 E127.88803
G1 X65.827 Y79.171 E127.91788
G1 X65.828 Y79.130 E127.91898
G1 X65.908 Y78.070 E127.94734
G1 X66.091 Y76.944 E127.97777
G1 X66.370 Y75.844 E128.00804
G1 X66.675 Y74.960 E128.03299
G1 X67.051 Y74.085 E128.05840
G1 X67.577 Y73.091 E128.08840
G1 X68.194 Y72.140 E128.11864
G1 X68.892 Y71.248 E128.14886
G1 X69.662 Y70.427 E128.17889
G1 X70.512 Y69.668 E128.20929
G1 X71.332 Y69.053 E128.23663
G1 X72.174 Y68.520 E128.26322
G1 X84.833 Y61.209 E128.65321
G1 X85.317 Y61.338 E128.66657
G1 X95.463 Y78.911 E129.20791
G1 X95.334 Y79.393 E129.22123
G1 X93.990 Y80.170 E129.26264
G1 X93.477 Y80.055 E129.27667
G1 X90.413 Y74.732 E129.44052
G1 X86.540 Y76.966 E129.55980
G1 X86.140 Y77.198 E129.57214
G1 X89.214 Y82.522 E129.73614
G1 X89.055 Y83.019 E129.75007
G1 X74.938 Y91.170 E130.18495
G1 X74.425 Y91.054 E130.19898
G1 X71.360 Y85.732 E130.36282
G0 F10500 X70.640 Y85.366
;TYPE:FILL
G1 F3600 X66.636 Y81.362 E130.51389
G0 F10500 X66.516 Y80.064
G1 F3600 X68.415 Y81.963 E130.58553
G0 F10500 X66.970 Y82.875
G1 F3600 X69.893 Y85.797 E130.69579
G0 F10500 X69.145 Y86.228
G1 F3600 X67.490 Y84.572 E130.75825
G0 F10500 X67.523 Y85.783
G1 F3600 X68.398 Y86.658 E130.79126
G0 F10500 X67.651 Y87.089
G1 F3600 X67.279 Y86.718 E130.80528
G0 F10500 X65.655 Y88.628
G1 F3600 X67.790 Y90.762 E130.88581
G0 F10500 X66.851 Y91.001
G1 F3600 X69.395 Y93.545 E130.98179
G0 F10500 X68.677 Y94.006
G1 F3600 X68.459 Y93.788 E130.99002
G0 F10500 X66.554 Y88.052
G0 X71.504 Y85.198
G0 X73.681 Y88.407
G1 F3600 X75.396 Y90.122 E131.05472
G0 F10500 X76.143 Y89.691
G1 F3600 X72.460 Y86.008 E131.19367
G0 F10500 X74.329 Y86.699
G1 F3600 X76.890 Y89.260 E131.29030
G0 F10500 X77.637 Y88.829
G1 F3600 X75.763 Y86.955 E131.36100
G0 F10500 X76.984 Y86.998
G1 F3600 X78.384 Y88.398 E131.41382
G0 F10500 X79.130 Y87.966
G1 F3600 X78.057 Y86.893 E131.45430
G0 F10500 X79.024 Y86.682
G1 F3600 X79.877 Y87.535 E131.48648
G0 F10500 X80.624 Y87.104
G1 F3600 X79.916 Y86.396 E131.51320
G0 F10500 X75.999 Y86.758
G0 X72.485 Y85.771
G0 X69.860 Y83.715
G0 X68.289 Y81.170
G0 X67.699 Y80.069
G1 F3600 X66.523 Y78.893 E131.55756
G0 F10500 X67.455 Y78.647
G1 F3600 X66.630 Y77.822 E131.58869
G0 F10500 X67.412 Y77.426
G1 F3600 X67.168 Y76.593 E131.61120
G1 X67.395 Y75.642 E131.62847
G1 X67.698 Y74.767 E131.64161
G1 X68.060 Y73.951 E131.65209
G1 X68.474 Y73.187 E131.66080
G1 X68.945 Y72.480 E131.66801
G1 X69.383 Y71.740 E131.67430
G1 X70.103 Y71.282 E131.68008
G1 X70.542 Y70.543 E131.68636
G1 X71.390 Y70.212 E131.69355
G1 X71.874 Y69.519 E131.70158
G1 X72.730 Y69.196 E131.71163
G1 X73.508 Y68.797 E131.72451
G1 X74.324 Y68.435 E131.74261
G1 X75.161 Y68.683 E131.76590
G0 F10500 X76.230 Y68.573
G1 F3600 X75.205 Y67.548 E131.80457
G0 F10500 X75.951 Y67.117
G1 F3600 X77.445 Y68.610 E131.86092
G0 F10500 X78.850 Y68.838
G1 F3600 X76.698 Y66.685 E131.94213
G0 F10500 X77.445 Y66.254
G1 F3600 X80.708 Y69.517 E132.06523
G0 F10500 X78.191 Y65.823
G1 F3600 X87.818 Y75.449 E132.42843
G0 F10500 X88.565 Y75.019
G1 F3600 X78.938 Y65.391 E132.79166
G0 F10500 X79.685 Y64.960
G1 F3600 X89.312 Y74.587 E133.15487
G0 F10500 X90.059 Y74.157
G1 F3600 X80.431 Y64.529 E133.51811
G0 F10500 X81.179 Y64.098
G1 F3600 X92.894 Y75.813 E133.96010
G0 F10500 X91.947 Y76.044
G1 F3600 X94.504 Y78.601 E134.05657
G0 F10500 X94.068 Y79.343
G1 F3600 X93.543 Y78.818 E134.07638
G0 F10500 X91.284 Y73.025
G1 F3600 X81.926 Y63.667 E134.42944
G0 F10500 X82.672 Y63.235
G1 F3600 X89.674 Y70.237 E134.69362
G0 F10500 X88.065 Y67.450
G1 F3600 X83.419 Y62.804 E134.86890
G0 F10500 X84.166 Y62.373
G1 F3600 X86.455 Y64.662 E134.95526
G0 F10500 X84.874 Y73.683
G1 F3600 X87.071 Y75.881 E135.03817
G0 F10500 X86.325 Y76.312
G1 F3600 X85.554 Y75.541 E135.06726
G0 F10500 X85.871 Y78.214
G1 F3600 X86.050 Y78.394 E135.07403
G0 F10500 X85.726 Y79.247
G1 F3600 X87.656 Y81.177 E135.14685
G0 F10500 X88.092 Y82.792
G1 F3600 X85.515 Y80.214 E135.24409
G0 F10500 X85.226 Y81.103
G1 F3600 X87.345 Y83.222 E135.32404
G0 F10500 X86.598 Y83.654
G1 F3600 X84.862 Y81.918 E135.38953
G0 F10500 X84.441 Y82.675
G1 F3600 X85.851 Y84.085 E135.44273
G0 F10500 X85.105 Y84.516
G1 F3600 X83.950 Y83.362 E135.48629
G0 F10500 X83.414 Y84.004
G1 F3600 X84.358 Y84.948 E135.52190
G0 F10500 X83.611 Y85.379
G1 F3600 X82.830 Y84.598 E135.55137
G0 F10500 X82.189 Y85.134
G1 F3600 X82.491 Y86.026 E135.57684
G1 X81.113 Y85.826 E135.60047
G1 X81.371 Y86.672 E135.62407
;LAYER:7
M106 S89
G0 F10500 X80.569 Y85.927 Z2.875
;TYPE:WALL-INNER
G1 F1800 X81.332 Y85.510 E135.64726
G1 X82.082 Y84.999 E135.67147
G1 X82.757 Y84.435 E135.69494
G1 X83.480 Y83.689 E135.72265
G1 X84.113 Y82.863 E135.75042
G1 X84.598 Y82.059 E135.77547
G1 X85.036 Y81.116 E135.80321
G1 X85.359 Y80.143 E135.83056
G1 X85.557 Y79.212 E135.85595
G1 X85.627 Y78.679 E135.87029
G1 X85.669 Y78.079 E135.88634
G1 X85.674 Y77.843 E135.89263
G1 X85.668 Y77.683 E135.89690
G1 X87.771 Y81.320 E136.00899
G1 X88.548 Y82.660 E136.05031
G1 X88.520 Y82.750 E136.05282
G1 X74.975 Y90.571 E136.47009
G1 X74.878 Y90.546 E136.47276
G1 X72.388 Y86.208 E136.60620
G1 X72.016 Y85.563 E136.62606
G1 X72.494 Y85.834 E136.64072
G1 X73.054 Y86.098 E136.65724
G1 X73.926 Y86.418 E136.68202
G1 X74.933 Y86.671 E136.70972
G1 X75.955 Y86.806 E136.73722
G1 X76.400 Y86.827 E136.74911
G1 X77.016 Y86.824 E136.76554
G1 X77.940 Y86.735 E136.79030
G1 X78.810 Y86.563 E136.81396
G1 X79.754 Y86.274 E136.84030
G1 X80.569 Y85.927 E136.86393
G0 F10500 X77.013 Y86.773
G0 X73.941 Y86.369
G0 X71.334 Y85.124
G1 F1800 X71.371 Y85.147 E136.86509
G1 X70.575 Y85.606 E136.88961
G1 X70.128 Y85.865 E136.90339
G1 X69.233 Y86.382 E136.93096
G1 X66.274 Y88.088 E137.02208
G1 X69.498 Y93.659 E137.19380
G1 X69.470 Y93.750 E137.19634
G1 X68.595 Y94.254 E137.22328
G1 X68.514 Y94.233 E137.22551
G1 X65.294 Y88.656 E137.39731
G1 X65.909 Y88.269 E137.41670
G1 X66.447 Y87.767 E137.43633
G1 X66.665 Y87.494 E137.44565
G1 X66.917 Y87.100 E137.45813
G1 X67.169 Y86.541 E137.47448
G1 X67.301 Y86.080 E137.48728
G1 X67.369 Y85.635 E137.49929
G1 X67.386 Y85.298 E137.50829
G1 X67.362 Y84.847 E137.52034
G1 X67.276 Y84.373 E137.53319
G1 X66.882 Y83.210 E137.56595
G1 X66.656 Y82.387 E137.58872
G1 X66.458 Y81.365 E137.61649
G1 X66.345 Y80.268 E137.64591
G1 X66.327 Y79.185 E137.67480
G1 X66.407 Y78.119 E137.70332
G1 X66.578 Y77.058 E137.73199
G1 X66.849 Y75.993 E137.76131
G1 X67.145 Y75.132 E137.78560
G1 X67.499 Y74.308 E137.80953
G1 X68.012 Y73.339 E137.83878
G1 X68.597 Y72.436 E137.86748
G1 X69.272 Y71.575 E137.89667
G1 X70.013 Y70.783 E137.92560
G1 X70.829 Y70.055 E137.95477
G1 X71.614 Y69.466 E137.98096
G1 X72.436 Y68.946 E138.00691
G1 X84.904 Y61.745 E138.39102
G1 X84.986 Y61.767 E138.39328
G1 X94.926 Y78.983 E138.92363
G1 X94.904 Y79.065 E138.92589
G1 X94.029 Y79.570 E138.95284
G1 X93.929 Y79.545 E138.95559
G1 X90.724 Y73.972 E139.12710
G1 X86.776 Y76.253 E139.24874
G1 X86.300 Y76.527 E139.26339
G1 X85.623 Y76.921 E139.28429
G1 X85.535 Y76.217 E139.30322
G1 X85.425 Y75.682 E139.31779
G1 X85.262 Y75.085 E139.33430
G1 X84.955 Y74.251 E139.35801
G1 X84.567 Y73.448 E139.38180
G1 X84.110 Y72.701 E139.40516
G1 X83.853 Y72.340 E139.41698
G1 X83.496 Y71.895 E139.43220
G1 X82.893 Y71.258 E139.45560
G1 X82.236 Y70.686 E139.47884
G1 X81.965 Y70.479 E139.48794
G1 X81.498 Y70.160 E139.50303
G1 X80.746 Y69.731 E139.52613
G1 X79.824 Y69.320 E139.55306
G1 X79.002 Y69.053 E139.57611
G1 X78.116 Y68.859 E139.60031
G1 X77.209 Y68.757 E139.62466
G1 X76.765 Y68.736 E139.63652
G1 X76.145 Y68.749 E139.65306
G1 X75.131 Y68.860 E139.68028
G1 X74.095 Y69.096 E139.70862
G1 X73.227 Y69.399 E139.73315
G1 X72.728 Y69.620 E139.74771
G1 X72.178 Y69.902 E139.76420
G1 X71.506 Y70.328 E139.78542
G1 X70.670 Y70.974 E139.81361
G1 X69.912 Y71.719 E139.84196
G1 X69.265 Y72.521 E139.86945
G1 X68.765 Y73.304 E139.89424
G1 X68.510 Y73.786 E139.90878
G1 X68.252 Y74.349 E139.92531
G1 X67.946 Y75.227 E139.95011
G1 X67.730 Y76.138 E139.97509
G1 X67.600 Y77.154 E140.00241
G1 X67.579 Y77.601 E140.01435
G1 X67.588 Y78.218 E140.03081
G1 X67.681 Y79.142 E140.05559
G1 X67.895 Y80.160 E140.08334
G1 X68.225 Y81.147 E140.11111
G1 X68.621 Y81.999 E140.13617
G1 X69.156 Y82.889 E140.16387
G1 X69.782 Y83.702 E140.19125
G1 X70.013 Y83.961 E140.20051
G1 X70.443 Y84.387 E140.21665
G1 X70.845 Y84.743 E140.23098
G1 X71.334 Y85.124 E140.24752
G0 F10500 X71.623 Y84.716
;TYPE:WALL-OUTER
G1 F1500 X72.361 Y85.190 E140.27092
G1 X73.247 Y85.636 E140.29738
G1 X74.073 Y85.939 E140.32085
G1 X75.027 Y86.179 E140.34709
G1 X76.000 Y86.307 E140.37328
G1 X76.411 Y86.327 E140.38425
G1 X76.991 Y86.324 E140.39973
G1 X77.867 Y86.240 E140.42320
G1 X78.688 Y86.078 E140.44553
G1 X79.582 Y85.804 E140.47047
G1 X80.350 Y85.476 E140.49275
G1 X81.079 Y85.078 E140.51491
G1 X81.776 Y84.603 E140.53741
G1 X82.416 Y84.068 E140.55967
G1 X83.101 Y83.362 E140.58591
G1 X83.699 Y82.581 E140.61215
G1 X84.156 Y81.824 E140.63574
G1 X84.571 Y80.931 E140.66201
G1 X84.879 Y80.002 E140.68812
G1 X85.063 Y79.133 E140.71182
G1 X85.129 Y78.629 E140.72538
G1 X85.170 Y78.056 E140.74070
G1 X85.174 Y77.846 E140.74631
G1 X85.150 Y77.169 E140.76438
G1 X85.041 Y76.298 E140.78780
G1 X84.938 Y75.798 E140.80142
