;Generated by Cura LulzBot Edition GCodeWriter Version: 2.6.69
;FLAVOR:RepRap
;TIME:1538
;Filament used: 0.876277m
;Layer height: 0.2625
;Generated with Cura_SteamEngine 2.6.69
;This G-Code has been generated specifically for the LulzBot Mini with Aerostruder
G26 ; clear potential 'probe fail' condition
G21 ; set units to Millimetres
M107 ; disable fans
G90 ; absolute positioning
M82 ; set extruder to absolute mode
G92 E0 ; set extruder position to 0
M140 S115 ; start bed heating up
G28 ; home all axes
G0 X0 Y187 Z156 F200 ; move away from endstops
M109 R170 ; soften filament before retraction
G1 E-15 F75 ; retract filament
M109 R170 ; wait for extruder to reach wiping temp
G1 X45 Y173 F11520 ; move above wiper pad
G1 Z0 F1200 ; push nozzle into wiper
G1 X42 Y173 Z-.5 F4000 ; wiping
G1 X52 Y171 Z-.5 F4000 ; wiping
G1 X42 Y173 Z0 F4000 ; wiping
G1 X52 Y171 F4000 ; wiping
G1 X42 Y173 F4000 ; wiping
G1 X52 Y171 F4000 ; wiping
G1 X42 Y173 F4000 ; wiping
G1 X52 Y171 F4000 ; wiping
G1 X57 Y173 F4000 ; wiping
G1 X77 Y171 F4000 ; wiping
G1 X57 Y173 F4000 ; wiping
G1 X77 Y171 F4000 ; wiping
G1 X57 Y173 F4000 ; wiping
G1 X87 Y171 F4000 ; wiping
G1 X77 Y173 F4000 ; wiping
G1 X97 Y171 F4000 ; wiping
G1 X77 Y173 F4000 ; wiping
G1 X97 Y171 F4000 ; wiping
G1 X77 Y173 F4000 ; wiping
G1 X97 Y171 F4000 ; wiping
G1 X107 Y173 F4000 ; wiping
G1 X97 Y171 F4000 ; wiping
G1 X107 Y173 F4000 ; wiping
G1 X97 Y171 F4000 ; wiping
G1 X107 Y173 F4000 ; wiping
G1 X112 Y171 Z-0.5 F1000 ; wiping
G1 Z10 ; raise extruder
G28 X0 Y0 ; home X and Y
G0 X0 Y187 F200 ; move away from endstops
M109 R170 ; wait for extruder to reach probe temp
M204 S300 ; set probing acceleration
G29 ; start auto-leveling sequence
M204 S2000 ; restore standard acceleration
G28 X0 Y0 ; re-home to account for build variance of earlier mini builds
G0 X0 Y187 F200 ; move away from endstops
G0 Y152 F4000 ; move in front of wiper pad
G4 S1 ; pause
M400 ; wait for moves to finish
M117 Heating... ; progress indicator message on LCD
M109 R245 ; wait for extruder to reach printing temp
M190 S116 ; wait for bed to reach printing temp
G1 Z2 E0 F75 ; prime tiny bit of filament into the nozzle
M117 Mini Printing... ; progress indicator message on LCD


M221 S100
;LAYER_COUNT:5
;LAYER:0
M107
M204 S1000
M205 X10
G0 F2250 X27.123 Y18.553 Z0.42
;TYPE:SKIRT
G1 F900 X27.435 Y18.135 E0.0206
G1 X27.774 Y17.749 E0.0409
G1 X28.049 Y17.508 E0.05534
G1 X28.455 Y17.191 E0.07569
G1 X28.883 Y16.907 E0.09598
G1 X29.178 Y16.763 E0.10895
G1 X29.648 Y16.56 E0.12917
G1 X30.133 Y16.393 E0.14943
G1 X30.596 Y16.309 E0.16802
G1 X31.397 Y16.221 E0.19985
G1 X31.758 Y16.201 E0.21414
G1 X122.653 Y16.225 E3.80469
G1 X123.165 Y16.265 E3.82497
G1 X123.549 Y16.349 E3.8405
G1 X124.296 Y16.56 E3.87116
G1 X124.778 Y16.738 E3.89146
G1 X125.27 Y17.018 E3.91382
G1 X125.697 Y17.312 E3.9343
G1 X126.096 Y17.635 E3.95458
G1 X126.323 Y17.872 E3.96754
G1 X126.641 Y18.24 E3.98675
G1 X126.945 Y18.654 E4.00704
G1 X127.105 Y18.942 E4.02006
G1 X127.341 Y19.422 E4.04119
G1 X127.531 Y19.899 E4.06147
G1 X127.63 Y20.305 E4.07798
G1 X127.741 Y20.935 E4.10325
G1 X127.791 Y21.508 E4.12597
G1 X127.79 Y132.49 E8.51
G1 X127.75 Y133.002 E8.53028
G1 X127.693 Y133.286 E8.54173
G1 X127.467 Y134.195 E8.57873
G1 X127.304 Y134.682 E8.59901
G1 X126.982 Y135.27 E8.6255
G1 X126.688 Y135.697 E8.64597
G1 X126.365 Y136.096 E8.66625
G1 X126.128 Y136.323 E8.67922
G1 X125.76 Y136.641 E8.69843
G1 X125.346 Y136.945 E8.71872
G1 X125.058 Y137.106 E8.73175
G1 X124.584 Y137.339 E8.75262
G1 X124.107 Y137.529 E8.7729
G1 X123.579 Y137.646 E8.79426
G1 X122.694 Y137.768 E8.82955
G1 X122.243 Y137.799 E8.84741
G1 X31.466 Y137.787 E12.4333
G1 X31.024 Y137.757 E12.4508
G1 X30.573 Y137.696 E12.46877
G1 X30.071 Y137.588 E12.48906
G1 X29.796 Y137.493 E12.50055
G1 X29.308 Y137.299 E12.5213
G1 X28.847 Y137.072 E12.54159
G1 X28.553 Y136.877 E12.55553
G1 X28.135 Y136.565 E12.57614
G1 X27.749 Y136.226 E12.59643
G1 X27.509 Y135.952 E12.61082
G1 X27.191 Y135.545 E12.63122
G1 X26.907 Y135.117 E12.65151
G1 X26.76 Y134.818 E12.66467
G1 X26.558 Y134.349 E12.68484
G1 X26.392 Y133.863 E12.70513
G1 X26.308 Y133.397 E12.72384
G1 X26.22 Y132.58 E12.7563
G1 X26.201 Y132.227 E12.77026
G1 X26.213 Y21.466 E17.14556
G1 X26.242 Y21.029 E17.16286
G1 X26.302 Y20.58 E17.18075
G1 X26.409 Y20.078 E17.20103
G1 X26.507 Y19.797 E17.21279
G1 X26.702 Y19.307 E17.23362
G1 X26.865 Y18.975 E17.24823
G0 F810 X26.928 Y18.846
G0 X27.123 Y18.553
G1 F420 E16.24823
G0 F2250 X29.304 Y20.014
G0 X30.466 Y20.904
;TYPE:WALL-INNER
G1 F420 E17.26778
G1 F900 X30.656 Y20.656 E17.27601
G1 X30.904 Y20.466 E17.28424
G1 X31.191 Y20.348 E17.29241
G1 X31.552 Y20.3 E17.302
G1 X122.448 Y20.3 E19.69572
G1 X122.809 Y20.348 E19.70532
G1 X123.096 Y20.466 E19.71349
G1 X123.344 Y20.656 E19.72171
G1 X123.534 Y20.904 E19.72994
G1 X123.652 Y21.191 E19.73811
G1 X123.7 Y21.552 E19.7477
G1 X123.7 Y132.448 E22.66813
G1 X123.652 Y132.809 E22.67772
G1 X123.534 Y133.096 E22.68589
G1 X123.344 Y133.344 E22.69412
G1 X123.096 Y133.534 E22.70234
G1 X122.809 Y133.652 E22.71052
G1 X122.448 Y133.7 E22.72011
G1 X31.552 Y133.7 E25.11383
G1 X31.191 Y133.652 E25.12342
G1 X30.904 Y133.534 E25.13159
G1 X30.656 Y133.344 E25.13982
G1 X30.466 Y133.096 E25.14805
G1 X30.348 Y132.809 E25.15622
G1 X30.3 Y132.448 E25.16581
G1 X30.3 Y21.62 E28.08444
G0 F810 X30.3 Y21.552
G0 X30.348 Y21.191
G0 X30.466 Y20.904
G1 F420 E27.08444
G0 F2250 X29.114 Y20.343
G0 X29.118 Y20.353
G0 X29.154 Y20.424
G0 X35.87 Y33.59
G0 X35.906 Y33.661
G0 X35.903 Y33.653
G0 X34.45 Y32.2
G1 F420 E28.10398
G1 F900 X34.45 Y50.05 E28.57406
G1 X37.45 Y50.05 E28.65306
G1 X37.45 Y57.168 E28.84051
G1 X35.918 Y58.7 E28.89757
G1 X34.45 Y58.7 E28.93623
G1 X34.45 Y113.3 E30.37411
G1 X35.918 Y113.3 E30.41277
G1 X37.45 Y114.832 E30.46982
G1 X37.45 Y121.3 E30.64016
G1 X117.05 Y121.3 E32.73641
G1 X117.05 Y114.832 E32.90674
G1 X118.582 Y113.3 E32.9638
G1 X120.05 Y113.3 E33.00246
G1 X120.05 Y58.7 E34.44033
G1 X118.582 Y58.7 E34.47899
G1 X117.05 Y57.168 E34.53605
G1 X117.05 Y50.55 E34.71033
G1 X119.591 Y50.55 E34.77725
G1 X120.512 Y49.591 E34.81227
G1 X121.138 Y48.765 E34.83956
G1 X121.662 Y47.87 E34.86687
G1 X122.077 Y46.921 E34.89415
G1 X122.378 Y45.93 E34.92142
G1 X122.56 Y44.909 E34.94874
G1 X122.622 Y43.875 E34.97601
G1 X122.56 Y42.841 E35.00329
G1 X122.378 Y41.82 E35.03061
G1 X122.077 Y40.829 E35.05788
G1 X121.662 Y39.88 E35.08516
G1 X121.138 Y38.985 E35.11247
G1 X120.512 Y38.159 E35.13976
G1 X120.05 Y37.678 E35.15733
G1 X120.05 Y32.2 E35.30159
G1 X35.192 Y32.2 E37.53631
G0 F810 X34.45 Y32.2
G1 F420 E36.53631
G0 F2250 X35.903 Y33.653
G0 X35.911 Y33.646
G0 X35.979 Y33.603
G0 X45.946 Y27.282
G0 X46.014 Y27.239
G0 X46.014 Y27.241
G0 X44.64 Y27.782
G1 F420 E37.55585
G1 F900 X44.979 Y28.4 E37.57441
G1 X45.461 Y28.912 E37.59293
G1 X46.054 Y29.29 E37.61145
G1 X46.724 Y29.507 E37.62999
G1 X47.427 Y29.551 E37.64854
G1 X48.117 Y29.419 E37.66704
G1 X48.754 Y29.119 E37.68559
G1 X49.295 Y28.671 E37.70408
G1 X49.71 Y28.103 E37.72261
G1 X49.968 Y27.447 E37.74117
G1 X50.056 Y26.75 E37.75967
G1 X49.968 Y26.053 E37.77817
G1 X49.71 Y25.397 E37.79674
G1 X49.295 Y24.829 E37.81526
G1 X48.754 Y24.381 E37.83376
G1 X48.117 Y24.081 E37.8523
G1 X47.427 Y23.949 E37.8708
G1 X46.724 Y23.993 E37.88935
G1 X46.054 Y24.21 E37.9079
G1 X45.461 Y24.588 E37.92642
G1 X44.979 Y25.1 E37.94494
G1 X44.64 Y25.718 E37.9635
G1 X44.466 Y26.398 E37.98199
G1 X44.466 Y27.061 E37.99945
G0 F810 X44.466 Y27.102
G0 X44.64 Y27.782
G1 F420 E36.99945
G0 F2250 X46.014 Y27.241
G0 X48.482 Y27.226
G0 X48.562 Y27.226
G0 X105.851 Y26.914
G0 X105.931 Y26.914
G0 X105.93 Y26.915
G0 X104.466 Y27.102
G1 F420 E38.01899
G1 F900 X104.64 Y27.782 E38.03747
G1 X104.979 Y28.4 E38.05603
G1 X105.461 Y28.912 E38.07455
G1 X106.054 Y29.29 E38.09307
G1 X106.724 Y29.507 E38.11162
G1 X107.427 Y29.551 E38.13017
G1 X108.117 Y29.419 E38.14867
G1 X108.754 Y29.119 E38.16721
G1 X109.295 Y28.671 E38.18571
G1 X109.71 Y28.103 E38.20423
G1 X109.968 Y27.447 E38.2228
G1 X110.056 Y26.75 E38.2413
G1 X109.968 Y26.053 E38.2598
G1 X109.71 Y25.397 E38.27836
G1 X109.295 Y24.829 E38.29689
G1 X108.754 Y24.381 E38.31539
G1 X108.117 Y24.081 E38.33393
G1 X107.427 Y23.949 E38.35243
G1 X106.724 Y23.993 E38.37098
G1 X106.054 Y24.21 E38.38953
G1 X105.461 Y24.588 E38.40804
G1 X104.979 Y25.1 E38.42656
G1 X104.64 Y25.718 E38.44513
G1 X104.475 Y26.362 E38.46263
G0 F810 X104.466 Y26.398
G0 X104.466 Y27.102
G1 F420 E37.46263
G0 F2250 X105.93 Y26.915
G0 X105.931 Y27.04
G0 X105.932 Y27.12
G0 X106.024 Y33.585
G0 X35.903 Y33.653
G0 X38.903 Y48.597
G0 X38.903 Y119.847
G0 X107.256 Y119.913
G0 X107.333 Y125.343
G0 X107.334 Y125.423
G0 X107.335 Y125.422
G0 X107.427 Y123.949
G1 F420 E38.48217
G1 F900 X106.724 Y123.993 E38.50072
G1 X106.054 Y124.21 E38.51927
G1 X105.461 Y124.588 E38.53779
G1 X104.979 Y125.1 E38.55631
G1 X104.64 Y125.718 E38.57487
G1 X104.466 Y126.398 E38.59335
G1 X104.466 Y127.102 E38.61189
G1 X104.64 Y127.782 E38.63038
G1 X104.979 Y128.4 E38.64894
G1 X105.461 Y128.912 E38.66746
G1 X106.054 Y129.29 E38.68598
G1 X106.724 Y129.507 E38.70453
G1 X107.427 Y129.551 E38.72308
G1 X108.117 Y129.419 E38.74158
G1 X108.754 Y129.119 E38.76012
G1 X109.295 Y128.671 E38.77862
G1 X109.71 Y128.103 E38.79714
G1 X109.968 Y127.447 E38.81571
G1 X110.056 Y126.75 E38.83421
G1 X109.968 Y126.053 E38.85271
G1 X109.71 Y125.397 E38.87127
G1 X109.295 Y124.829 E38.8898
G1 X108.754 Y124.381 E38.90829
G1 X108.153 Y124.098 E38.92579
G0 F810 X108.117 Y124.081
G0 X107.427 Y123.949
G1 F420 E37.92579
G0 F2250 X107.335 Y125.422
G0 X106.944 Y125.43
G0 X106.864 Y125.432
G0 X48.659 Y126.747
G0 X48.579 Y126.749
G0 X48.58 Y126.75
G0 X50.056 Y126.75
G1 F420 E38.94533
G1 F900 X49.968 Y126.053 E38.96383
G1 X49.71 Y125.397 E38.98239
G1 X49.295 Y124.829 E39.00092
G1 X48.754 Y124.381 E39.01942
G1 X48.117 Y124.081 E39.03796
G1 X47.427 Y123.949 E39.05646
G1 X46.724 Y123.993 E39.07501
G1 X46.054 Y124.21 E39.09356
G1 X45.461 Y124.588 E39.11208
G1 X44.979 Y125.1 E39.13059
G1 X44.64 Y125.718 E39.14916
G1 X44.466 Y126.398 E39.16764
G1 X44.466 Y127.102 E39.18618
G1 X44.64 Y127.782 E39.20467
G1 X44.979 Y128.4 E39.22323
G1 X45.461 Y128.912 E39.24175
G1 X46.054 Y129.29 E39.26027
G1 X46.724 Y129.507 E39.27881
G1 X47.427 Y129.551 E39.29736
G1 X48.117 Y129.419 E39.31586
G1 X48.754 Y129.119 E39.3344
G1 X49.295 Y128.671 E39.3529
G1 X49.71 Y128.103 E39.37143
G1 X49.954 Y127.484 E39.38895
G0 F810 X49.968 Y127.447
G0 X50.056 Y126.75
G1 F420 E38.38895
G0 F2250 X48.58 Y126.75
G0 X47.964 Y125.626
G0 X48.484 Y124.806
;TYPE:WALL-OUTER
G1 F420 E39.40849
G1 F900 X47.961 Y124.56 E39.43132
G1 X47.395 Y124.452 E39.45408
G1 X46.818 Y124.488 E39.47692
G1 X46.269 Y124.666 E39.49972
G1 X45.782 Y124.976 E39.52252
G1 X45.387 Y125.396 E39.5453
G1 X45.109 Y125.903 E39.56814
G1 X44.966 Y126.461 E39.59089
G1 X44.966 Y127.039 E39.61373
G1 X45.109 Y127.597 E39.63648
G1 X45.387 Y128.104 E39.65932
G1 X45.782 Y128.524 E39.6821
G1 X46.269 Y128.834 E39.7049
G1 X46.818 Y129.012 E39.7277
G1 X47.395 Y129.048 E39.75054
G1 X47.961 Y128.94 E39.7733
G1 X48.484 Y128.694 E39.79613
G1 X48.928 Y128.326 E39.81891
G1 X49.268 Y127.86 E39.8417
G1 X49.48 Y127.322 E39.86454
G1 X49.552 Y126.75 E39.88731
G1 X49.48 Y126.178 E39.91009
G1 X49.268 Y125.64 E39.93293
G1 X48.928 Y125.174 E39.95571
G1 X48.865 Y125.122 E39.95894
G0 F810 X48.484 Y124.806
G0 F2250 X48.258 Y124.7
G1 F420 E38.95894
G0 F2250 X47.964 Y125.626
G0 X47.963 Y125.625
G0 X48.02 Y125.569
G0 X53.715 Y119.902
G0 X53.772 Y119.846
G0 X115.869 Y58.059
G0 X116.55 Y57.376
G1 F420 E39.9785
G1 F900 X116.55 Y50.05 E40.26789
G1 X119.378 Y50.05 E40.3796
G1 X120.131 Y49.266 E40.42254
G1 X120.722 Y48.487 E40.46117
G1 X121.216 Y47.643 E40.4998
G1 X121.607 Y46.748 E40.53838
G1 X121.891 Y45.813 E40.57698
G1 X122.063 Y44.85 E40.61562
G1 X122.121 Y43.875 E40.6542
G1 X122.063 Y42.9 E40.69279
G1 X121.891 Y41.937 E40.73143
G1 X121.607 Y41.002 E40.77003
G1 X121.216 Y40.107 E40.80861
G1 X120.722 Y39.263 E40.84724
G1 X120.131 Y38.484 E40.88587
G1 X119.55 Y37.879 E40.919
G1 X119.55 Y32.7 E41.12358
G1 X34.95 Y32.7 E44.46547
G1 X34.95 Y49.55 E45.13108
G1 X37.95 Y49.55 E45.24959
G1 X37.95 Y57.376 E45.55873
G1 X36.126 Y59.2 E45.66063
G1 X34.95 Y59.2 E45.70708
G1 X34.95 Y112.8 E47.8244
G1 X36.126 Y112.8 E47.87085
G1 X37.95 Y114.624 E47.97275
G1 X37.95 Y120.8 E48.21671
G1 X116.55 Y120.8 E51.32158
G1 X116.55 Y114.624 E51.56555
G1 X118.374 Y112.8 E51.66745
G1 X119.55 Y112.8 E51.7139
G1 X119.55 Y59.2 E53.83122
G1 X118.374 Y59.2 E53.87767
G1 X116.9 Y57.726 E53.96002
G0 F810 X116.55 Y57.376
G0 F2250 X116.55 Y57.126
G1 F420 E52.96002
G0 F2250 X115.744 Y57.934
G0 X118.619 Y80.687
G0 X118.629 Y80.767
G0 X125.119 Y132.125
G0 X125.129 Y132.205
G0 X125.165 Y132.484
G0 X124.2 Y132.484
G1 F420 E53.97957
G1 F900 X124.14 Y132.938 E53.99766
G1 X123.971 Y133.348 E54.01518
G1 X123.7 Y133.7 E54.03273
G1 X123.348 Y133.971 E54.05027
G1 X122.938 Y134.14 E54.06779
G1 X122.484 Y134.2 E54.08588
G1 X31.516 Y134.2 E57.67932
G1 X31.062 Y134.14 E57.69741
G1 X30.652 Y133.971 E57.71492
G1 X30.3 Y133.7 E57.73247
G1 X30.029 Y133.348 E57.75002
G1 X29.86 Y132.938 E57.76754
G1 X29.8 Y132.484 E57.78563
G1 X29.8 Y21.516 E62.1691
G1 X29.86 Y21.062 E62.18719
G1 X30.029 Y20.652 E62.20471
G1 X30.3 Y20.3 E62.22226
G1 X30.652 Y20.029 E62.23981
G1 X31.062 Y19.86 E62.25733
G1 X31.516 Y19.8 E62.27542
G1 X122.484 Y19.8 E65.86885
G1 X122.938 Y19.86 E65.88694
G1 X123.348 Y20.029 E65.90446
G1 X123.7 Y20.3 E65.92201
G1 X123.971 Y20.652 E65.93955
G1 X124.14 Y21.062 E65.95707
G1 X124.2 Y21.516 E65.97516
G1 X124.2 Y131.989 E70.33908
G0 F810 X124.2 Y132.484
G0 F2250 X124.168 Y132.732
G1 F420 E69.33908
G0 F2250 X125.124 Y132.857
G0 X125.121 Y132.856
G0 X125.047 Y132.826
G0 X108.563 Y126.291
G0 X108.489 Y126.262
G0 X106.683 Y125.546
G0 X106.269 Y124.666
G1 F420 E70.35864
G1 F900 X105.782 Y124.976 E70.38144
G1 X105.387 Y125.396 E70.40422
G1 X105.109 Y125.903 E70.42706
G1 X104.966 Y126.461 E70.44981
G1 X104.966 Y127.039 E70.47265
G1 X105.109 Y127.597 E70.4954
G1 X105.387 Y128.104 E70.51824
G1 X105.782 Y128.524 E70.54102
G1 X106.269 Y128.834 E70.56382
G1 X106.818 Y129.012 E70.58662
G1 X107.395 Y129.048 E70.60946
G1 X107.961 Y128.94 E70.63222
G1 X108.484 Y128.694 E70.65505
G1 X108.928 Y128.326 E70.67783
G1 X109.268 Y127.86 E70.70062
G1 X109.48 Y127.322 E70.72346
G1 X109.552 Y126.75 E70.74623
G1 X109.48 Y126.178 E70.769
G1 X109.268 Y125.64 E70.79185
G1 X108.928 Y125.174 E70.81463
G1 X108.484 Y124.806 E70.83741
G1 X107.961 Y124.56 E70.86025
G1 X107.395 Y124.452 E70.88301
G1 X106.818 Y124.488 E70.90584
G1 X106.739 Y124.514 E70.90913
G0 F810 X106.269 Y124.666
G0 F2250 X106.058 Y124.8
G1 F420 E69.90913
G0 F2250 X106.683 Y125.546
G0 X106.683 Y125.544
G0 X106.683 Y125.464
G0 X106.683 Y119.915
G0 X38.903 Y119.847
G0 X38.903 Y48.597
G0 X35.903 Y33.653
G0 X106.683 Y33.585
G0 X106.683 Y28.035
G0 X106.683 Y27.955
G0 X106.683 Y27.954
G0 X106.269 Y28.834
G1 F420 E70.92868
G1 F900 X106.818 Y29.012 E70.95148
G1 X107.395 Y29.048 E70.97432
G1 X107.961 Y28.94 E70.99708
G1 X108.484 Y28.694 E71.01991
G1 X108.928 Y28.326 E71.04269
G1 X109.268 Y27.86 E71.06548
G1 X109.48 Y27.322 E71.08832
G1 X109.552 Y26.75 E71.11109
G1 X109.48 Y26.178 E71.13387
G1 X109.268 Y25.64 E71.15671
G1 X108.928 Y25.174 E71.1795
G1 X108.484 Y24.806 E71.20228
G1 X107.961 Y24.56 E71.22511
G1 X107.395 Y24.452 E71.24787
G1 X106.818 Y24.488 E71.27071
G1 X106.269 Y24.666 E71.2935
G1 X105.782 Y24.976 E71.31631
G1 X105.387 Y25.396 E71.33908
G1 X105.109 Y25.903 E71.36193
G1 X104.966 Y26.461 E71.38468
G1 X104.966 Y27.039 E71.40751
G1 X105.109 Y27.597 E71.43027
G1 X105.387 Y28.104 E71.45311
G1 X105.782 Y28.524 E71.47588
G1 X105.852 Y28.569 E71.47917
G0 F810 X106.269 Y28.834
G0 F2250 X106.506 Y28.911
G1 F420 E70.47917
G0 F2250 X106.683 Y27.954
G0 X106.648 Y27.953
G0 X106.568 Y27.953
G0 X48.063 Y27.873
G0 X47.983 Y27.873
G0 X47.964 Y27.874
G0 X48.484 Y28.694
G1 F420 E71.49872
G1 F900 X48.928 Y28.326 E71.5215
G1 X49.268 Y27.86 E71.54429
G1 X49.48 Y27.322 E71.56713
G1 X49.552 Y26.75 E71.58991
G1 X49.48 Y26.178 E71.61268
G1 X49.268 Y25.64 E71.63552
G1 X48.928 Y25.174 E71.65831
G1 X48.484 Y24.806 E71.68109
