;Generated by Cura LulzBot Edition GCodeWriter Version: 2.6.69
;FLAVOR:RepRap
;TIME:1341
;Filament used: 0.910136m
;Layer height: 0.36
;Generated with Cura_SteamEngine 2.6.69
;This G-Code has been generated specifically for the LulzBot Mini with Aerostruder
G26 ; clear potential 'probe fail' condition
G21 ; set units to Millimetres
M107 ; disable fans
G90 ; absolute positioning
M82 ; set extruder to absolute mode
G92 E0 ; set extruder position to 0
M140 S115 ; start bed heating up
G28 ; home all axes
G0 X0 Y187 Z156 F200 ; move away from endstops
M109 R170 ; soften filament before retraction
G1 E-15 F75 ; retract filament
M109 R170 ; wait for extruder to reach wiping temp
G1 X45 Y173 F11520 ; move above wiper pad
G1 Z0 F1200 ; push nozzle into wiper
G1 X42 Y173 Z-.5 F4000 ; wiping
G1 X52 Y171 Z-.5 F4000 ; wiping
G1 X42 Y173 Z0 F4000 ; wiping
G1 X52 Y171 F4000 ; wiping
G1 X42 Y173 F4000 ; wiping
G1 X52 Y171 F4000 ; wiping
G1 X42 Y173 F4000 ; wiping
G1 X52 Y171 F4000 ; wiping
G1 X57 Y173 F4000 ; wiping
G1 X77 Y171 F4000 ; wiping
G1 X57 Y173 F4000 ; wiping
G1 X77 Y171 F4000 ; wiping
G1 X57 Y173 F4000 ; wiping
G1 X87 Y171 F4000 ; wiping
G1 X77 Y173 F4000 ; wiping
G1 X97 Y171 F4000 ; wiping
G1 X77 Y173 F4000 ; wiping
G1 X97 Y171 F4000 ; wiping
G1 X77 Y173 F4000 ; wiping
G1 X97 Y171 F4000 ; wiping
G1 X107 Y173 F4000 ; wiping
G1 X97 Y171 F4000 ; wiping
G1 X107 Y173 F4000 ; wiping
G1 X97 Y171 F4000 ; wiping
G1 X107 Y173 F4000 ; wiping
G1 X112 Y171 Z-0.5 F1000 ; wiping
G1 Z10 ; raise extruder
G28 X0 Y0 ; home X and Y
G0 X0 Y187 F200 ; move away from endstops
M109 R170 ; wait for extruder to reach probe temp
M204 S300 ; set probing acceleration
G29 ; start auto-leveling sequence
M204 S2000 ; restore standard acceleration
G28 X0 Y0 ; re-home to account for build variance of earlier mini builds
G0 X0 Y187 F200 ; move away from endstops
G0 Y152 F4000 ; move in front of wiper pad
G4 S1 ; pause
M400 ; wait for moves to finish
M117 Heating... ; progress indicator message on LCD
M109 R245 ; wait for extruder to reach printing temp
M190 S116 ; wait for bed to reach printing temp
G1 Z2 E0 F75 ; prime tiny bit of filament into the nozzle
M117 Mini Printing... ; progress indicator message on LCD


M221 S100
;LAYER_COUNT:4
;LAYER:0
M107
M204 S800
M205 X2
G0 F2250 X27.675 Y18.901 Z0.42
;TYPE:SKIRT
G1 F900 X27.987 Y18.483 E0.0206
G1 X28.415 Y18.046 E0.04477
G1 X28.821 Y17.729 E0.06511
G1 X29.324 Y17.431 E0.08821
G1 X29.794 Y17.228 E0.10843
G1 X30.202 Y17.095 E0.12538
G1 X30.455 Y17.053 E0.13552
G1 X31.256 Y16.965 E0.16735
G1 X31.508 Y16.951 E0.17732
G1 X122.903 Y16.975 E3.78762
G1 X123.527 Y17.062 E3.81251
G1 X124.274 Y17.273 E3.84317
G1 X124.674 Y17.427 E3.8601
G1 X124.953 Y17.592 E3.8729
G1 X125.38 Y17.886 E3.89338
G1 X125.816 Y18.276 E3.91649
G1 X126.134 Y18.644 E3.9357
G1 X126.458 Y19.133 E3.95887
G1 X126.694 Y19.613 E3.98
G1 X126.846 Y20.014 E3.99694
G1 X126.895 Y20.229 E4.00565
G1 X127.006 Y20.859 E4.03092
G1 X127.041 Y21.258 E4.04675
G1 X127.04 Y132.74 E8.45053
G1 X126.972 Y133.295 E8.47261
G1 X126.746 Y134.204 E8.50962
G1 X126.604 Y134.608 E8.52653
G1 X126.408 Y134.953 E8.54221
G1 X126.114 Y135.38 E8.56268
G1 X125.724 Y135.816 E8.58579
G1 X125.356 Y136.134 E8.605
G1 X124.867 Y136.458 E8.62818
G1 X124.393 Y136.691 E8.64904
G1 X123.992 Y136.843 E8.66598
G1 X123.692 Y136.905 E8.67808
G1 X122.807 Y137.027 E8.71337
G1 X122.493 Y137.049 E8.72581
G1 X31.216 Y137.037 E12.33145
G1 X30.908 Y137.016 E12.34364
G1 X30.457 Y136.955 E12.36162
G1 X29.915 Y136.813 E12.38375
G1 X29.427 Y136.619 E12.40449
G1 X28.901 Y136.325 E12.4283
G1 X28.483 Y136.013 E12.4489
G1 X28.047 Y135.586 E12.47301
G1 X27.729 Y135.179 E12.49341
G1 X27.429 Y134.673 E12.51665
G1 X27.227 Y134.204 E12.53682
G1 X27.094 Y133.796 E12.55377
G1 X27.052 Y133.54 E12.56402
G1 X26.964 Y132.723 E12.59648
G1 X26.951 Y132.477 E12.60621
G1 X26.963 Y21.216 E17.00126
G1 X26.983 Y20.911 E17.01334
G1 X27.043 Y20.462 E17.03123
G1 X27.186 Y19.917 E17.05349
G1 X27.381 Y19.427 E17.07432
G1 X27.675 Y18.901 E17.09812
G1 F420 E16.09812
G0 F2250 X29.054 Y19.764
G0 X30.216 Y20.654
;TYPE:WALL-INNER
G1 F420 E17.09812
G1 F900 X30.406 Y20.406 E17.10635
G1 X30.654 Y20.216 E17.11458
G1 X30.941 Y20.098 E17.12275
G1 X31.302 Y20.05 E17.13234
G1 X122.698 Y20.05 E19.53924
G1 X123.059 Y20.098 E19.54883
G1 X123.346 Y20.216 E19.557
G1 X123.594 Y20.406 E19.56523
G1 X123.784 Y20.654 E19.57345
G1 X123.902 Y20.941 E19.58162
G1 X123.95 Y21.302 E19.59121
G1 X123.95 Y132.698 E22.5248
G1 X123.902 Y133.059 E22.53439
G1 X123.784 Y133.346 E22.54257
G1 X123.594 Y133.594 E22.55079
G1 X123.346 Y133.784 E22.55902
G1 X123.059 Y133.902 E22.56719
G1 X122.698 Y133.95 E22.57678
G1 X31.302 Y133.95 E24.98368
G1 X30.941 Y133.902 E24.99327
G1 X30.654 Y133.784 E25.00144
G1 X30.406 Y133.594 E25.00967
G1 X30.216 Y133.346 E25.01789
G1 X30.098 Y133.059 E25.02607
G1 X30.05 Y132.698 E25.03566
G1 X30.05 Y21.302 E27.96925
G1 X30.098 Y20.941 E27.97884
G1 X30.216 Y20.654 E27.98701
G1 F420 E26.98701
G0 F2250 X28.864 Y20.093
G0 X28.868 Y20.103
G0 X28.905 Y20.175
G0 X35.619 Y33.339
G0 X35.656 Y33.41
G0 X35.653 Y33.403
G0 X34.2 Y31.95
G1 F420 E27.98701
G1 F900 X34.2 Y49.8 E28.45708
G1 X37.2 Y49.8 E28.53609
G1 X37.2 Y56.918 E28.72354
G1 X35.668 Y58.45 E28.7806
G1 X34.2 Y58.45 E28.81926
G1 X34.2 Y113.55 E30.2703
G1 X35.668 Y113.55 E30.30896
G1 X37.2 Y115.082 E30.36602
G1 X37.2 Y121.55 E30.53635
G1 X116.8 Y121.55 E32.6326
G1 X116.8 Y115.082 E32.80293
G1 X118.332 Y113.55 E32.85999
G1 X119.8 Y113.55 E32.89865
G1 X119.8 Y58.45 E34.34969
G1 X118.332 Y58.45 E34.38835
G1 X116.8 Y56.918 E34.44541
G1 X116.8 Y50.3 E34.61969
G1 X119.341 Y50.3 E34.68661
G1 X120.262 Y49.341 E34.72163
G1 X120.888 Y48.515 E34.74892
G1 X121.412 Y47.62 E34.77623
G1 X121.827 Y46.671 E34.80351
G1 X122.128 Y45.68 E34.83078
G1 X122.31 Y44.659 E34.8581
G1 X122.372 Y43.625 E34.88537
G1 X122.31 Y42.591 E34.91265
G1 X122.128 Y41.57 E34.93997
G1 X121.827 Y40.579 E34.96724
G1 X121.412 Y39.63 E34.99452
G1 X120.888 Y38.735 E35.02183
G1 X120.262 Y37.909 E35.04912
G1 X119.8 Y37.428 E35.06669
G1 X119.8 Y31.95 E35.21095
G1 X34.2 Y31.95 E37.46521
G1 F420 E36.46521
G0 F2250 X35.653 Y33.403
G0 X35.665 Y33.395
G0 X35.734 Y33.354
G0 X45.695 Y27.53
G0 X45.764 Y27.489
G0 X45.764 Y27.491
G0 X44.39 Y28.032
G1 F420 E37.46521
G1 F900 X44.729 Y28.65 E37.48377
G1 X45.211 Y29.162 E37.50229
G1 X45.804 Y29.54 E37.52081
G1 X46.474 Y29.757 E37.53935
G1 X47.177 Y29.801 E37.5579
G1 X47.867 Y29.669 E37.5764
G1 X48.504 Y29.369 E37.59495
G1 X49.045 Y28.921 E37.61344
G1 X49.46 Y28.353 E37.63197
G1 X49.718 Y27.697 E37.65053
G1 X49.806 Y27 E37.66903
G1 X49.718 Y26.303 E37.68753
G1 X49.46 Y25.647 E37.7061
G1 X49.045 Y25.079 E37.72462
G1 X48.504 Y24.631 E37.74312
G1 X47.867 Y24.331 E37.76166
G1 X47.177 Y24.199 E37.78016
G1 X46.474 Y24.243 E37.79871
G1 X45.804 Y24.46 E37.81726
G1 X45.211 Y24.838 E37.83578
G1 X44.729 Y25.35 E37.8543
G1 X44.39 Y25.968 E37.87286
G1 X44.216 Y26.648 E37.89135
G1 X44.216 Y27.352 E37.90989
G1 X44.39 Y28.032 E37.92837
G1 F420 E36.92837
G0 F2250 X45.764 Y27.491
G0 X48.232 Y27.476
G0 X48.312 Y27.476
G0 X105.601 Y27.164
G0 X105.681 Y27.164
G0 X105.68 Y27.165
G0 X104.216 Y27.352
G1 F420 E37.92837
G1 F900 X104.39 Y28.032 E37.94685
G1 X104.729 Y28.65 E37.96542
G1 X105.211 Y29.162 E37.98394
G1 X105.804 Y29.54 E38.00245
G1 X106.474 Y29.757 E38.021
G1 X107.177 Y29.801 E38.03955
G1 X107.867 Y29.669 E38.05805
G1 X108.504 Y29.369 E38.07659
G1 X109.045 Y28.921 E38.09509
G1 X109.46 Y28.353 E38.11362
G1 X109.718 Y27.697 E38.13218
G1 X109.806 Y27 E38.15068
G1 X109.718 Y26.303 E38.16918
G1 X109.46 Y25.647 E38.18775
G1 X109.045 Y25.079 E38.20627
G1 X108.504 Y24.631 E38.22477
G1 X107.867 Y24.331 E38.24331
G1 X107.177 Y24.199 E38.26181
G1 X106.474 Y24.243 E38.28036
G1 X105.804 Y24.46 E38.29891
G1 X105.211 Y24.838 E38.31743
G1 X104.729 Y25.35 E38.33595
G1 X104.39 Y25.968 E38.35451
G1 X104.216 Y26.648 E38.37299
G1 X104.216 Y27.352 E38.39153
G1 F420 E37.39153
G0 F2250 X105.68 Y27.165
G0 X105.68 Y27.29
G0 X105.682 Y27.37
G0 X105.767 Y33.334
G0 X35.653 Y33.403
G0 X38.653 Y48.347
G0 X38.653 Y120.097
G0 X107.005 Y120.164
G0 X107.083 Y125.592
G0 X107.084 Y125.672
G0 X107.085 Y125.672
G0 X107.177 Y124.199
G1 F420 E38.39153
G1 F900 X106.474 Y124.243 E38.41008
G1 X105.804 Y124.46 E38.42863
G1 X105.211 Y124.838 E38.44715
G1 X104.729 Y125.35 E38.46567
G1 X104.39 Y125.968 E38.48423
G1 X104.216 Y126.648 E38.50272
G1 X104.216 Y127.352 E38.52125
G1 X104.39 Y128.032 E38.53974
G1 X104.729 Y128.65 E38.5583
G1 X105.211 Y129.162 E38.57682
G1 X105.804 Y129.54 E38.59534
G1 X106.474 Y129.757 E38.61389
G1 X107.177 Y129.801 E38.63244
G1 X107.867 Y129.669 E38.65094
G1 X108.504 Y129.369 E38.66948
G1 X109.045 Y128.921 E38.68798
G1 X109.46 Y128.353 E38.7065
G1 X109.718 Y127.697 E38.72507
G1 X109.806 Y127 E38.74357
G1 X109.718 Y126.303 E38.76207
G1 X109.46 Y125.647 E38.78063
G1 X109.045 Y125.079 E38.79916
G1 X108.504 Y124.631 E38.81765
G1 X107.867 Y124.331 E38.8362
G1 X107.177 Y124.199 E38.8547
G1 F420 E37.8547
G0 F2250 X107.085 Y125.672
G0 X106.695 Y125.68
G0 X106.615 Y125.681
G0 X48.409 Y126.997
G0 X48.329 Y126.999
G0 X48.33 Y127
G0 X49.806 Y127
G1 F420 E38.8547
G1 F900 X49.718 Y126.303 E38.8732
G1 X49.46 Y125.647 E38.89176
G1 X49.045 Y125.079 E38.91029
G1 X48.504 Y124.631 E38.92879
G1 X47.867 Y124.331 E38.94733
G1 X47.177 Y124.199 E38.96583
G1 X46.474 Y124.243 E38.98438
G1 X45.804 Y124.46 E39.00293
G1 X45.211 Y124.838 E39.02144
G1 X44.729 Y125.35 E39.03996
G1 X44.39 Y125.968 E39.05853
G1 X44.216 Y126.648 E39.07701
G1 X44.216 Y127.352 E39.09555
G1 X44.39 Y128.032 E39.11403
G1 X44.729 Y128.65 E39.1326
G1 X45.211 Y129.162 E39.15112
G1 X45.804 Y129.54 E39.16963
G1 X46.474 Y129.757 E39.18818
G1 X47.177 Y129.801 E39.20673
G1 X47.867 Y129.669 E39.22523
G1 X48.504 Y129.369 E39.24377
G1 X49.045 Y128.921 E39.26227
G1 X49.46 Y128.353 E39.2808
G1 X49.718 Y127.697 E39.29936
G1 X49.806 Y127 E39.31786
G0 F2250 X49.302 Y127
;TYPE:WALL-OUTER
G1 F900 X49.23 Y126.428 E39.34064
G1 X49.018 Y125.89 E39.36348
G1 X48.678 Y125.424 E39.38627
G1 X48.234 Y125.056 E39.40905
G1 X47.711 Y124.81 E39.43188
G1 X47.145 Y124.702 E39.45464
G1 X46.568 Y124.738 E39.47747
G1 X46.019 Y124.916 E39.50027
G1 X45.532 Y125.226 E39.52308
G1 X45.137 Y125.646 E39.54585
G1 X44.859 Y126.153 E39.56869
G1 X44.716 Y126.711 E39.59145
G1 X44.716 Y127.289 E39.61428
G1 X44.859 Y127.847 E39.63703
G1 X45.137 Y128.354 E39.65988
G1 X45.532 Y128.774 E39.68265
G1 X46.019 Y129.084 E39.70546
G1 X46.568 Y129.262 E39.72825
G1 X47.145 Y129.298 E39.75109
G1 X47.711 Y129.19 E39.77385
G1 X48.234 Y128.944 E39.79668
G1 X48.678 Y128.576 E39.81946
G1 X49.018 Y128.11 E39.84225
G1 X49.23 Y127.572 E39.86509
G1 X49.302 Y127 E39.88787
G0 F2250 X49.271 Y126.752
G1 F420 E38.88787
G0 F2250 X48.289 Y126.666
G0 X46.832 Y125.672
G0 X46.766 Y125.627
G0 X38.727 Y120.146
G0 X38.661 Y120.101
G0 X38.653 Y120.097
G0 X37.7 Y121.05
G1 F420 E39.88787
G1 F900 X116.3 Y121.05 E42.99274
G1 X116.3 Y114.874 E43.2367
G1 X118.124 Y113.05 E43.3386
G1 X119.3 Y113.05 E43.38505
G1 X119.3 Y58.95 E45.52212
G1 X118.124 Y58.95 E45.56858
G1 X116.3 Y57.126 E45.67047
G1 X116.3 Y49.8 E45.95987
G1 X119.128 Y49.8 E46.07158
G1 X119.881 Y49.016 E46.11452
G1 X120.472 Y48.237 E46.15314
G1 X120.966 Y47.393 E46.19177
G1 X121.357 Y46.498 E46.23036
G1 X121.641 Y45.563 E46.26896
G1 X121.813 Y44.6 E46.3076
G1 X121.871 Y43.625 E46.34618
G1 X121.813 Y42.65 E46.38476
G1 X121.641 Y41.687 E46.42341
G1 X121.357 Y40.752 E46.46201
G1 X120.966 Y39.857 E46.50059
G1 X120.472 Y39.013 E46.53922
G1 X119.881 Y38.234 E46.57785
G1 X119.3 Y37.629 E46.61098
G1 X119.3 Y32.45 E46.81556
G1 X34.7 Y32.45 E50.15744
G1 X34.7 Y49.3 E50.82306
G1 X37.7 Y49.3 E50.94156
G1 X37.7 Y57.126 E51.25071
G1 X35.876 Y58.95 E51.3526
G1 X34.7 Y58.95 E51.39906
G1 X34.7 Y113.05 E53.53613
G1 X35.876 Y113.05 E53.58258
G1 X37.7 Y114.874 E53.68448
G1 X37.7 Y121.05 E53.92844
G0 F2250 X37.95 Y121.05
G1 F420 E52.92844
G0 F2250 X38.653 Y120.097
G0 X38.654 Y120.093
G0 X38.605 Y120.155
G0 X28.65 Y132.651
G0 X28.6 Y132.713
G0 X28.585 Y132.734
G0 X29.55 Y132.734
G1 F420 E53.92844
G1 F900 X29.55 Y21.266 E58.33167
G1 X29.61 Y20.812 E58.34976
G1 X29.779 Y20.402 E58.36728
G1 X30.05 Y20.05 E58.38483
G1 X30.402 Y19.779 E58.40237
G1 X30.812 Y19.61 E58.41989
G1 X31.266 Y19.55 E58.43798
G1 X122.734 Y19.55 E62.05117
G1 X123.188 Y19.61 E62.06926
G1 X123.598 Y19.779 E62.08677
G1 X123.95 Y20.05 E62.10432
G1 X124.221 Y20.402 E62.12187
G1 X124.39 Y20.812 E62.13939
G1 X124.45 Y21.266 E62.15748
G1 X124.45 Y132.734 E66.56071
G1 X124.39 Y133.188 E66.5788
G1 X124.221 Y133.598 E66.59631
G1 X123.95 Y133.95 E66.61386
G1 X123.598 Y134.221 E66.63141
G1 X123.188 Y134.39 E66.64893
G1 X122.734 Y134.45 E66.66702
G1 X31.266 Y134.45 E70.2802
G1 X30.812 Y134.39 E70.29829
G1 X30.402 Y134.221 E70.31581
G1 X30.05 Y133.95 E70.33336
G1 X29.779 Y133.598 E70.35091
G1 X29.61 Y133.188 E70.36842
G1 X29.55 Y132.734 E70.38651
G0 F2250 X29.55 Y132.484
G1 F420 E69.38651
G0 F2250 X28.585 Y132.484
G0 X28.584 Y132.483
G0 X28.664 Y132.478
G0 X105.601 Y127.17
G0 X105.681 Y127.164
G0 X105.68 Y127.165
G0 X104.716 Y127.289
G1 F420 E70.38651
G1 F900 X104.859 Y127.847 E70.40927
G1 X105.137 Y128.354 E70.43211
G1 X105.532 Y128.774 E70.45489
G1 X106.019 Y129.084 E70.47769
G1 X106.568 Y129.262 E70.50049
G1 X107.145 Y129.298 E70.52332
G1 X107.711 Y129.19 E70.54609
G1 X108.234 Y128.944 E70.56892
G1 X108.678 Y128.576 E70.5917
G1 X109.018 Y128.11 E70.61448
G1 X109.23 Y127.572 E70.63733
G1 X109.302 Y127 E70.6601
G1 X109.23 Y126.428 E70.68287
G1 X109.018 Y125.89 E70.70572
G1 X108.678 Y125.424 E70.7285
G1 X108.234 Y125.056 E70.75128
G1 X107.711 Y124.81 E70.77411
G1 X107.145 Y124.702 E70.79688
G1 X106.568 Y124.738 E70.81971
G1 X106.019 Y124.916 E70.84251
G1 X105.532 Y125.226 E70.86532
G1 X105.137 Y125.646 E70.88809
G1 X104.859 Y126.153 E70.91093
G1 X104.716 Y126.711 E70.93369
G1 X104.716 Y127.289 E70.95652
G0 F2250 X104.778 Y127.531
G1 F420 E69.95652
G0 F2250 X105.68 Y127.165
G0 X105.685 Y126.691
G0 X105.687 Y126.611
G0 X105.778 Y120.164
G0 X38.653 Y120.097
G0 X38.653 Y48.347
G0 X35.653 Y33.403
G0 X107.012 Y33.334
G0 X107.083 Y28.405
G0 X107.084 Y28.325
G0 X107.085 Y28.328
G0 X107.145 Y29.298
G1 F420 E70.95652
G1 F900 X107.711 Y29.19 E70.97928
G1 X108.234 Y28.944 E71.00211
G1 X108.678 Y28.576 E71.02489
G1 X109.018 Y28.11 E71.04768
G1 X109.23 Y27.572 E71.07052
G1 X109.302 Y27 E71.09329
G1 X109.23 Y26.428 E71.11607
G1 X109.018 Y25.89 E71.13891
G1 X108.678 Y25.424 E71.1617
G1 X108.234 Y25.056 E71.18448
G1 X107.711 Y24.81 E71.20731
G1 X107.145 Y24.702 E71.23007
G1 X106.568 Y24.738 E71.25291
G1 X106.019 Y24.916 E71.27571
G1 X105.532 Y25.226 E71.29851
G1 X105.137 Y25.646 E71.32129
G1 X104.859 Y26.153 E71.34413
G1 X104.716 Y26.711 E71.36688
G1 X104.716 Y27.289 E71.38971
G1 X104.859 Y27.847 E71.41247
G1 X105.137 Y28.354 E71.43531
G1 X105.532 Y28.774 E71.45808
G1 X106.019 Y29.084 E71.48089
G1 X106.568 Y29.262 E71.50369
G1 X107.145 Y29.298 E71.52652
G0 F2250 X107.39 Y29.252
G1 F420 E70.52652
G0 F2250 X107.085 Y28.328
G0 X106.696 Y28.319
G0 X106.616 Y28.317
G0 X48.408 Y27.001
G0 X48.328 Y26.999
G0 X48.33 Y27
G0 X49.302 Y27
G1 F420 E71.52652
G1 F900 X49.23 Y26.428 E71.5493
G1 X49.018 Y25.89 E71.57214
G1 X48.678 Y25.424 E71.59493
G1 X48.234 Y25.056 E71.61771
G1 X47.711 Y24.81 E71.64054
G1 X47.145 Y24.702 E71.6633
G1 X46.568 Y24.738 E71.68614
G1 X46.019 Y24.916 E71.70893
G1 X45.532 Y25.226 E71.73174
G1 X45.137 Y25.646 E71.75451
G1 X44.859 Y26.153 E71.77735
G1 X44.716 Y26.711 E71.80011
G1 X44.716 Y27.289 E71.82294
G1 X44.859 Y27.847 E71.8457
G1 X45.137 Y28.354 E71.86854
G1 X45.532 Y28.774 E71.89131
G1 X46.019 Y29.084 E71.91412
G1 X46.568 Y29.262 E71.93691
G1 X47.145 Y29.298 E71.95975
G1 X47.711 Y29.19 E71.98251
G1 X48.234 Y28.944 E72.00534
G1 X48.678 Y28.576 E72.02812
G1 X49.018 Y28.11 E72.05091
G1 X49.23 Y27.572 E72.07375
G1 X49.302 Y27 E72.09653
G0 F2250 X49.271 Y26.752
G0 X49.78 Y26.4
;TYPE:SKIN
G1 F900 X104.227 Y26.4 E74.2473
G1 X104.327 Y26.4
G0 F2250 X104.166 Y27
G1 F900 X49.857 Y27 E76.39263
G1 X49.757 Y27
G0 F2250 X49.78 Y27.6
G1 F900 X104.229 Y27.6 E78.54348
G1 X104.329 Y27.6
