;Generated by Cura LulzBot Edition GCodeWriter Version: 2.6.56
;FLAVOR:RepRap
;TIME:6153
;Filament used: 3.40226m
;Layer height: 0.378
;Generated with Cura_SteamEngine 2.6.56
;This G-Code has been generated specifically for the LulzBot Mini with standard extruder
G26                                ; clear potential 'probe fail' condition
G21                                ; set units to Millimetres
M107                               ; disable fans
G90                                ; absolute positioning
M82                                ; set extruder to absolute mode
G92 E0                             ; set extruder position to 0
M140 S115   ; start bed heating up
M109 R175 ; soften filament before homing Z
G28                                ; home all axes
M109 R170  ; wait for extruder to reach wiping temp
G1 Z150 E-15 F75                   ; retract filament
G1 X45 Y174 F11520                 ; move above wiper pad
G1 Z0  F1200                       ; push nozzle into wiper
G1 X45 Y174 Z-.5 F4000             ; wiping
G1 X55 Y172 Z-.5 F4000             ; wiping
G1 X45 Y174 Z0 F4000               ; wiping
G1 X55 Y172 F4000                  ; wiping
G1 X45 Y174 F4000                  ; wiping
G1 X55 Y172 F4000                  ; wiping
G1 X45 Y174 F4000                  ; wiping
G1 X55 Y172 F4000                  ; wiping
G1 X60 Y174 F4000                  ; wiping
G1 X80 Y172 F4000                  ; wiping
G1 X60 Y174 F4000                  ; wiping
G1 X80 Y172 F4000                  ; wiping
G1 X60 Y174 F4000                  ; wiping
G1 X90 Y172 F4000                  ; wiping
G1 X80 Y174 F4000                  ; wiping
G1 X100 Y172 F4000                 ; wiping
G1 X80 Y174 F4000                  ; wiping
G1 X100 Y172 F4000                 ; wiping
G1 X80 Y174 F4000                  ; wiping
G1 X100 Y172 F4000                 ; wiping
G1 X110 Y174 F4000                 ; wiping
G1 X100 Y172 F4000                 ; wiping
G1 X110 Y174 F4000                 ; wiping
G1 X100 Y172 F4000                 ; wiping
G1 X110 Y174 F4000                 ; wiping
G1 X115 Y172 Z-0.5 F1000           ; wiping
G1 Z10                             ; raise extruder
G28 X0 Y0                          ; home X and Y
M109 R170 ; wait for extruder to reach probe temp
M204 S300                          ; set probing acceleration
G29                                ; start auto-leveling sequence
M204 S2000                         ; restore standard acceleration
G1 X5 Y15 Z10 F5000                ; move up off last probe point
G4 S1                              ; pause
M400                               ; wait for moves to finish
M117 Heating...                    ; progress indicator message on LCD
M109 R245 ; wait for extruder to reach printing temp
M190 S116   ; wait for bed to reach printing temp
G1 Z2 E0 F75                       ; prime tiny bit of filment into the nozzle
M117 Mini Printing...              ; progress indicator message on LCD

;LAYER_COUNT:24
;LAYER:0
M107
M204 S800
M205 X2
G0 F2250 X23.923 Y4.158 Z0.42
;TYPE:WALL-INNER
G1 F900 X24.209 Y3.465 E0.01974
G1 X24.671 Y2.863 E0.03973
G1 X25.274 Y2.401 E0.05973
G1 X25.966 Y2.114 E0.07946
G1 X26.758 Y2.01 E0.1005
G1 X114.678 Y2.01 E2.41585
G1 X115.47 Y2.114 E2.43689
G1 X116.162 Y2.401 E2.45662
G1 X116.765 Y2.863 E2.47662
G1 X117.227 Y3.466 E2.49663
G1 X117.514 Y4.158 E2.51635
G1 X117.618 Y4.95 E2.53739
G1 X117.618 Y5.87 E2.56162
G1 X117.514 Y6.661 E2.58263
G1 X117.226 Y7.357 E2.60247
G1 X116.766 Y7.957 E2.62238
G1 X116.166 Y8.418 E2.6423
G1 X115.47 Y8.705 E2.66213
G1 X114.677 Y8.81 E2.68319
G1 X30.118 Y8.81 E4.91004
G1 X30.118 Y68.01 E6.46906
G1 X114.678 Y68.01 E8.69592
G1 X115.47 Y68.114 E8.71696
G1 X116.162 Y68.401 E8.73669
G1 X116.765 Y68.863 E8.75669
G1 X117.227 Y69.466 E8.7767
G1 X117.514 Y70.158 E8.79643
G1 X117.618 Y70.948 E8.81741
G1 X117.618 Y71.87 E8.84169
G1 X117.514 Y72.661 E8.8627
G1 X117.226 Y73.357 E8.88254
G1 X116.766 Y73.957 E8.90245
G1 X116.166 Y74.418 E8.92238
G1 X115.47 Y74.705 E8.9422
G1 X114.677 Y74.81 E8.96327
G1 X26.759 Y74.81 E11.27857
G1 X25.966 Y74.705 E11.29963
G1 X25.27 Y74.418 E11.31946
G1 X24.67 Y73.957 E11.33939
G1 X24.212 Y73.36 E11.3592
G1 X23.923 Y72.658 E11.37919
G1 X23.818 Y71.869 E11.40016
G1 X23.818 Y64.95 E11.58237
G1 X23.854 Y64.677 E11.58962
G1 X23.942 Y64.464 E11.59569
G1 X24.086 Y64.278 E11.60188
G1 X24.274 Y64.133 E11.60813
G1 X24.484 Y64.046 E11.61412
G1 X24.758 Y64.01 E11.6214
G1 X25.257 Y64.01 E11.63454
G1 X25.764 Y63.944 E11.648
G1 X26.271 Y63.732 E11.66248
G1 X26.707 Y63.398 E11.67694
G1 X27.041 Y62.963 E11.69138
G1 X27.252 Y62.455 E11.70587
G1 X27.318 Y61.949 E11.71931
G1 X27.318 Y14.871 E12.95909
G1 X27.252 Y14.364 E12.97256
G1 X27.041 Y13.857 E12.98702
G1 X26.707 Y13.421 E13.00148
G1 X26.271 Y13.087 E13.01595
G1 X25.764 Y12.876 E13.03041
G1 X25.257 Y12.81 E13.04388
G1 X24.758 Y12.81 E13.05702
G1 X24.484 Y12.774 E13.06429
G1 X24.272 Y12.686 E13.07034
G1 X24.085 Y12.543 E13.07654
G1 X23.942 Y12.356 E13.08274
G1 X23.854 Y12.144 E13.08878
G1 X23.818 Y11.87 E13.09606
G1 X23.818 Y4.951 E13.27827
G1 X23.826 Y4.894 E13.27979
G0 F810 X23.923 Y4.158
G0 F2250 X24.429 Y4.671
G1 F420 E13.29933
G1 F900 X24.192 Y5.278 E13.31649
G1 X24.115 Y5.928 E13.33372
G1 X24.201 Y6.574 E13.35089
G1 X24.446 Y7.177 E13.36803
G1 X24.831 Y7.704 E13.38521
G1 X25.339 Y8.116 E13.40244
G1 X25.929 Y8.39 E13.41957
G1 X26.572 Y8.509 E13.43679
G1 X27.223 Y8.463 E13.45398
G1 X27.842 Y8.257 E13.47116
G1 X28.39 Y7.905 E13.48831
G1 X28.833 Y7.426 E13.50549
G1 X29.145 Y6.853 E13.52267
G1 X29.303 Y6.219 E13.53988
G1 X29.3 Y5.568 E13.55703
G1 X29.133 Y4.935 E13.57427
G1 X28.814 Y4.366 E13.59144
G1 X28.365 Y3.894 E13.6086
G1 X27.813 Y3.547 E13.62577
G1 X27.189 Y3.349 E13.64301
G1 X26.538 Y3.313 E13.66018
G1 X25.898 Y3.439 E13.67736
G1 X25.31 Y3.72 E13.69452
G1 X24.876 Y4.082 E13.7094
G0 F810 X24.808 Y4.139
G0 X24.429 Y4.671
G0 F2250 X24.342 Y4.624
G0 X24.154 Y5.269
G0 X24.075 Y5.928
G0 X25.259 Y12.771
G0 X25.774 Y12.838
G0 X26.291 Y13.053
G0 X26.735 Y13.393
G0 X27.075 Y13.837
G0 X27.29 Y14.354
G0 X27.357 Y14.869
G0 X27.357 Y61.951
G0 X26.532 Y68.214
G0 X26.538 Y68.313
G1 F420 E13.72895
G1 F900 X25.898 Y68.439 E13.74612
G1 X25.31 Y68.72 E13.76329
G1 X24.808 Y69.139 E13.7805
G1 X24.429 Y69.671 E13.79771
G1 X24.192 Y70.278 E13.81487
G1 X24.115 Y70.928 E13.8321
G1 X24.201 Y71.574 E13.84927
G1 X24.446 Y72.177 E13.86641
G1 X24.831 Y72.704 E13.88359
G1 X25.339 Y73.116 E13.90082
G1 X25.929 Y73.39 E13.91795
G1 X26.572 Y73.509 E13.93517
G1 X27.223 Y73.463 E13.95236
G1 X27.842 Y73.257 E13.96954
G1 X28.39 Y72.905 E13.98669
G1 X28.833 Y72.426 E14.00387
G1 X29.145 Y71.853 E14.02105
G1 X29.303 Y71.219 E14.03826
G1 X29.3 Y70.568 E14.05541
G1 X29.133 Y69.935 E14.07265
G1 X28.814 Y69.366 E14.08982
G1 X28.365 Y68.894 E14.10698
G1 X27.813 Y68.547 E14.12415
G1 X27.275 Y68.376 E14.13902
G0 F810 X27.189 Y68.349
G0 X26.538 Y68.313
G0 F2250 X26.532 Y68.214
G0 X112.015 Y70.928
G0 X112.115 Y70.928
G1 F420 E14.15856
G1 F900 X112.201 Y71.574 E14.17572
G1 X112.446 Y72.177 E14.19286
G1 X112.831 Y72.704 E14.21005
G1 X113.339 Y73.116 E14.22727
G1 X113.929 Y73.39 E14.2444
G1 X114.572 Y73.509 E14.26163
G1 X115.223 Y73.463 E14.27881
G1 X115.842 Y73.257 E14.29599
G1 X116.39 Y72.905 E14.31314
G1 X116.833 Y72.426 E14.33033
G1 X117.145 Y71.853 E14.34751
G1 X117.303 Y71.219 E14.36472
G1 X117.3 Y70.568 E14.38186
G1 X117.133 Y69.935 E14.3991
G1 X116.814 Y69.366 E14.41628
G1 X116.365 Y68.894 E14.43343
G1 X115.813 Y68.547 E14.4506
G1 X115.189 Y68.349 E14.46784
G1 X114.539 Y68.313 E14.48499
G1 X113.898 Y68.438 E14.50219
G1 X113.31 Y68.721 E14.51937
G1 X112.808 Y69.139 E14.53658
G1 X112.429 Y69.671 E14.55378
G1 X112.224 Y70.196 E14.56862
G0 F810 X112.192 Y70.278
G0 X112.115 Y70.928
G0 F2250 X112.015 Y70.928
G0 X30.09 Y68.038
G0 X30.09 Y8.782
G0 X114.567 Y8.608
G0 X114.572 Y8.509
G1 F420 E14.58816
G1 F900 X115.223 Y8.463 E14.60535
G1 X115.842 Y8.257 E14.62253
G1 X116.39 Y7.905 E14.63968
G1 X116.833 Y7.426 E14.65686
G1 X117.145 Y6.853 E14.67404
G1 X117.303 Y6.219 E14.69125
G1 X117.3 Y5.568 E14.70839
G1 X117.133 Y4.935 E14.72563
G1 X116.814 Y4.366 E14.74281
G1 X116.365 Y3.894 E14.75997
G1 X115.813 Y3.547 E14.77714
G1 X115.189 Y3.349 E14.79438
G1 X114.539 Y3.313 E14.81152
G1 X113.898 Y3.438 E14.82872
G1 X113.31 Y3.721 E14.84591
G1 X112.808 Y4.139 E14.86311
G1 X112.429 Y4.671 E14.88031
G1 X112.192 Y5.278 E14.89747
G1 X112.115 Y5.928 E14.91471
G1 X112.201 Y6.574 E14.93187
G1 X112.446 Y7.177 E14.94901
G1 X112.831 Y7.704 E14.9662
G1 X113.339 Y8.116 E14.98342
G1 X113.849 Y8.353 E14.99823
G0 F810 X113.929 Y8.39
G0 X114.572 Y8.509
G0 F2250 X114.567 Y8.608
G0 X113.336 Y8.224
G0 X113.526 Y7.816
;TYPE:WALL-OUTER
G1 F420 E15.01777
G1 F900 X114.037 Y8.053 E15.03261
G1 X114.592 Y8.156 E15.04747
G1 X115.154 Y8.116 E15.06231
G1 X115.689 Y7.938 E15.07716
G1 X116.163 Y7.634 E15.09199
G1 X116.546 Y7.22 E15.10684
G1 X116.815 Y6.725 E15.12168
G1 X116.952 Y6.177 E15.13655
G1 X116.949 Y5.614 E15.15138
G1 X116.805 Y5.068 E15.16625
G1 X116.529 Y4.576 E15.18111
G1 X116.141 Y4.168 E15.19593
G1 X115.664 Y3.868 E15.21077
G1 X115.125 Y3.697 E15.22567
G1 X114.563 Y3.666 E15.24049
G1 X114.009 Y3.774 E15.25535
G1 X113.501 Y4.018 E15.27019
G1 X113.068 Y4.38 E15.28506
G1 X112.74 Y4.839 E15.29991
G1 X112.535 Y5.364 E15.31476
G1 X112.469 Y5.925 E15.32963
G1 X112.543 Y6.483 E15.34446
G1 X112.755 Y7.005 E15.35929
G1 X112.983 Y7.317 E15.36947
G0 F810 X113.088 Y7.46
G0 X113.526 Y7.816
G0 F2250 X113.752 Y7.921
G0 X113.562 Y8.329
G0 X30.09 Y8.782
G0 X30.09 Y68.038
G0 X115.196 Y68.31
G0 X115.829 Y68.511
G0 X116.39 Y68.864
G0 X116.846 Y69.343
G0 X117.17 Y69.92
G0 X117.339 Y70.563
G0 X117.342 Y71.223
G0 X117.182 Y71.867
G0 X116.865 Y72.449
G0 X114.671 Y74.711
G0 X114.7 Y75.161
G1 F420 E15.38901
G1 F900 X26.736 Y75.161 E17.70552
G1 X25.876 Y75.047 E17.72837
G1 X25.093 Y74.724 E17.75067
G1 X24.42 Y74.207 E17.77302
G1 X23.904 Y73.535 E17.79534
G1 X23.581 Y72.751 E17.81767
G1 X23.467 Y71.892 E17.84049
G1 X23.467 Y64.927 E18.02391
G1 X23.512 Y64.587 E18.03294
G1 X23.637 Y64.284 E18.04157
G1 X23.834 Y64.029 E18.05006
G1 X24.096 Y63.827 E18.05877
G1 X24.394 Y63.704 E18.06726
G1 X24.735 Y63.659 E18.07632
G1 X25.234 Y63.659 E18.08946
G1 X25.672 Y63.602 E18.10109
G1 X26.094 Y63.426 E18.11313
G1 X26.457 Y63.148 E18.12517
G1 X26.734 Y62.786 E18.13718
G1 X26.91 Y62.363 E18.14924
G1 X26.967 Y61.926 E18.16085
G1 X26.967 Y14.894 E19.39942
G1 X26.91 Y14.456 E19.41106
G1 X26.734 Y14.034 E19.4231
G1 X26.457 Y13.671 E19.43512
G1 X26.094 Y13.394 E19.44715
G1 X25.672 Y13.218 E19.45919
G1 X25.234 Y13.161 E19.47082
G1 X24.735 Y13.161 E19.48396
G1 X24.394 Y13.116 E19.49302
G1 X24.094 Y12.992 E19.50157
G1 X23.835 Y12.793 E19.51017
G1 X23.636 Y12.534 E19.51877
G1 X23.512 Y12.234 E19.52732
G1 X23.467 Y11.893 E19.53638
G1 X23.467 Y4.928 E19.7198
G1 X23.581 Y4.068 E19.74265
G1 X23.903 Y3.288 E19.76487
G1 X24.421 Y2.613 E19.78727
G1 X25.096 Y2.095 E19.80968
G1 X25.876 Y1.772 E19.83191
G1 X26.735 Y1.659 E19.85473
G1 X114.701 Y1.659 E22.1713
G1 X115.56 Y1.772 E22.19411
G1 X116.34 Y2.095 E22.21635
G1 X117.015 Y2.613 E22.23875
G1 X117.533 Y3.288 E22.26116
G1 X117.856 Y4.068 E22.28339
G1 X117.969 Y4.927 E22.30621
G1 X117.969 Y5.893 E22.33165
G1 X117.856 Y6.751 E22.35444
G1 X117.532 Y7.535 E22.37678
G1 X117.016 Y8.207 E22.39909
G1 X116.343 Y8.724 E22.42144
G1 X115.56 Y9.047 E22.44375
G1 X114.7 Y9.161 E22.46659
G1 X30.469 Y9.161 E24.6848
G1 X30.469 Y67.659 E26.22533
G1 X114.701 Y67.659 E28.44356
G1 X115.56 Y67.772 E28.46638
G1 X116.34 Y68.095 E28.48861
G1 X117.015 Y68.613 E28.51102
G1 X117.533 Y69.288 E28.53342
G1 X117.856 Y70.068 E28.55566
G1 X117.969 Y70.925 E28.57842
G1 X117.969 Y71.893 E28.60391
G1 X117.856 Y72.751 E28.6267
G1 X117.532 Y73.535 E28.64904
G1 X117.016 Y74.207 E28.67135
G1 X116.343 Y74.724 E28.6937
G1 X115.56 Y75.047 E28.71601
G1 X115.436 Y75.064 E28.7193
G0 F810 X114.7 Y75.161
G0 F2250 X114.45 Y75.161
G0 X114.45 Y74.71
G0 X112.412 Y72.196
G0 X112.096 Y71.543
G0 X112.543 Y71.483
G1 F420 E28.73885
G1 F900 X112.755 Y72.005 E28.75368
G1 X113.088 Y72.46 E28.76853
G1 X113.526 Y72.816 E28.7834
G1 X114.037 Y73.053 E28.79823
G1 X114.592 Y73.156 E28.81309
G1 X115.154 Y73.116 E28.82793
G1 X115.689 Y72.938 E28.84278
G1 X116.163 Y72.634 E28.85761
G1 X116.546 Y72.22 E28.87246
G1 X116.815 Y71.725 E28.8873
G1 X116.952 Y71.177 E28.90217
G1 X116.949 Y70.614 E28.917
G1 X116.805 Y70.068 E28.93187
G1 X116.529 Y69.576 E28.94673
G1 X116.141 Y69.168 E28.96156
G1 X115.664 Y68.868 E28.97639
G1 X115.125 Y68.697 E28.99129
G1 X114.563 Y68.666 E29.00611
G1 X114.009 Y68.774 E29.02097
G1 X113.501 Y69.018 E29.03581
G1 X113.068 Y69.38 E29.05068
G1 X112.74 Y69.839 E29.06553
G1 X112.535 Y70.364 E29.08038
G1 X112.49 Y70.746 E29.09051
G0 F810 X112.469 Y70.925
G0 X112.543 Y71.483
G0 F2250 X112.637 Y71.714
G0 X112.219 Y71.883
G0 X29.389 Y71.286
G0 X28.952 Y71.177
G1 F420 E29.11005
G1 F900 X28.949 Y70.614 E29.12487
G1 X28.805 Y70.068 E29.13974
G1 X28.529 Y69.576 E29.1546
G1 X28.141 Y69.168 E29.16943
G1 X27.664 Y68.868 E29.18427
G1 X27.125 Y68.697 E29.19916
G1 X26.563 Y68.666 E29.21398
G1 X26.009 Y68.775 E29.22885
G1 X25.501 Y69.018 E29.24368
G1 X25.068 Y69.38 E29.25854
G1 X24.74 Y69.839 E29.2734
G1 X24.535 Y70.364 E29.28824
G1 X24.469 Y70.925 E29.30312
G1 X24.543 Y71.483 E29.31794
G1 X24.755 Y72.005 E29.33278
G1 X25.088 Y72.46 E29.34763
G1 X25.526 Y72.816 E29.36249
G1 X26.037 Y73.053 E29.37733
G1 X26.592 Y73.156 E29.39219
G1 X27.154 Y73.116 E29.40703
G1 X27.689 Y72.938 E29.42188
G1 X28.163 Y72.634 E29.43671
G1 X28.546 Y72.22 E29.45156
G1 X28.73 Y71.881 E29.46172
G0 F810 X28.815 Y71.725
G0 X28.952 Y71.177
G0 F2250 X28.951 Y70.927
G0 X29.402 Y70.926
G0 X28.492 Y7.94
G0 X28.163 Y7.634
G1 F420 E29.48126
G1 F900 X28.546 Y7.22 E29.49611
G1 X28.815 Y6.725 E29.51095
G1 X28.952 Y6.177 E29.52582
G1 X28.949 Y5.614 E29.54065
G1 X28.805 Y5.068 E29.55552
G1 X28.529 Y4.576 E29.57037
G1 X28.141 Y4.168 E29.5852
G1 X27.664 Y3.868 E29.60004
G1 X27.125 Y3.697 E29.61493
G1 X26.563 Y3.666 E29.62976
G1 X26.009 Y3.775 E29.64462
G1 X25.501 Y4.018 E29.65945
G1 X25.068 Y4.38 E29.67432
G1 X24.74 Y4.839 E29.68917
G1 X24.535 Y5.364 E29.70402
G1 X24.469 Y5.925 E29.71889
G1 X24.543 Y6.483 E29.73372
G1 X24.755 Y7.005 E29.74855
G1 X25.088 Y7.46 E29.7634
G1 X25.526 Y7.816 E29.77827
G1 X26.037 Y8.053 E29.7931
G1 X26.592 Y8.156 E29.80797
G1 X27.154 Y8.116 E29.8228
G1 X27.519 Y7.994 E29.83294
G0 F810 X27.689 Y7.938
G0 X28.163 Y7.634
G0 F2250 X28.333 Y7.451
G0 X28.775 Y7.561
;TYPE:SKIN
G1 F420 E29.85248
G1 F900 X30.067 Y8.854 E29.92468
G1 X30.137 Y8.924
G0 F2250 X30.821 Y8.759
G1 F900 X29.1 Y7.038 E30.02083
G1 X29.03 Y6.968
G0 F2250 X29.308 Y6.398
G1 F900 X31.669 Y8.759 E30.15272
G1 X31.739 Y8.829
G0 F2250 X32.518 Y8.759
G1 F900 X29.349 Y5.59 E30.32976
G1 X29.279 Y5.52
G0 F2250 X29.383 Y5.494
G0 X29.342 Y6.223
G0 X29.182 Y6.867
G0 X28.865 Y7.449
G0 X28.38 Y8.031
G0 X28.353 Y7.988
G1 F900 X30.067 Y9.702 E30.42551
G1 X30.137 Y9.772
G0 F2250 X30.067 Y10.551
G1 F900 X27.83 Y8.314 E30.55048
G1 X27.76 Y8.244
G0 F2250 X27.184 Y8.516
G1 F900 X30.067 Y11.399 E30.71153
G1 X30.137 Y11.469
G0 F2250 X30.067 Y12.248
G1 F900 X26.334 Y8.515 E30.92008
G1 X26.264 Y8.445
G0 F2250 X26.244 Y8.549
G0 X23.918 Y8.593
G0 X23.866 Y8.593
G1 F900 X30.067 Y14.794 E31.26649
G1 X30.137 Y14.864
G0 F2250 X30.067 Y15.642
G1 F900 X23.866 Y9.441 E31.61291
G1 X23.796 Y9.371
G0 F2250 X23.866 Y10.29
G1 F900 X30.067 Y16.491 E31.95932
G1 X30.137 Y16.561
G0 F2250 X30.067 Y17.339
G1 F900 X27.332 Y14.604 E32.11211
G1 X27.262 Y14.534
G0 F2250 X27.367 Y15.488
G1 F900 X30.067 Y18.188 E32.26295
G1 X30.137 Y18.258
G0 F2250 X30.067 Y19.036
G1 F900 X27.367 Y16.336 E32.41378
G1 X27.297 Y16.266
G0 F2250 X27.367 Y17.185
G1 F900 X30.067 Y19.885 E32.56462
G1 X30.137 Y19.955
G0 F2250 X30.067 Y20.733
G1 F900 X27.367 Y18.034 E32.71542
G1 X27.297 Y17.964
G0 F2250 X27.367 Y18.882
G1 F900 X30.067 Y21.582 E32.86626
G1 X30.137 Y21.652
G0 F2250 X30.067 Y22.43
G1 F900 X27.367 Y19.731 E33.01706
G1 X27.297 Y19.661
G0 F2250 X27.367 Y20.579
G1 F900 X30.067 Y23.279 E33.1679
G1 X30.137 Y23.349
