;Generated by Cura LulzBot Edition GCodeWriter Version: 2.6.66
;FLAVOR:RepRap
;TIME:13105
;Filament used: 10.4891m
;Layer height: 0.378
;Generated with Cura_SteamEngine 2.6.66
;This G-Code has been generated specifically for the LulzBot Mini with Aerostruder
G26 ; clear potential 'probe fail' condition
G21 ; set units to Millimetres
M107 ; disable fans
G90 ; absolute positioning
M82 ; set extruder to absolute mode
G92 E0 ; set extruder position to 0
M140 S115 ; start bed heating up
G28 ; home all axes
G0 X0 Y187 Z156 F200 ; move away from endstops
M109 R170 ; soften filament before retraction
G1 E-15 F75 ; retract filament
M109 R170 ; wait for extruder to reach wiping temp
G1 X45 Y173 F11520 ; move above wiper pad
G1 Z0 F1200 ; push nozzle into wiper
G1 X42 Y173 Z-.5 F4000 ; wiping
G1 X52 Y171 Z-.5 F4000 ; wiping
G1 X42 Y173 Z0 F4000 ; wiping
G1 X52 Y171 F4000 ; wiping
G1 X42 Y173 F4000 ; wiping
G1 X52 Y171 F4000 ; wiping
G1 X42 Y173 F4000 ; wiping
G1 X52 Y171 F4000 ; wiping
G1 X57 Y173 F4000 ; wiping
G1 X77 Y171 F4000 ; wiping
G1 X57 Y173 F4000 ; wiping
G1 X77 Y171 F4000 ; wiping
G1 X57 Y173 F4000 ; wiping
G1 X87 Y171 F4000 ; wiping
G1 X77 Y173 F4000 ; wiping
G1 X97 Y171 F4000 ; wiping
G1 X77 Y173 F4000 ; wiping
G1 X97 Y171 F4000 ; wiping
G1 X77 Y173 F4000 ; wiping
G1 X97 Y171 F4000 ; wiping
G1 X107 Y173 F4000 ; wiping
G1 X97 Y171 F4000 ; wiping
G1 X107 Y173 F4000 ; wiping
G1 X97 Y171 F4000 ; wiping
G1 X107 Y173 F4000 ; wiping
G1 X112 Y171 Z-0.5 F1000 ; wiping
G1 Z10 ; raise extruder
G28 X0 Y0 ; home X and Y
G0 X0 Y187 F200 ; move away from endstops
M109 R170 ; wait for extruder to reach probe temp
M204 S300 ; set probing acceleration
G29 ; start auto-leveling sequence
M204 S2000 ; restore standard acceleration
G28 X0 Y0 ; re-home to account for build variance of earlier mini builds
G0 X0 Y187 F200 ; move away from endstops
G0 Y152 F4000 ; move in front of wiper pad
G4 S1 ; pause
M400 ; wait for moves to finish
M117 Heating... ; progress indicator message on LCD
M109 R245 ; wait for extruder to reach printing temp
M190 S116 ; wait for bed to reach printing temp
G1 Z2 E0 F75 ; prime tiny bit of filament into the nozzle
M117 Mini Printing... ; progress indicator message on LCD


M221 S100
;LAYER_COUNT:26
;LAYER:0
M107
M204 S1000
M205 X10
G0 F2250 X39.714 Y6.379 Z0.42
;TYPE:SKIRT
G1 F900 X39.777 Y6.13 E0.01015
G1 X40.323 Y4.615 E0.07376
G1 X40.48 Y4.311 E0.08728
G1 X41.194 Y3.289 E0.13652
G1 X41.433 Y3.031 E0.15042
G1 X42.502 Y2.149 E0.20516
G1 X42.828 Y1.952 E0.22021
G1 X44.248 Y1.359 E0.281
G1 X44.575 Y1.271 E0.29437
G1 X45.782 Y1.108 E0.34248
G1 X46.011 Y1.097 E0.35154
G1 X50.461 Y1.284 E0.52748
G1 X56.047 Y1.251 E0.74814
G1 X59.599 Y1.085 E0.88861
G1 X59.66 Y1.084 E0.89102
G1 X85.293 Y1.09 E1.90358
G1 X85.367 Y1.092 E1.9065
G1 X88.429 Y1.267 E2.02765
G1 X94.022 Y1.346 E2.24861
G1 X99.251 Y1.131 E2.45534
G1 X99.347 Y1.131 E2.45914
G1 X103.41 Y1.265 E2.61972
G1 X109.028 Y1.307 E2.84165
G1 X114.232 Y1.085 E3.04741
G1 X114.289 Y1.084 E3.04966
G1 X140.334 Y1.134 E4.07849
G1 X140.515 Y1.147 E4.08566
G1 X141.365 Y1.268 E4.11958
G1 X141.674 Y1.352 E4.13223
G1 X142.885 Y1.847 E4.18391
G1 X143.179 Y2.014 E4.19726
G1 X144.208 Y2.795 E4.24829
G1 X144.449 Y3.034 E4.2617
G1 X145.257 Y4.076 E4.31379
G1 X145.429 Y4.37 E4.32724
G1 X145.926 Y5.555 E4.378
G1 X146.019 Y5.914 E4.39265
G1 X146.21 Y7.628 E4.46078
G1 X146.218 Y7.776 E4.46663
G1 X146.185 Y19.722 E4.93853
G1 X146.173 Y19.896 E4.94542
G1 X146.031 Y20.921 E4.98629
G1 X145.946 Y21.236 E4.99918
G1 X145.442 Y22.466 E5.05169
G1 X145.311 Y22.708 E5.06256
G1 X142.813 Y26.352 E5.23708
G1 X139.873 Y31.137 E5.45893
G1 X137.228 Y36.042 E5.67906
G1 X134.86 Y41.098 E5.8996
G1 X133.792 Y43.65 E6.00888
G1 X133.789 Y43.662 E6.00937
G1 X131.853 Y48.916 E6.23056
G1 X130.335 Y53.748 E6.43063
G1 X128.855 Y59.13 E6.65112
G1 X127.678 Y64.603 E6.87226
G1 X127.107 Y68.014 E7.00888
G1 X115.201 Y147.62 E10.18846
G1 X115.139 Y147.866 E10.19848
G1 X114.601 Y149.368 E10.26151
G1 X114.444 Y149.672 E10.27502
G1 X113.727 Y150.703 E10.32463
G1 X113.462 Y150.984 E10.33989
G1 X112.232 Y151.949 E10.40164
G1 X111.947 Y152.119 E10.41475
G1 X110.813 Y152.611 E10.46358
G1 X110.475 Y152.706 E10.47745
G1 X109.129 Y152.893 E10.53113
G1 X108.902 Y152.904 E10.54011
G1 X102.746 Y152.675 E10.78345
G1 X99.969 Y152.689 E10.89315
G1 X94.578 Y152.915 E11.1063
G1 X94.524 Y152.916 E11.10843
G1 X68.884 Y152.91 E12.12127
G1 X68.81 Y152.908 E12.12419
G1 X65.737 Y152.732 E12.24578
G1 X60.144 Y152.655 E12.46674
G1 X54.952 Y152.868 E12.672
G1 X54.87 Y152.869 E12.67524
G1 X47.04 Y152.694 E12.98462
G1 X40.798 Y152.914 E13.23135
G1 X40.75 Y152.915 E13.23324
G1 X14.705 Y152.881 E14.26208
G1 X14.527 Y152.869 E14.26913
G1 X13.553 Y152.733 E14.30797
G1 X13.241 Y152.648 E14.32075
G1 X12.029 Y152.152 E14.37248
G1 X11.735 Y151.985 E14.38584
G1 X10.706 Y151.204 E14.43687
G1 X10.465 Y150.964 E14.4503
G1 X9.658 Y149.923 E14.50233
G1 X9.486 Y149.63 E14.51575
G1 X8.989 Y148.445 E14.56651
G1 X8.897 Y148.096 E14.58077
G1 X8.707 Y146.506 E14.64403
G1 X8.698 Y146.351 E14.65016
G1 X8.71 Y134.485 E15.11889
G1 X8.721 Y134.316 E15.12558
G1 X8.883 Y133.087 E15.17455
G1 X8.969 Y132.764 E15.18775
G1 X9.476 Y131.527 E15.24056
G1 X9.597 Y131.3 E15.25072
G1 X13.612 Y125.269 E15.53693
G1 X16.392 Y120.443 E15.75693
G1 X18.908 Y115.444 E15.978
G1 X21.124 Y110.344 E16.19766
G1 X21.126 Y110.338 E16.19791
G1 X23.062 Y105.084 E16.4191
G1 X24.58 Y100.252 E16.61917
G1 X26.06 Y94.87 E16.83966
G1 X27.237 Y89.397 E17.0608
G1 X27.808 Y85.986 E17.19742
G1 X39.641 Y6.868 E20.35751
G0 F810 X39.714 Y6.379
G1 F420 E19.35751
G0 F2250 X40.324 Y6.526
G0 X42.169 Y6.802
;TYPE:WALL-INNER
G1 F420 E20.37706
G1 F900 X42.533 Y5.728 E20.40693
G1 X43.137 Y4.854 E20.43491
G1 X43.963 Y4.172 E20.46311
G1 X44.948 Y3.737 E20.49147
G1 X46.044 Y3.586 E20.52061
G1 X51.241 Y3.949 E20.6578
G1 X51.564 Y4.031 E20.66658
G1 X51.784 Y4.166 E20.67338
G1 X51.962 Y4.364 E20.68039
G1 X52.072 Y4.598 E20.6872
G1 X52.12 Y4.922 E20.69582
G1 X51.946 Y8.892 E20.80047
G1 X51.909 Y9.156 E20.80749
G1 X51.837 Y9.32 E20.81221
G1 X51.722 Y9.461 E20.817
G1 X51.582 Y9.559 E20.8215
G1 X51.406 Y9.621 E20.82641
G1 X51.119 Y9.64 E20.83399
G1 X47.866 Y9.609 E20.91966
G1 X40.737 Y130.509 E24.10906
G1 X40.725 Y130.72 E24.11463
G1 X40.936 Y130.72 E24.11817
G1 X40.937 Y130.72 E24.11819
G1 X43.922 Y130.72 E24.1968
G1 X44.197 Y130.757 E24.20411
G1 X44.392 Y130.837 E24.20966
G1 X44.555 Y130.962 E24.21507
G1 X44.682 Y131.127 E24.22055
G1 X44.759 Y131.315 E24.2259
G1 X44.797 Y131.596 E24.23337
G1 X44.797 Y146.538 E24.62686
G1 X44.656 Y147.601 E24.6551
G1 X44.278 Y148.515 E24.68115
G1 X43.674 Y149.302 E24.70728
G1 X42.894 Y149.9 E24.73316
G1 X41.977 Y150.28 E24.7593
G1 X40.947 Y150.416 E24.78666
G1 X15.077 Y150.42 E25.46794
G1 X14.016 Y150.28 E25.49612
G1 X13.1 Y149.901 E25.52223
G1 X12.317 Y149.3 E25.54822
G1 X11.716 Y148.517 E25.57422
G1 X11.337 Y147.601 E25.60032
G1 X11.197 Y146.54 E25.62851
G1 X11.197 Y134.6 E25.94294
G1 X11.337 Y133.539 E25.97113
G1 X11.716 Y132.623 E25.99723
G1 X12.317 Y131.84 E26.02323
G1 X13.1 Y131.239 E26.04922
G1 X14.016 Y130.86 E26.07533
G1 X15.077 Y130.72 E26.10351
G1 X17.885 Y130.72 E26.17746
G1 X29.17 Y93.785 E27.19452
G1 X42.06 Y7.535 E29.49112
G0 F810 X42.169 Y6.802
G1 F420 E28.49112
G0 F2250 X40.324 Y6.526
G0 X40.313 Y6.828
G0 X40.311 Y6.908
G0 X35.999 Y139.21
G0 X35.996 Y139.29
G0 X35.997 Y139.29
G0 X35.997 Y137.411
G1 F420 E29.51066
G1 F900 X34.951 Y137.542 E29.53842
G1 X33.968 Y137.931 E29.56627
G1 X33.115 Y138.552 E29.59405
G1 X32.444 Y139.365 E29.62181
G1 X31.993 Y140.319 E29.6496
G1 X31.796 Y141.357 E29.67742
G1 X31.862 Y142.408 E29.70516
G1 X32.187 Y143.413 E29.73297
G1 X32.753 Y144.303 E29.76075
G1 X33.522 Y145.026 E29.78855
G1 X34.448 Y145.534 E29.81636
G1 X35.47 Y145.796 E29.84414
G1 X36.525 Y145.796 E29.87193
G1 X37.545 Y145.534 E29.89966
G1 X38.471 Y145.026 E29.92748
G1 X39.24 Y144.303 E29.95527
G1 X39.806 Y143.413 E29.98305
G1 X40.131 Y142.41 E30.01081
G1 X40.198 Y141.357 E30.0386
G1 X40 Y140.319 E30.06643
G1 X39.55 Y139.365 E30.09421
G1 X38.878 Y138.552 E30.12198
G1 X38.025 Y137.931 E30.14977
G1 X37.043 Y137.542 E30.17759
G1 X36.733 Y137.503 E30.18581
G0 F810 X35.997 Y137.411
G1 F420 E29.18581
G0 F2250 X35.997 Y139.29
G0 X35.358 Y139.354
G0 X35.278 Y139.363
G0 X20.291 Y140.892
G0 X20.212 Y140.9
G0 X20.213 Y140.901
G0 X22 Y140.319
G1 F420 E30.20535
G1 F900 X21.55 Y139.365 E30.23313
G1 X20.878 Y138.552 E30.26091
G1 X20.025 Y137.931 E30.2887
G1 X19.043 Y137.542 E30.31651
G1 X17.997 Y137.411 E30.34427
G1 X16.951 Y137.542 E30.37203
G1 X15.968 Y137.931 E30.39988
G1 X15.115 Y138.552 E30.42766
G1 X14.444 Y139.365 E30.45542
G1 X13.993 Y140.319 E30.48321
G1 X13.796 Y141.357 E30.51103
G1 X13.862 Y142.408 E30.53877
G1 X14.187 Y143.413 E30.56658
G1 X14.753 Y144.303 E30.59436
G1 X15.522 Y145.026 E30.62216
G1 X16.448 Y145.534 E30.64997
G1 X17.47 Y145.796 E30.67775
G1 X18.525 Y145.796 E30.70554
G1 X19.545 Y145.534 E30.73327
G1 X20.471 Y145.026 E30.76109
G1 X21.24 Y144.303 E30.78888
G1 X21.806 Y143.413 E30.81666
G1 X22.131 Y142.41 E30.84442
G1 X22.198 Y141.357 E30.87221
G1 X22.139 Y141.048 E30.8805
G0 F810 X22 Y140.319
G0 F2250 X21.617 Y140.444
G1 F420 E30.90004
G1 F900 X21.21 Y139.581 E30.92516
G1 X20.602 Y138.846 E30.95028
G1 X19.831 Y138.284 E30.97541
G1 X18.943 Y137.933 E31.00055
G1 X17.997 Y137.814 E31.02566
G1 X17.051 Y137.933 E31.05077
G1 X16.162 Y138.284 E31.07594
G1 X15.391 Y138.846 E31.10107
G1 X14.784 Y139.581 E31.12617
G1 X14.376 Y140.444 E31.15131
G1 X14.198 Y141.382 E31.17645
G1 X14.258 Y142.333 E31.20155
G1 X14.552 Y143.241 E31.22668
G1 X15.064 Y144.046 E31.25181
G1 X15.759 Y144.7 E31.27694
G1 X16.596 Y145.159 E31.30208
G1 X17.52 Y145.396 E31.3272
G1 X18.474 Y145.396 E31.35232
G1 X19.397 Y145.159 E31.37742
G1 X20.234 Y144.7 E31.40256
G1 X20.929 Y144.046 E31.42769
G1 X21.441 Y143.241 E31.45281
G1 X21.735 Y142.334 E31.47792
G1 X21.796 Y141.382 E31.50304
G1 X21.756 Y141.173 E31.50865
G0 F810 X21.617 Y140.444
G1 F420 E30.50865
G0 F2250 X20.213 Y140.901
G0 X20.214 Y140.9
G0 X20.294 Y140.903
G0 X33.591 Y141.468
G0 X33.671 Y141.471
G0 X33.671 Y141.472
G0 X32.198 Y141.382
G1 F420 E31.52819
G1 F900 X32.258 Y142.333 E31.55328
G1 X32.552 Y143.241 E31.57842
G1 X33.064 Y144.046 E31.60354
G1 X33.759 Y144.7 E31.62867
G1 X34.596 Y145.159 E31.65381
G1 X35.52 Y145.396 E31.67893
G1 X36.474 Y145.396 E31.70406
G1 X37.397 Y145.159 E31.72915
G1 X38.234 Y144.7 E31.75429
G1 X38.929 Y144.046 E31.77942
G1 X39.441 Y143.241 E31.80455
G1 X39.735 Y142.334 E31.82966
G1 X39.796 Y141.382 E31.85478
G1 X39.617 Y140.444 E31.87993
G1 X39.21 Y139.581 E31.90505
G1 X38.602 Y138.846 E31.93017
G1 X37.831 Y138.284 E31.9553
G1 X36.943 Y137.933 E31.98045
G1 X35.997 Y137.814 E32.00555
G1 X35.051 Y137.933 E32.03066
G1 X34.162 Y138.284 E32.05583
G1 X33.391 Y138.846 E32.08096
G1 X32.784 Y139.581 E32.10606
G1 X32.376 Y140.444 E32.1312
G1 X32.336 Y140.653 E32.13681
G0 F810 X32.198 Y141.382
G1 F420 E31.13681
G0 F2250 X33.671 Y141.472
G0 X35.266 Y143.831
G0 X35.311 Y143.897
G0 X40.927 Y152.206
G0 X40.972 Y152.273
G0 X40.977 Y152.281
G0 X40.976 Y150.816
G1 F420 E32.15635
G1 F900 X15.048 Y150.82 E32.83915
G1 X13.912 Y150.67 E32.86933
G1 X12.899 Y150.251 E32.8982
G1 X12.032 Y149.585 E32.92699
G1 X11.366 Y148.718 E32.95578
G1 X10.947 Y147.705 E32.98465
G1 X10.797 Y146.569 E33.01483
G1 X10.797 Y134.571 E33.33079
G1 X10.947 Y133.435 E33.36097
G1 X11.366 Y132.422 E33.38984
G1 X12.032 Y131.555 E33.41863
G1 X12.899 Y130.889 E33.44742
G1 X13.912 Y130.47 E33.47629
G1 X15.048 Y130.32 E33.50646
G1 X17.589 Y130.32 E33.57338
G1 X28.779 Y93.697 E34.58185
G1 X41.778 Y6.707 E36.89815
G1 X42.171 Y5.549 E36.93036
G1 X42.84 Y4.581 E36.96134
G1 X43.751 Y3.828 E36.99247
G1 X44.838 Y3.349 E37.02375
G1 X46.031 Y3.184 E37.05547
G1 X51.307 Y3.553 E37.19475
G1 X51.72 Y3.658 E37.20597
G1 X52.042 Y3.854 E37.2159
G1 X52.299 Y4.14 E37.22603
G1 X52.46 Y4.482 E37.23598
G1 X52.522 Y4.901 E37.24713
G1 X52.345 Y8.922 E37.35313
G1 X52.297 Y9.266 E37.36228
G1 X52.182 Y9.531 E37.36988
G1 X51.998 Y9.756 E37.37754
G1 X51.767 Y9.918 E37.38497
G1 X51.487 Y10.017 E37.39279
G1 X51.127 Y10.04 E37.40229
G1 X48.243 Y10.013 E37.47824
G1 X41.161 Y130.109 E40.64644
G1 X41.149 Y130.32 E40.652
G1 X41.36 Y130.32 E40.65554
G1 X41.361 Y130.32 E40.65557
G1 X43.945 Y130.32 E40.72361
G1 X44.305 Y130.368 E40.73318
G1 X44.593 Y130.487 E40.74138
G1 X44.84 Y130.677 E40.74959
G1 X45.031 Y130.925 E40.75783
G1 X45.148 Y131.209 E40.76592
G1 X45.197 Y131.573 E40.7756
G1 X45.197 Y146.568 E41.17049
G1 X45.046 Y147.705 E41.20069
G1 X44.628 Y148.716 E41.2295
G1 X43.961 Y149.585 E41.25835
G1 X43.093 Y150.251 E41.28716
G1 X42.082 Y150.67 E41.31598
G1 X41.712 Y150.719 E41.32581
G0 F810 X40.976 Y150.816
G1 F420 E40.32581
G0 F2250 X40.977 Y152.281
G0 X14.954 Y152.284
G0 X13.53 Y152.097
G0 X12.163 Y151.53
G0 X10.987 Y150.63
G0 X10.087 Y149.454
G0 X9.52 Y148.087
G0 X9.333 Y146.663
G0 X9.333 Y134.477
G0 X9.52 Y133.053
G0 X10.087 Y131.686
G0 X27.347 Y93.37
G0 X28.29 Y93.586
;TYPE:WALL-OUTER
G1 F420 E41.34535
G1 F900 X41.29 Y6.588 E44.82012
G1 X41.718 Y5.326 E44.87276
G1 X42.469 Y4.238 E44.92498
G1 X43.486 Y3.398 E44.97709
G1 X44.699 Y2.864 E45.02944
G1 X46.016 Y2.681 E45.08197
G1 X51.384 Y3.057 E45.29453
G1 X51.917 Y3.193 E45.31626
G1 X52.366 Y3.466 E45.33702
G1 X52.72 Y3.859 E45.35791
G1 X52.944 Y4.337 E45.37877
G1 X53.024 Y4.875 E45.40025
G1 X52.844 Y8.958 E45.5617
G1 X52.783 Y9.401 E45.57936
G1 X52.612 Y9.794 E45.59629
G1 X52.342 Y10.125 E45.61316
G1 X51.996 Y10.368 E45.62987
G1 X51.589 Y10.511 E45.64691
G1 X51.141 Y10.54 E45.66464
G1 X48.714 Y10.517 E45.76052
G1 X41.697 Y129.503 E50.46889
G1 X41.679 Y129.82 E50.48143
G1 X41.996 Y129.82 E50.4894
G1 X41.997 Y129.82 E50.48944
G1 X43.981 Y129.82 E50.56781
G1 X44.434 Y129.88 E50.58586
G1 X44.845 Y130.05 E50.60343
G1 X45.197 Y130.32 E50.62096
G1 X45.468 Y130.673 E50.63854
G1 X45.636 Y131.08 E50.65593
G1 X45.697 Y131.537 E50.67414
G1 X45.697 Y146.604 E51.26932
G1 X45.534 Y147.834 E51.31833
G1 X45.065 Y148.968 E51.36681
G1 X44.318 Y149.942 E51.4153
G1 X43.345 Y150.688 E51.46373
G1 X42.211 Y151.158 E51.51222
G1 X41.011 Y151.316 E51.56003
G1 X15.013 Y151.32 E52.58701
G1 X13.783 Y151.158 E52.63602
G1 X12.647 Y150.688 E52.68458
G1 X11.675 Y149.942 E52.73298
G1 X10.929 Y148.97 E52.78138
G1 X10.459 Y147.834 E52.82994
G1 X10.297 Y146.604 E52.87895
G1 X10.297 Y134.536 E53.35566
G1 X10.459 Y133.306 E53.40467
G1 X10.929 Y132.17 E53.45323
G1 X11.675 Y131.198 E53.50164
G1 X12.647 Y130.452 E53.55004
G1 X13.783 Y129.982 E53.5986
G1 X15.013 Y129.82 E53.64761
G1 X17.219 Y129.82 E53.73475
G1 X28.146 Y94.059 E55.21186
G0 F810 X28.29 Y93.586
G0 F2250 X28.326 Y93.339
G1 F420 E54.21186
G0 F2250 X27.347 Y93.37
G0 X27.355 Y93.41
G0 X27.371 Y93.489
G0 X37.097 Y139.491
G0 X37.114 Y139.569
G0 X37.116 Y139.577
G0 X37.588 Y138.726
G1 F420 E55.23141
G1 F900 X36.818 Y138.421 E55.26413
G1 X35.997 Y138.318 E55.29682
G1 X35.176 Y138.421 E55.3295
G1 X34.405 Y138.726 E55.36225
G1 X33.736 Y139.213 E55.39494
G1 X33.209 Y139.851 E55.42763
G1 X32.855 Y140.6 E55.46035
G1 X32.701 Y141.413 E55.49304
G1 X32.753 Y142.239 E55.52573
G1 X33.008 Y143.026 E55.55841
G1 X33.452 Y143.725 E55.59113
G1 X34.055 Y144.292 E55.62382
G1 X34.781 Y144.69 E55.65653
G1 X35.583 Y144.896 E55.68924
G1 X36.411 Y144.896 E55.72194
G1 X37.212 Y144.69 E55.75461
G1 X37.938 Y144.292 E55.78732
G1 X38.541 Y143.725 E55.82002
G1 X38.985 Y143.026 E55.85273
G1 X39.24 Y142.239 E55.88541
G1 X39.293 Y141.413 E55.9181
G1 X39.138 Y140.6 E55.9508
G1 X38.785 Y139.851 E55.9835
G1 X38.257 Y139.213 E56.01622
G1 X37.988 Y139.017 E56.02937
G0 F810 X37.588 Y138.726
G0 F2250 X37.356 Y138.634
G1 F420 E55.02937
G0 F2250 X36.577 Y139.362
G0 X35.234 Y139.405
G0 X35.154 Y139.408
G0 X19.685 Y139.921
G0 X19.605 Y139.924
G0 X19.596 Y139.925
G0 X20.257 Y139.213
G1 F420 E56.04892
G1 F900 X19.588 Y138.726 E56.08161
G1 X18.818 Y138.421 E56.11432
G1 X17.997 Y138.318 E56.14701
G1 X17.176 Y138.421 E56.17969
G1 X16.405 Y138.726 E56.21245
G1 X15.736 Y139.213 E56.24513
G1 X15.209 Y139.851 E56.27782
G1 X14.855 Y140.6 E56.31055
G1 X14.701 Y141.413 E56.34323
