;Generated by Cura LulzBot Edition GCodeWriter Version: 2.6.69
;FLAVOR:RepRap
;TIME:4622
;Filament used: 1.8554m
;Layer height: 0.378
;Generated with Cura_SteamEngine 2.6.69
;This G-Code has been generated specifically for the LulzBot Mini with Aerostruder
G26 ; clear potential 'probe fail' condition
G21 ; set units to Millimetres
M107 ; disable fans
G90 ; absolute positioning
M82 ; set extruder to absolute mode
G92 E0 ; set extruder position to 0
M140 S115 ; start bed heating up
G28 ; home all axes
G0 X0 Y187 Z156 F200 ; move away from endstops
M109 R170 ; soften filament before retraction
G1 E-15 F75 ; retract filament
M109 R170 ; wait for extruder to reach wiping temp
G1 X45 Y173 F11520 ; move above wiper pad
G1 Z0 F1200 ; push nozzle into wiper
G1 X42 Y173 Z-.5 F4000 ; wiping
G1 X52 Y171 Z-.5 F4000 ; wiping
G1 X42 Y173 Z0 F4000 ; wiping
G1 X52 Y171 F4000 ; wiping
G1 X42 Y173 F4000 ; wiping
G1 X52 Y171 F4000 ; wiping
G1 X42 Y173 F4000 ; wiping
G1 X52 Y171 F4000 ; wiping
G1 X57 Y173 F4000 ; wiping
G1 X77 Y171 F4000 ; wiping
G1 X57 Y173 F4000 ; wiping
G1 X77 Y171 F4000 ; wiping
G1 X57 Y173 F4000 ; wiping
G1 X87 Y171 F4000 ; wiping
G1 X77 Y173 F4000 ; wiping
G1 X97 Y171 F4000 ; wiping
G1 X77 Y173 F4000 ; wiping
G1 X97 Y171 F4000 ; wiping
G1 X77 Y173 F4000 ; wiping
G1 X97 Y171 F4000 ; wiping
G1 X107 Y173 F4000 ; wiping
G1 X97 Y171 F4000 ; wiping
G1 X107 Y173 F4000 ; wiping
G1 X97 Y171 F4000 ; wiping
G1 X107 Y173 F4000 ; wiping
G1 X112 Y171 Z-0.5 F1000 ; wiping
G1 Z10 ; raise extruder
G28 X0 Y0 ; home X and Y
G0 X0 Y187 F200 ; move away from endstops
M109 R170 ; wait for extruder to reach probe temp
M204 S300 ; set probing acceleration
G29 ; start auto-leveling sequence
M204 S2000 ; restore standard acceleration
G28 X0 Y0 ; re-home to account for build variance of earlier mini builds
G0 X0 Y187 F200 ; move away from endstops
G0 Y152 F4000 ; move in front of wiper pad
G4 S1 ; pause
M400 ; wait for moves to finish
M117 Heating... ; progress indicator message on LCD
M109 R245 ; wait for extruder to reach printing temp
M190 S116 ; wait for bed to reach printing temp
G1 Z2 E0 F75 ; prime tiny bit of filament into the nozzle
M117 Mini Printing... ; progress indicator message on LCD


M221 S100
;LAYER_COUNT:28
;LAYER:0
M107
M204 S800
M205 X2
G0 F2250 X64.202 Y22.302 Z0.42
G0 X64.039 Y22.789
;TYPE:SKIRT
G1 F900 X64.202 Y22.302 E0.02029
G1 X64.529 Y21.711 E0.04697
G1 X64.819 Y21.293 E0.06706
G1 X65.143 Y20.895 E0.08734
G1 X65.375 Y20.675 E0.09997
G1 X65.746 Y20.355 E0.11932
G1 X66.159 Y20.051 E0.13958
G1 X66.448 Y19.891 E0.15263
G1 X66.925 Y19.657 E0.17361
G1 X67.402 Y19.468 E0.19388
G1 X67.935 Y19.35 E0.21545
G1 X68.814 Y19.231 E0.25049
G1 X69.257 Y19.201 E0.26803
G1 X84.293 Y19.2 E0.86198
G1 X84.496 Y19.206 E0.87
G1 X85.694 Y19.28 E0.91742
G1 X86.203 Y19.352 E0.93772
G1 X86.703 Y19.505 E0.95838
G1 X87.136 Y19.676 E0.97677
G1 X87.598 Y19.901 E0.99707
G1 X87.846 Y20.062 E1.00875
G1 X88.315 Y20.398 E1.03154
G1 X88.708 Y20.729 E1.05183
G1 X88.994 Y21.05 E1.06882
G1 X89.3 Y21.442 E1.08846
G1 X89.584 Y21.87 E1.10875
G1 X89.725 Y22.156 E1.12135
G1 X89.933 Y22.634 E1.14194
G1 X90.101 Y23.12 E1.16225
G1 X90.17 Y23.457 E1.17584
G1 X90.253 Y24.005 E1.19774
G1 X90.29 Y24.499 E1.2173
G1 X90.29 Y129.49 E5.36468
G1 X90.26 Y129.932 E5.38218
G1 X90.191 Y130.443 E5.40255
G1 X90.083 Y130.945 E5.42283
G1 X89.983 Y131.232 E5.43483
G1 X89.79 Y131.712 E5.45527
G1 X89.562 Y132.172 E5.47555
G1 X89.354 Y132.48 E5.49023
G1 X89.029 Y132.907 E5.51143
G1 X88.687 Y133.29 E5.53171
G1 X88.421 Y133.519 E5.54558
G1 X88.034 Y133.818 E5.5649
G1 X87.604 Y134.1 E5.58521
G1 X87.321 Y134.238 E5.59765
G1 X86.838 Y134.446 E5.61842
G1 X86.352 Y134.612 E5.63871
G1 X85.887 Y134.696 E5.65737
G1 X85.117 Y134.779 E5.68797
G1 X84.761 Y134.798 E5.70205
G1 X68.964 Y134.787 E6.32607
G1 X68.524 Y134.757 E6.34349
G1 X68.073 Y134.696 E6.36146
G1 X67.571 Y134.588 E6.38175
G1 X67.296 Y134.493 E6.39324
G1 X66.808 Y134.299 E6.41399
G1 X66.347 Y134.072 E6.43428
G1 X66.052 Y133.876 E6.44828
G1 X65.633 Y133.563 E6.46893
G1 X65.247 Y133.224 E6.48923
G1 X65.007 Y132.95 E6.50362
G1 X64.69 Y132.544 E6.52396
G1 X64.406 Y132.116 E6.54425
G1 X64.26 Y131.818 E6.55736
G1 X64.058 Y131.349 E6.57753
G1 X63.892 Y130.863 E6.59782
G1 X63.808 Y130.395 E6.6166
G1 X63.72 Y129.572 E6.6493
G1 X63.701 Y129.221 E6.66319
G1 X63.71 Y24.509 E10.79954
G1 X63.75 Y23.997 E10.81982
G1 X63.809 Y23.706 E10.83155
G1 X63.919 Y23.269 E10.84935
G0 F810 X64.039 Y22.789
G1 F420 E9.84935
G0 F2250 X66.346 Y24.375
G0 X67.619 Y24.541
G0 X68.33 Y25.83
G0 X68.4 Y25.9
;TYPE:WALL-INNER
G1 F420 E10.86891
G1 F900 X68.4 Y31.1 E11.00585
G1 X85.6 Y31.1 E11.45881
G1 X85.6 Y30.1 E11.48514
G1 X86.375 Y30.1 E11.50555
G1 X86.4 Y30.1 E11.50621
G1 X86.4 Y30.455 E11.51556
G1 X86.397 Y30.479 E11.51617
G1 X86.343 Y30.869 E11.52654
G1 X86.203 Y31.205 E11.53612
G1 X85.983 Y31.488 E11.54556
G1 X85.693 Y31.711 E11.5552
G1 X85.361 Y31.847 E11.56464
G1 X84.96 Y31.9 E11.5753
G1 X69.04 Y31.9 E11.99455
G1 X68.636 Y31.847 E12.00528
G1 X68.304 Y31.709 E12.01474
G1 X68.013 Y31.487 E12.02438
G1 X67.791 Y31.196 E12.03402
G1 X67.653 Y30.864 E12.04349
G1 X67.6 Y30.46 E12.05422
G1 X67.6 Y24.54 E12.21012
G1 X67.653 Y24.136 E12.22085
G1 X67.791 Y23.804 E12.23032
G1 X68.013 Y23.513 E12.23996
G1 X68.304 Y23.291 E12.2496
G1 X68.636 Y23.153 E12.25907
G1 X69.04 Y23.1 E12.2698
G1 X84.963 Y23.1 E12.68913
G1 X85.348 Y23.149 E12.69935
G1 X85.706 Y23.298 E12.70956
G1 X85.98 Y23.508 E12.71865
G1 X86.201 Y23.794 E12.72817
G1 X86.349 Y24.149 E12.7383
G1 X86.4 Y24.539 E12.74866
G1 X86.4 Y25.9 E12.7845
G1 X69.142 Y25.9 E13.23898
G0 F810 X68.4 Y25.9
G0 F2250 X68.33 Y25.83
G0 X67.749 Y24.161
G0 X67.311 Y24.046
;TYPE:WALL-OUTER
G1 F420 E13.25852
G1 F900 X67.485 Y23.626 E13.2705
G1 X67.763 Y23.263 E13.28254
G1 X68.126 Y22.985 E13.29458
G1 X68.546 Y22.811 E13.30655
G1 X69.017 Y22.749 E13.31906
G1 X84.985 Y22.749 E13.73957
G1 X85.438 Y22.807 E13.7516
G1 X85.884 Y22.992 E13.76432
G1 X86.232 Y23.259 E13.77587
G1 X86.507 Y23.615 E13.78771
G1 X86.691 Y24.057 E13.80032
G1 X86.751 Y24.517 E13.81254
G1 X86.751 Y26.251 E13.8582
G1 X68.751 Y26.251 E14.33223
G1 X68.751 Y30.749 E14.45068
G1 X85.249 Y30.749 E14.88515
G1 X85.249 Y29.749 E14.91149
G1 X86.751 Y29.749 E14.95104
G1 X86.751 Y30.481 E14.97032
G1 X86.685 Y30.963 E14.98313
G1 X86.51 Y31.381 E14.99507
G1 X86.232 Y31.739 E15.007
G1 X85.869 Y32.018 E15.01906
G1 X85.453 Y32.189 E15.03091
G1 X84.983 Y32.251 E15.04339
G1 X69.017 Y32.251 E15.46385
G1 X68.546 Y32.189 E15.47636
G1 X68.126 Y32.015 E15.48833
G1 X67.763 Y31.737 E15.50037
G1 X67.485 Y31.374 E15.51242
G1 X67.311 Y30.954 E15.52439
G1 X67.249 Y30.483 E15.5369
G1 X67.249 Y24.784 E15.68698
G0 F810 X67.249 Y24.517
G0 X67.311 Y24.046
G0 F2250 X67.406 Y23.815
G0 X67.764 Y24
;TYPE:SKIN
G1 F420 E15.70652
G1 F900 X86.233 Y24 E16.43609
G1 X86.333 Y24
G0 F2250 X86.35 Y24.6
G1 F900 X67.65 Y24.6 E17.17478
G1 X67.55 Y24.6
G0 F2250 X67.65 Y25.2
G1 F900 X86.35 Y25.2 E17.91347
G1 X86.45 Y25.2
G0 F2250 X86.35 Y25.8
G1 F900 X67.65 Y25.8 E18.65216
G1 X67.55 Y25.8
G0 F2250 X67.65 Y26.4
G1 F900 X68.35 Y26.4 E18.67981
G0 F2250 X68.35 Y27
G1 F900 X67.65 Y27 E18.70746
G0 F2250 X67.65 Y27.6
G1 F900 X68.35 Y27.6 E18.73511
G0 F2250 X68.35 Y28.2
G1 F900 X67.65 Y28.2 E18.76276
G0 F2250 X67.65 Y28.8
G1 F900 X68.35 Y28.8 E18.79042
G0 F2250 X68.35 Y29.4
G1 F900 X67.65 Y29.4 E18.81807
G0 F2250 X67.65 Y30
G1 F900 X68.35 Y30 E18.84572
G0 F2250 X68.35 Y30.6
G1 F900 X67.668 Y30.6 E18.87266
G0 F2250 X67.857 Y31.2
G1 F900 X86.142 Y31.2 E19.59496
G1 X86.242 Y31.2
G0 F2250 X86.329 Y30.6
G1 F900 X85.65 Y30.6 E19.62178
G0 F2250 X85.7 Y30.6
G0 X85.628 Y31.128
G0 X85.326 Y31.751
G0 X85.331 Y31.8
G1 F900 X68.667 Y31.8 E20.28004
G1 X68.567 Y31.8
G0 F2250 X68.6 Y31.724
G0 X68.372 Y31.128
G0 X68.272 Y23.44
G0 X68.243 Y23.4
G1 F900 X85.758 Y23.4 E20.97192
G1 X85.858 Y23.4
G0 F2250 X85.606 Y23.725
G1 F420 E19.97192
G0 F2250 X68.372 Y25.872
G0 X68.372 Y31.128
G0 X84.959 Y31.881
G0 X84.959 Y34.12
G0 X84.957 Y34.199
G0 X84.963 Y34.1
;TYPE:WALL-INNER
G1 F420 E20.97192
G1 F900 X85.348 Y34.149 E20.98214
G1 X85.706 Y34.298 E20.99236
G1 X85.98 Y34.508 E21.00145
G1 X86.201 Y34.794 E21.01097
G1 X86.349 Y35.149 E21.02109
G1 X86.4 Y35.539 E21.03145
G1 X86.4 Y36.9 E21.06729
G1 X68.4 Y36.9 E21.54132
G1 X68.4 Y42.1 E21.67826
G1 X85.6 Y42.1 E22.13122
G1 X85.6 Y41.1 E22.15755
G1 X86.375 Y41.1 E22.17796
G1 X86.4 Y41.1 E22.17862
G1 X86.4 Y41.455 E22.18797
G1 X86.397 Y41.479 E22.18858
G1 X86.343 Y41.869 E22.19895
G1 X86.203 Y42.205 E22.20853
G1 X85.983 Y42.488 E22.21797
G1 X85.693 Y42.711 E22.22761
G1 X85.361 Y42.847 E22.23706
G1 X84.96 Y42.9 E22.24771
G1 X69.04 Y42.9 E22.66696
G1 X68.636 Y42.847 E22.67769
G1 X68.304 Y42.709 E22.68716
G1 X68.013 Y42.487 E22.6968
G1 X67.791 Y42.196 E22.70643
G1 X67.653 Y41.864 E22.7159
G1 X67.6 Y41.46 E22.72663
G1 X67.6 Y35.54 E22.88254
G1 X67.653 Y35.136 E22.89327
G1 X67.791 Y34.804 E22.90273
G1 X68.013 Y34.513 E22.91237
G1 X68.304 Y34.291 E22.92201
G1 X68.636 Y34.153 E22.93148
G1 X69.04 Y34.1 E22.94221
G1 X84.221 Y34.1 E23.342
G0 F810 X84.963 Y34.1
G0 F2250 X84.957 Y34.199
G0 X67.877 Y34.853
G0 X67.485 Y34.626
;TYPE:WALL-OUTER
G1 F420 E23.36154
G1 F900 X67.763 Y34.263 E23.37358
G1 X68.126 Y33.985 E23.38562
G1 X68.546 Y33.811 E23.39759
G1 X69.017 Y33.749 E23.4101
G1 X84.985 Y33.749 E23.83062
G1 X85.438 Y33.807 E23.84264
G1 X85.884 Y33.992 E23.85536
G1 X86.232 Y34.259 E23.86691
G1 X86.507 Y34.615 E23.87876
G1 X86.691 Y35.057 E23.89137
G1 X86.751 Y35.517 E23.90358
G1 X86.751 Y37.251 E23.94925
G1 X68.751 Y37.251 E24.42327
G1 X68.751 Y41.749 E24.54173
G1 X85.249 Y41.749 E24.9762
G1 X85.249 Y40.749 E25.00253
G1 X86.751 Y40.749 E25.04209
G1 X86.751 Y41.481 E25.06137
G1 X86.685 Y41.963 E25.07418
G1 X86.51 Y42.381 E25.08611
G1 X86.232 Y42.739 E25.09805
G1 X85.869 Y43.018 E25.1101
G1 X85.453 Y43.189 E25.12195
G1 X84.983 Y43.251 E25.13443
G1 X69.017 Y43.251 E25.55489
G1 X68.546 Y43.189 E25.56741
G1 X68.126 Y43.015 E25.57938
G1 X67.763 Y42.737 E25.59142
G1 X67.485 Y42.374 E25.60346
G1 X67.311 Y41.954 E25.61543
G1 X67.249 Y41.483 E25.62794
G1 X67.249 Y35.517 E25.78506
G1 X67.274 Y35.331 E25.79
G0 F810 X67.311 Y35.046
G0 X67.485 Y34.626
G0 F2250 X67.637 Y34.428
G0 X67.856 Y34.8
;TYPE:SKIN
G1 F420 E25.80954
G1 F900 X86.144 Y34.8 E26.53195
G1 X86.244 Y34.8
G0 F2250 X86.332 Y35.4
G1 F900 X67.669 Y35.4 E27.26918
G1 X67.569 Y35.4
G0 F2250 X67.65 Y36
G1 F900 X86.35 Y36 E28.00787
G1 X86.45 Y36
G0 F2250 X86.35 Y36.6
G1 F900 X67.65 Y36.6 E28.74656
G1 X67.55 Y36.6
G0 F2250 X67.65 Y37.2
G1 F900 X68.35 Y37.2 E28.77422
G0 F2250 X68.35 Y37.8
G1 F900 X67.65 Y37.8 E28.80187
G0 F2250 X67.65 Y38.4
G1 F900 X68.35 Y38.4 E28.82952
G0 F2250 X68.35 Y39
G1 F900 X67.65 Y39 E28.85717
G0 F2250 X67.65 Y39.6
G1 F900 X68.35 Y39.6 E28.88482
G0 F2250 X68.35 Y40.2
G1 F900 X67.65 Y40.2 E28.91247
G0 F2250 X67.65 Y40.8
G1 F900 X68.35 Y40.8 E28.94012
G0 F2250 X68.35 Y41.4
G1 F900 X67.65 Y41.4 E28.96778
G0 F2250 X67.764 Y42
G1 F900 X68.35 Y42 E28.99092
G0 F2250 X68.244 Y42.6
G1 F900 X85.753 Y42.6 E29.68257
G1 X85.853 Y42.6
G0 F2250 X85.65 Y42
G1 F900 X86.233 Y42 E29.7056
G0 F2250 X86.35 Y41.4
G1 F900 X85.65 Y41.4 E29.73325
G0 F2250 X85.7 Y41.4
G0 X85.628 Y42.128
G0 X68.372 Y42.128
G0 X68.372 Y36.872
G0 X85.322 Y34.246
G0 X85.342 Y34.2
G1 F900 X68.652 Y34.2 E30.39254
G1 X68.552 Y34.2
G0 F2250 X68.701 Y34.559
G1 F420 E29.39254
G0 F2250 X68.372 Y36.872
G0 X68.372 Y42.128
G0 X69.041 Y42.881
G0 X69.041 Y45.12
G0 X69.046 Y45.199
G0 X69.04 Y45.1
;TYPE:WALL-INNER
G1 F420 E30.39254
G1 F900 X84.963 Y45.1 E30.81187
G1 X85.348 Y45.149 E30.82209
G1 X85.706 Y45.298 E30.8323
G1 X85.98 Y45.508 E30.84139
G1 X86.201 Y45.794 E30.85091
G1 X86.349 Y46.149 E30.86104
G1 X86.4 Y46.539 E30.8714
G1 X86.4 Y47.9 E30.90724
G1 X68.4 Y47.9 E31.38127
G1 X68.4 Y53.1 E31.51821
G1 X85.6 Y53.1 E31.97116
G1 X85.6 Y52.1 E31.9975
G1 X86.375 Y52.1 E32.01791
G1 X86.4 Y52.1 E32.01857
G1 X86.4 Y52.455 E32.02792
G1 X86.397 Y52.479 E32.02853
G1 X86.343 Y52.869 E32.03889
G1 X86.203 Y53.205 E32.04848
G1 X85.983 Y53.488 E32.05792
G1 X85.693 Y53.711 E32.06755
G1 X85.361 Y53.847 E32.077
G1 X84.96 Y53.9 E32.08765
G1 X69.04 Y53.9 E32.5069
G1 X68.636 Y53.847 E32.51763
G1 X68.304 Y53.709 E32.5271
G1 X68.013 Y53.487 E32.53674
G1 X67.791 Y53.196 E32.54638
G1 X67.653 Y52.864 E32.55585
G1 X67.6 Y52.46 E32.56658
G1 X67.6 Y46.54 E32.72248
G1 X67.653 Y46.136 E32.73321
G1 X67.791 Y45.804 E32.74268
G1 X68.013 Y45.513 E32.75232
G1 X68.304 Y45.291 E32.76196
G1 X68.327 Y45.281 E32.76262
G0 F810 X68.636 Y45.153
G0 X69.04 Y45.1
G0 F2250 X69.046 Y45.199
G0 X67.877 Y45.853
G0 X67.485 Y45.626
;TYPE:WALL-OUTER
G1 F420 E32.78216
G1 F900 X67.763 Y45.263 E32.7942
G1 X68.126 Y44.985 E32.80624
G1 X68.546 Y44.811 E32.81821
G1 X69.017 Y44.749 E32.83072
G1 X84.985 Y44.749 E33.25124
G1 X85.438 Y44.807 E33.26326
G1 X85.884 Y44.992 E33.27598
G1 X86.232 Y45.259 E33.28753
G1 X86.507 Y45.615 E33.29938
G1 X86.691 Y46.057 E33.31199
G1 X86.751 Y46.517 E33.3242
G1 X86.751 Y48.251 E33.36987
G1 X68.751 Y48.251 E33.84389
G1 X68.751 Y52.749 E33.96235
G1 X85.249 Y52.749 E34.39682
G1 X85.249 Y51.749 E34.42315
G1 X86.751 Y51.749 E34.46271
G1 X86.751 Y52.481 E34.48198
G1 X86.685 Y52.963 E34.4948
G1 X86.51 Y53.381 E34.50673
G1 X86.232 Y53.739 E34.51867
G1 X85.869 Y54.018 E34.53072
G1 X85.453 Y54.189 E34.54257
G1 X84.983 Y54.251 E34.55505
G1 X69.017 Y54.251 E34.97551
G1 X68.546 Y54.189 E34.98802
G1 X68.126 Y54.015 E35
G1 X67.763 Y53.737 E35.01204
G1 X67.485 Y53.374 E35.02408
G1 X67.311 Y52.954 E35.03605
G1 X67.249 Y52.483 E35.04856
G1 X67.249 Y46.517 E35.20568
G1 X67.274 Y46.331 E35.21062
G0 F810 X67.311 Y46.046
G0 X67.485 Y45.626
G0 F2250 X67.637 Y45.428
G0 X68.01 Y45.6
;TYPE:SKIN
G1 F420 E35.23016
G1 F900 X85.99 Y45.6 E35.94041
G1 X86.09 Y45.6
G0 F2250 X86.306 Y46.2
G1 F900 X67.695 Y46.2 E36.67558
G1 X67.595 Y46.2
G0 F2250 X67.65 Y46.8
G1 F900 X86.35 Y46.8 E37.41427
G1 X86.45 Y46.8
G0 F2250 X86.35 Y47.4
G1 F900 X67.65 Y47.4 E38.15296
G1 X67.55 Y47.4
G0 F2250 X67.65 Y48
G1 F900 X68.35 Y48 E38.18061
G0 F2250 X68.35 Y48.6
G1 F900 X67.65 Y48.6 E38.20827
G0 F2250 X67.65 Y49.2
G1 F900 X68.35 Y49.2 E38.23592
G0 F2250 X68.35 Y49.8
G1 F900 X67.65 Y49.8 E38.26357
G0 F2250 X67.65 Y50.4
G1 F900 X68.35 Y50.4 E38.29122
G0 F2250 X68.35 Y51
G1 F900 X67.65 Y51 E38.31887
G0 F2250 X67.65 Y51.6
G1 F900 X68.35 Y51.6 E38.34652
G0 F2250 X68.35 Y52.2
G1 F900 X67.65 Y52.2 E38.37417
G0 F2250 X67.694 Y52.8
G1 F900 X68.35 Y52.8 E38.40009
G0 F2250 X68.01 Y53.4
G1 F900 X85.986 Y53.4 E39.11018
G1 X86.086 Y53.4
G0 F2250 X86.302 Y52.8
G1 F900 X85.65 Y52.8 E39.13593
G0 F2250 X85.65 Y52.2
G1 F900 X86.35 Y52.2 E39.16359
G0 F2250 X86 Y52.5
G1 F420 E38.16359
G0 F2250 X85.628 Y53.128
G0 X84.959 Y53.881
G0 X84.959 Y56.12
G0 X84.957 Y56.199
G0 X84.963 Y56.1
;TYPE:WALL-INNER
G1 F420 E39.16359
G1 F900 X85.348 Y56.149 E39.17381
G1 X85.706 Y56.298 E39.18402
G1 X85.98 Y56.508 E39.19311
G1 X86.201 Y56.794 E39.20263
G1 X86.349 Y57.149 E39.21276
G1 X86.4 Y57.539 E39.22312
G1 X86.4 Y58.9 E39.25896
G1 X68.4 Y58.9 E39.73298
G1 X68.4 Y64.1 E39.86992
G1 X85.6 Y64.1 E40.32288
G1 X85.6 Y63.1 E40.34922
G1 X86.375 Y63.1 E40.36963
G1 X86.4 Y63.1 E40.37028
G1 X86.4 Y63.455 E40.37963
G1 X86.397 Y63.479 E40.38024
G1 X86.343 Y63.869 E40.39061
G1 X86.203 Y64.205 E40.4002
G1 X85.983 Y64.488 E40.40964
G1 X85.693 Y64.711 E40.41927
G1 X85.361 Y64.847 E40.42872
G1 X84.96 Y64.9 E40.43937
G1 X69.04 Y64.9 E40.85862
G1 X68.636 Y64.847 E40.86935
G1 X68.304 Y64.709 E40.87882
G1 X68.013 Y64.487 E40.88846
G1 X67.791 Y64.196 E40.8981
G1 X67.653 Y63.864 E40.90757
G1 X67.6 Y63.46 E40.9183
G1 X67.6 Y57.54 E41.0742
G1 X67.653 Y57.136 E41.08493
G1 X67.791 Y56.804 E41.0944
G1 X68.013 Y56.513 E41.10404
G1 X68.304 Y56.291 E41.11368
G1 X68.636 Y56.153 E41.12314
G1 X69.04 Y56.1 E41.13387
G1 X84.221 Y56.1 E41.53366
G0 F810 X84.963 Y56.1
G0 F2250 X84.957 Y56.199
G0 X68.083 Y56.583
G0 X67.763 Y56.263
;TYPE:WALL-OUTER
G1 F420 E41.5532
G1 F900 X68.126 Y55.985 E41.56524
G1 X68.546 Y55.811 E41.57722
G1 X69.017 Y55.749 E41.58973
G1 X84.985 Y55.749 E42.01024
G1 X85.438 Y55.807 E42.02227
G1 X85.884 Y55.992 E42.03498
