;Generated by Cura LulzBot Edition GCodeWriter Version: 2.6.57
;FLAVOR:RepRap
;TIME:14544
;Filament used: 13.0781m
;Layer height: 0.378
;Generated with Cura_SteamEngine 2.6.59
;This G-Code has been generated specifically for the LulzBot Mini with Aerostruder
G26 ; clear potential 'probe fail' condition
G21 ; set units to Millimetres
M107 ; disable fans
G90 ; absolute positioning
M82 ; set extruder to absolute mode
G92 E0 ; set extruder position to 0
M140 S115 ; start bed heating up
G28 ; home all axes
G0 X3 Y188 Z156 F200 ; move away from endstops
M109 R175 ; soften filament before retraction
G1 E-15 F75 ; retract filament
M109 R170 ; wait for extruder to reach wiping temp
G1 X45 Y174 F11520 ; move above wiper pad
G1 Z0 F1200 ; push nozzle into wiper
G1 X45 Y174 Z-.5 F4000 ; wiping
G1 X55 Y172 Z-.5 F4000 ; wiping
G1 X45 Y174 Z0 F4000 ; wiping
G1 X55 Y172 F4000 ; wiping
G1 X45 Y174 F4000 ; wiping
G1 X55 Y172 F4000 ; wiping
G1 X45 Y174 F4000 ; wiping
G1 X55 Y172 F4000 ; wiping
G1 X60 Y174 F4000 ; wiping
G1 X80 Y172 F4000 ; wiping
G1 X60 Y174 F4000 ; wiping
G1 X80 Y172 F4000 ; wiping
G1 X60 Y174 F4000 ; wiping
G1 X90 Y172 F4000 ; wiping
G1 X80 Y174 F4000 ; wiping
G1 X100 Y172 F4000 ; wiping
G1 X80 Y174 F4000 ; wiping
G1 X100 Y172 F4000 ; wiping
G1 X80 Y174 F4000 ; wiping
G1 X100 Y172 F4000 ; wiping
G1 X110 Y174 F4000 ; wiping
G1 X100 Y172 F4000 ; wiping
G1 X110 Y174 F4000 ; wiping
G1 X100 Y172 F4000 ; wiping
G1 X110 Y174 F4000 ; wiping
G1 X115 Y172 Z-0.5 F1000 ; wiping
G1 Z10 ; raise extruder
G28 X0 Y0 ; home X and Y
M109 R170 ; wait for extruder to reach probe temp
M204 S300 ; set probing acceleration
G29 ; start auto-leveling sequence
M204 S2000 ; restore standard acceleration
G1 X5 Y15 Z10 F5000 ; move up off last probe point
G4 S1 ; pause
M400 ; wait for moves to finish
M117 Heating... ; progress indicator message on LCD
M109 R245 ; wait for extruder to reach printing temp
M190 S116 ; wait for bed to reach printing temp
G1 Z2 E0 F75 ; prime tiny bit of filment into the nozzle
M117 Mini Printing... ; progress indicator message on LCD


M221 S100
;LAYER_COUNT:338
;LAYER:0
M107
M204 S800
M205 X2
G0 F2250 X48.332 Y28.005 Z0.42
;TYPE:WALL-INNER
G1 F900 X48.699 Y27.458 E0.02602
G1 X49.138 Y26.957 E0.05233
G1 X49.646 Y26.512 E0.07901
G1 X50.203 Y26.143 E0.1054
G1 X50.796 Y25.851 E0.13151
G1 X51.434 Y25.636 E0.15811
G1 X52.088 Y25.507 E0.18444
G1 X52.77 Y25.463 E0.21144
G1 X55.074 Y25.463 E0.30245
G1 X55.073 Y55.463 E1.48752
G1 X63.073 Y55.463 E1.80353
G1 X63.074 Y56.663 E1.85094
G1 X57.842 Y56.663 E2.05761
G1 X57.842 Y82.463 E3.07677
G1 X63.073 Y82.463 E3.2834
G1 X63.073 Y83.663 E3.33081
G1 X62.842 Y83.663 E3.33993
G1 X62.842 Y119.294 E4.74743
G1 X56.642 Y119.294 E4.99235
G1 X56.642 Y109.295 E5.38733
G1 X47.642 Y109.294 E5.74285
G1 X47.642 Y103.279 E5.98045
G1 X56.642 Y103.278 E6.33597
G1 X56.642 Y89.847 E6.86653
G1 X47.642 Y89.846 E7.22205
G1 X47.642 Y30.589 E9.56283
G1 X47.689 Y29.892 E9.59042
G1 X47.817 Y29.242 E9.61659
G1 X48.034 Y28.607 E9.6431
G1 X48.113 Y28.449 E9.65008
G0 F810 X48.332 Y28.005
G0 F2250 X47.81 Y27.707
;TYPE:WALL-OUTER
G1 F420 E9.66963
G1 F900 X48.225 Y27.088 E9.69907
G1 X48.713 Y26.532 E9.72829
G1 X49.281 Y26.034 E9.75813
G1 X49.903 Y25.621 E9.78763
G1 X50.569 Y25.294 E9.81693
G1 X51.278 Y25.055 E9.84649
G1 X52.01 Y24.911 E9.87596
G1 X52.746 Y24.863 E9.9051
G1 X55.674 Y24.863 E10.02076
G1 X55.673 Y54.863 E11.20582
G1 X63.673 Y54.863 E11.52184
G1 X63.674 Y57.263 E11.61665
G1 X58.442 Y57.263 E11.82332
G1 X58.442 Y81.863 E12.79507
G1 X63.673 Y81.863 E13.00171
G1 X63.673 Y84.263 E13.09652
G1 X63.442 Y84.263 E13.10564
G1 X63.442 Y119.894 E14.51314
G1 X56.042 Y119.894 E14.80546
G1 X56.042 Y109.895 E15.20044
G1 X47.042 Y109.894 E15.55596
G1 X47.042 Y102.679 E15.84097
G1 X56.042 Y102.678 E16.19649
G1 X56.042 Y90.447 E16.67964
G1 X47.042 Y90.446 E17.03516
G1 X47.042 Y30.563 E19.40067
G1 X47.093 Y29.814 E19.43032
G1 X47.236 Y29.087 E19.45959
G1 X47.479 Y28.376 E19.48927
G1 X47.591 Y28.15 E19.49924
G0 F810 X47.81 Y27.707
G0 F2250 X47.949 Y27.5
G0 X48.545 Y28.18
;TYPE:SKIN
G1 F420 E19.51879
G1 F900 X54.803 Y34.438 E19.86839
G1 X54.909 Y34.544
G0 F2250 X54.803 Y33.59
G1 F900 X48.88 Y27.667 E20.19927
G1 X48.774 Y27.561
G0 F2250 X49.273 Y27.211
G1 F900 X54.803 Y32.741 E20.5082
G1 X54.909 Y32.847
G0 F2250 X54.803 Y31.893
G1 F900 X49.718 Y26.807 E20.7923
G1 X49.612 Y26.701
G0 F2250 X50.217 Y26.458
G1 F900 X54.803 Y31.044 E21.0485
G1 X54.909 Y31.15
G0 F2250 X54.803 Y30.196
G1 F900 X50.771 Y26.164 E21.27374
G1 X50.665 Y26.058
G0 F2250 X51.391 Y25.935
G1 F900 X54.803 Y29.347 E21.46435
G1 X54.909 Y29.453
G0 F2250 X54.803 Y28.499
G1 F900 X52.086 Y25.782 E21.61614
G1 X51.98 Y25.676
G0 F2250 X52.885 Y25.733
G1 F900 X54.803 Y27.65 E21.72326
G1 X54.909 Y27.756
G0 F2250 X54.803 Y26.802
G1 F900 X53.734 Y25.733 E21.78298
G1 X53.628 Y25.627
G0 F2250 X54.582 Y25.733
G1 F900 X54.803 Y25.953 E21.7953
G0 F2250 X48.267 Y28.751
G1 F900 X54.803 Y35.287 E22.16043
G1 X54.909 Y35.393
G0 F2250 X54.803 Y36.135
G1 F900 X48.06 Y29.393 E22.53709
G1 X47.954 Y29.287
G0 F2250 X47.942 Y30.123
G1 F900 X54.803 Y36.984 E22.92038
G1 X54.909 Y37.09
G0 F2250 X54.803 Y37.833
G1 F900 X47.91 Y30.94 E23.30545
G1 X47.804 Y30.834
G0 F2250 X47.91 Y31.788
G1 F900 X54.803 Y38.681 E23.69053
G1 X54.909 Y38.787
G0 F2250 X54.803 Y39.53
G1 F900 X47.91 Y32.637 E24.0756
G1 X47.804 Y32.531
G0 F2250 X47.91 Y33.485
G1 F900 X54.803 Y40.378 E24.46067
G1 X54.909 Y40.484
G0 F2250 X54.803 Y41.227
G1 F900 X47.91 Y34.334 E24.84575
G1 X47.804 Y34.228
G0 F2250 X47.91 Y35.182
G1 F900 X54.803 Y42.075 E25.23082
G1 X54.909 Y42.181
G0 F2250 X54.803 Y42.924
G1 F900 X47.91 Y36.031 E25.6159
G1 X47.804 Y35.925
G0 F2250 X47.91 Y36.879
G1 F900 X54.803 Y43.772 E26.00097
G1 X54.909 Y43.878
G0 F2250 X54.803 Y44.621
G1 F900 X47.91 Y37.728 E26.38604
G1 X47.804 Y37.622
G0 F2250 X47.91 Y38.576
G1 F900 X54.803 Y45.469 E26.77112
G1 X54.909 Y45.575
G0 F2250 X54.803 Y46.318
G1 F900 X47.91 Y39.425 E27.15619
G1 X47.804 Y39.319
G0 F2250 X47.91 Y40.273
G1 F900 X54.803 Y47.166 E27.54127
G1 X54.909 Y47.272
G0 F2250 X54.803 Y48.015
G1 F900 X47.91 Y41.122 E27.92634
G1 X47.804 Y41.016
G0 F2250 X47.91 Y41.971
G1 F900 X54.803 Y48.863 E28.31139
G1 X54.909 Y48.969
G0 F2250 X54.803 Y49.712
G1 F900 X47.91 Y42.819 E28.69646
G1 X47.804 Y42.713
G0 F2250 X47.91 Y43.668
G1 F900 X54.803 Y50.56 E29.08151
G1 X54.909 Y50.666
G0 F2250 X54.803 Y51.409
G1 F900 X47.91 Y44.516 E29.46658
G1 X47.804 Y44.41
G0 F2250 X47.91 Y45.365
G1 F900 X54.803 Y52.258 E29.85165
G1 X54.909 Y52.364
G0 F2250 X54.803 Y53.106
G1 F900 X47.91 Y46.213 E30.23673
G1 X47.804 Y46.107
G0 F2250 X47.91 Y47.062
G1 F900 X54.803 Y53.955 E30.6218
G1 X54.909 Y54.061
G0 F2250 X54.803 Y54.803
G1 F900 X47.91 Y47.91 E31.00688
G1 X47.804 Y47.804
G0 F2250 X47.91 Y48.759
G1 F900 X54.803 Y55.652 E31.39195
G1 X54.909 Y55.758
G0 F2250 X54.884 Y55.732
G1 F900 X57.571 Y58.42 E31.54209
G1 X57.677 Y58.526
G0 F2250 X57.571 Y59.268
G1 F900 X47.91 Y49.607 E32.08179
G1 X47.804 Y49.501
G0 F2250 X47.91 Y50.456
G1 F900 X57.571 Y60.117 E32.6215
G1 X57.677 Y60.223
G0 F2250 X57.571 Y60.966
G1 F900 X47.91 Y51.304 E33.16124
G1 X47.804 Y51.198
G0 F2250 X47.91 Y52.153
G1 F900 X57.571 Y61.814 E33.70094
G1 X57.677 Y61.92
G0 F2250 X57.571 Y62.663
G1 F900 X47.91 Y53.001 E34.24068
G1 X47.804 Y52.895
G0 F2250 X47.91 Y53.85
G1 F900 X57.571 Y63.511 E34.78038
G1 X57.677 Y63.617
G0 F2250 X57.571 Y64.36
G1 F900 X47.91 Y54.698 E35.32012
G1 X47.804 Y54.592
G0 F2250 X47.91 Y55.547
G1 F900 X57.571 Y65.208 E35.85983
G1 X57.677 Y65.314
G0 F2250 X57.571 Y66.057
G1 F900 X47.91 Y56.396 E36.39953
G1 X47.804 Y56.29
G0 F2250 X47.91 Y57.244
G1 F900 X57.571 Y66.905 E36.93924
G1 X57.677 Y67.011
G0 F2250 X57.571 Y67.754
G1 F900 X47.91 Y58.093 E37.47895
G1 X47.804 Y57.987
G0 F2250 X47.91 Y58.941
G1 F900 X57.571 Y68.602 E38.01865
G1 X57.677 Y68.708
G0 F2250 X57.571 Y69.451
G1 F900 X47.91 Y59.79 E38.55836
G1 X47.804 Y59.684
G0 F2250 X47.911 Y60.639
G1 F900 X57.571 Y70.299 E39.09801
G1 X57.677 Y70.405
G0 F2250 X57.571 Y71.148
G1 F900 X47.911 Y61.487 E39.63769
G1 X47.805 Y61.381
G0 F2250 X47.911 Y62.336
G1 F900 X57.571 Y71.996 E40.17734
G1 X57.677 Y72.102
G0 F2250 X57.571 Y72.845
G1 F900 X47.911 Y63.184 E40.71702
G1 X47.805 Y63.078
G0 F2250 X47.911 Y64.033
G1 F900 X57.571 Y73.693 E41.25667
G1 X57.677 Y73.799
G0 F2250 X57.571 Y74.542
G1 F900 X47.911 Y64.881 E41.79635
G1 X47.805 Y64.775
G0 F2250 X47.911 Y65.73
G1 F900 X57.571 Y75.391 E42.33603
G1 X57.677 Y75.497
G0 F2250 X57.571 Y76.239
G1 F900 X47.911 Y66.579 E42.87568
G1 X47.805 Y66.473
G0 F2250 X47.911 Y67.427
G1 F900 X57.571 Y77.088 E43.41536
G1 X57.677 Y77.194
G0 F2250 X57.571 Y77.936
G1 F900 X47.911 Y68.276 E43.95501
G1 X47.805 Y68.17
G0 F2250 X47.911 Y69.124
G1 F900 X57.571 Y78.785 E44.49469
G1 X57.677 Y78.891
G0 F2250 X57.571 Y79.633
G1 F900 X47.911 Y69.973 E45.03434
G1 X47.805 Y69.867
G0 F2250 X47.911 Y70.821
G1 F900 X57.571 Y80.482 E45.57402
G1 X57.677 Y80.588
G0 F2250 X57.571 Y81.33
G1 F900 X47.911 Y71.67 E46.11367
G1 X47.805 Y71.564
G0 F2250 X47.911 Y72.518
G1 F900 X57.571 Y82.179 E46.65335
G1 X57.677 Y82.285
G0 F2250 X58.124 Y82.732
G1 F900 X62.571 Y87.179 E46.90178
G1 X62.677 Y87.285
G0 F2250 X62.571 Y88.027
G1 F900 X47.911 Y73.367 E47.72075
G1 X47.805 Y73.261
G0 F2250 X47.911 Y74.215
G1 F900 X62.571 Y88.876 E48.53976
G1 X62.677 Y88.982
G0 F2250 X62.571 Y89.724
G1 F900 X47.911 Y75.064 E49.35873
G1 X47.805 Y74.958
G0 F2250 X47.911 Y75.912
G1 F900 X62.571 Y90.573 E50.17773
G1 X62.677 Y90.679
G0 F2250 X62.571 Y91.421
G1 F900 X47.911 Y76.761 E50.9967
G1 X47.805 Y76.655
G0 F2250 X47.911 Y77.609
G1 F900 X62.571 Y92.27 E51.81571
G1 X62.677 Y92.376
G0 F2250 X62.571 Y93.118
G1 F900 X47.911 Y78.458 E52.63468
G1 X47.805 Y78.352
G0 F2250 X47.911 Y79.306
G1 F900 X62.571 Y93.967 E53.45368
G1 X62.677 Y94.073
G0 F2250 X62.571 Y94.815
G1 F900 X47.911 Y80.155 E54.27265
G1 X47.805 Y80.049
G0 F2250 X47.911 Y81.004
G1 F900 X56.482 Y89.575 E54.75147
G1 X56.588 Y89.681
G0 F2250 X56.912 Y90.004
G1 F900 X62.571 Y95.664 E55.06763
G1 X62.677 Y95.77
G0 F2250 X62.571 Y96.513
G1 F900 X56.912 Y90.853 E55.3838
G1 X56.806 Y90.747
G0 F2250 X56.912 Y91.701
G1 F900 X62.571 Y97.361 E55.69996
G1 X62.677 Y97.467
G0 F2250 X62.571 Y98.21
G1 F900 X56.912 Y92.55 E56.01613
G1 X56.806 Y92.444
G0 F2250 X56.912 Y93.398
G1 F900 X62.571 Y99.058 E56.33229
G1 X62.677 Y99.164
G0 F2250 X62.571 Y99.907
G1 F900 X56.912 Y94.247 E56.64846
G1 X56.806 Y94.141
G0 F2250 X56.912 Y95.095
G1 F900 X62.571 Y100.755 E56.96463
G1 X62.677 Y100.861
G0 F2250 X62.571 Y101.604
G1 F900 X56.912 Y95.944 E57.28079
G1 X56.806 Y95.838
G0 F2250 X56.912 Y96.793
G1 F900 X62.571 Y102.452 E57.59693
G1 X62.677 Y102.558
G0 F2250 X62.571 Y103.301
G1 F900 X56.912 Y97.641 E57.91309
G1 X56.806 Y97.535
G0 F2250 X56.912 Y98.49
G1 F900 X62.571 Y104.149 E58.22923
G1 X62.677 Y104.255
G0 F2250 X62.571 Y104.998
G1 F900 X56.912 Y99.338 E58.5454
G1 X56.806 Y99.232
G0 F2250 X56.912 Y100.187
G1 F900 X62.571 Y105.846 E58.86153
G1 X62.677 Y105.952
G0 F2250 X62.571 Y106.695
G1 F900 X56.912 Y101.035 E59.1777
G1 X56.806 Y100.929
G0 F2250 X56.912 Y101.884
G1 F900 X62.571 Y107.543 E59.49383
G1 X62.677 Y107.649
G0 F2250 X62.571 Y108.392
G1 F900 X56.912 Y102.732 E59.81
G1 X56.806 Y102.626
G0 F2250 X56.878 Y103.548
G1 F900 X62.571 Y109.24 E60.12801
G1 X62.677 Y109.346
G0 F2250 X62.571 Y110.089
G1 F900 X56.03 Y103.548 E60.49342
G1 X55.924 Y103.442
G0 F2250 X55.181 Y103.548
G1 F900 X62.571 Y110.937 E60.90623
G1 X62.677 Y111.043
G0 F2250 X62.571 Y111.786
G1 F900 X54.333 Y103.548 E61.36644
G1 X54.227 Y103.442
G0 F2250 X53.484 Y103.548
G1 F900 X62.571 Y112.635 E61.87408
G1 X62.677 Y112.741
G0 F2250 X62.571 Y113.483
G1 F900 X52.636 Y103.548 E62.4291
G1 X52.53 Y103.442
G0 F2250 X51.788 Y103.548
G1 F900 X62.571 Y114.332 E63.03151
G1 X62.677 Y114.438
G0 F2250 X62.571 Y115.18
G1 F900 X56.912 Y109.52 E63.34768
G1 X56.806 Y109.414
G0 F2250 X56.415 Y109.023
G1 F900 X50.939 Y103.548 E63.65356
G1 X50.833 Y103.442
G0 F2250 X50.091 Y103.548
G1 F900 X55.566 Y109.023 E63.95942
G1 X55.672 Y109.129
G0 F2250 X54.718 Y109.023
G1 F900 X49.242 Y103.548 E64.26531
G1 X49.136 Y103.442
G0 F2250 X48.394 Y103.548
G1 F900 X53.869 Y109.023 E64.57116
G1 X53.975 Y109.129
G0 F2250 X53.02 Y109.023
G1 F900 X47.912 Y103.914 E64.85655
G1 X47.806 Y103.808
G0 F2250 X47.912 Y104.763
G1 F900 X52.171 Y109.023 E65.0945
G1 X52.277 Y109.129
G0 F2250 X51.323 Y109.023
G1 F900 X47.912 Y105.612 E65.28506
G1 X47.806 Y105.506
G0 F2250 X47.912 Y106.46
G1 F900 X50.474 Y109.023 E65.42821
G1 X50.58 Y109.129
G0 F2250 X49.626 Y109.023
G1 F900 X47.912 Y107.309 E65.52396
G1 X47.806 Y107.203
G0 F2250 X47.912 Y108.157
G1 F900 X48.777 Y109.023 E65.57231
G1 X48.883 Y109.129
G0 F2250 X56.67 Y109.267
G0 X56.912 Y110.369
G1 F900 X62.571 Y116.029 E65.88848
G1 X62.677 Y116.135
G0 F2250 X62.571 Y116.877
G1 F900 X56.912 Y111.217 E66.20464
G1 X56.806 Y111.111
G0 F2250 X56.912 Y112.066
G1 F900 X62.571 Y117.726 E66.52081
G1 X62.677 Y117.832
G0 F2250 X62.571 Y118.574
G1 F900 X56.912 Y112.915 E66.83694
G1 X56.806 Y112.809
G0 F2250 X56.912 Y113.763
G1 F900 X62.171 Y119.023 E67.13076
G1 X62.277 Y119.129
G0 F2250 X61.323 Y119.023
G1 F900 X56.912 Y114.612 E67.37718
G1 X56.806 Y114.506
G0 F2250 X56.912 Y115.46
G1 F900 X60.474 Y119.023 E67.5762
G1 X60.58 Y119.129
G0 F2250 X59.626 Y119.023
G1 F900 X56.912 Y116.309 E67.72782
G1 X56.806 Y116.203
G0 F2250 X56.912 Y117.157
G1 F900 X58.777 Y119.023 E67.83203
G1 X58.883 Y119.129
G0 F2250 X57.929 Y119.023
G1 F900 X56.912 Y118.006 E67.88884
G1 X56.806 Y117.9
G0 F2250 X56.912 Y118.854
G1 F900 X57.08 Y119.023 E67.89826
G0 F2250 X56.67 Y89.819
G0 X55.634 Y89.575
G1 F900 X47.911 Y81.852 E68.3297
G1 X47.805 Y81.746
G0 F2250 X47.911 Y82.701
G1 F900 X54.785 Y89.575 E68.71371
G1 X54.891 Y89.681
G0 F2250 X53.937 Y89.575
G1 F900 X47.911 Y83.549 E69.05035
G1 X47.805 Y83.443
G0 F2250 X47.911 Y84.398
G1 F900 X53.088 Y89.575 E69.33956
G1 X53.194 Y89.681
G0 F2250 X52.239 Y89.574
G1 F900 X47.911 Y85.246 E69.58134
G1 X47.805 Y85.14
G0 F2250 X47.911 Y86.095
G1 F900 X51.391 Y89.574 E69.77572
G1 X51.497 Y89.68
G0 F2250 X50.542 Y89.574
G1 F900 X47.911 Y86.943 E69.9227
G1 X47.805 Y86.837
G0 F2250 X47.911 Y87.792
G1 F900 X49.694 Y89.574 E70.02228
G1 X49.8 Y89.68
G0 F2250 X48.845 Y89.574
G1 F900 X47.911 Y88.64 E70.07446
G1 X47.805 Y88.534
G0 F2250 X47.911 Y89.489
G1 F900 X47.996 Y89.574 E70.07921
G0 F2250 X58.973 Y82.732
G1 F900 X62.571 Y86.33 E70.28021
G1 X62.677 Y86.436
G0 F2250 X62.571 Y85.482
G1 F900 X59.821 Y82.732 E70.43384
G1 X59.715 Y82.626
G0 F2250 X60.67 Y82.732
G1 F900 X62.571 Y84.633 E70.54003
G1 X62.677 Y84.739
G0 F2250 X62.571 Y83.785
G1 F900 X61.518 Y82.732 E70.59886
G1 X61.412 Y82.626
G0 F2250 X62.367 Y82.732
G1 F900 X62.803 Y83.167 E70.62319
G0 F2250 X57.814 Y82.491
G0 X57.571 Y57.571
G1 F900 X55.732 Y55.732 E70.72592
G1 X55.626 Y55.626
G0 F2250 X56.581 Y55.732
G1 F900 X57.571 Y56.723 E70.78126
G1 X57.677 Y56.829
G0 F2250 X58.09 Y56.393
G1 F900 X57.429 Y55.732 E70.81818
G0 F2250 X58.278 Y55.732
G1 F900 X58.938 Y56.393 E70.85508
G0 F2250 X59.126 Y55.732
G1 F900 X59.787 Y56.393 E70.89201
G0 F2250 X59.975 Y55.732
G1 F900 X60.635 Y56.393 E70.92891
G0 F2250 X60.823 Y55.732
G1 F900 X61.484 Y56.393 E70.96583
G0 F2250 X62.002 Y56.062
G1 F900 X62.661 Y55.873 E70.99215
G0 F2250 X62.473 Y56.062
G1 F420 E69.99215
G0 F2250 X63.073 Y55.556
G0 X64.638 Y55.555
G0 X82.377 Y55.556
G0 X83.962 Y55.556
G0 X91.303 Y55.533
G0 X91.373 Y55.463
;TYPE:WALL-INNER
G1 F420 E70.99215
G1 F900 X99.373 Y55.463 E71.30817
G1 X99.374 Y56.663 E71.35557
G1 X94.142 Y56.663 E71.56224
G1 X94.142 Y82.463 E72.5814
G1 X99.373 Y82.463 E72.78804
G1 X99.373 Y83.663 E72.83544
G1 X99.142 Y83.663 E72.84456
G1 X99.142 Y119.294 E74.25206
G1 X92.942 Y119.294 E74.49698
G1 X92.942 Y109.295 E74.89196
G1 X83.942 Y109.294 E75.24748
G1 X83.942 Y103.279 E75.48509
G1 X92.942 Y103.278 E75.8406
G1 X92.942 Y89.847 E76.37116
G1 X83.942 Y89.846 E76.72668
G1 X83.942 Y30.589 E79.06746
G1 X83.989 Y29.892 E79.09505
G1 X84.117 Y29.242 E79.12122
G1 X84.334 Y28.607 E79.14773
G1 X84.632 Y28.005 E79.17427
G1 X84.999 Y27.458 E79.20029
G1 X85.438 Y26.957 E79.2266
