;Generated by Cura LulzBot Edition GCodeWriter Version: 2.6.66
;FLAVOR:RepRap
;TIME:10919
;Filament used: 9.4533m
;Layer height: 0.378
;Generated with Cura_SteamEngine 2.6.66
;This G-Code has been generated specifically for the LulzBot Mini with Aerostruder
G26 ; clear potential 'probe fail' condition
G21 ; set units to Millimetres
M107 ; disable fans
G90 ; absolute positioning
M82 ; set extruder to absolute mode
G92 E0 ; set extruder position to 0
M140 S115 ; start bed heating up
G28 ; home all axes
G0 X0 Y187 Z156 F200 ; move away from endstops
M109 R170 ; soften filament before retraction
G1 E-15 F75 ; retract filament
M109 R170 ; wait for extruder to reach wiping temp
G1 X45 Y173 F11520 ; move above wiper pad
G1 Z0 F1200 ; push nozzle into wiper
G1 X42 Y173 Z-.5 F4000 ; wiping
G1 X52 Y171 Z-.5 F4000 ; wiping
G1 X42 Y173 Z0 F4000 ; wiping
G1 X52 Y171 F4000 ; wiping
G1 X42 Y173 F4000 ; wiping
G1 X52 Y171 F4000 ; wiping
G1 X42 Y173 F4000 ; wiping
G1 X52 Y171 F4000 ; wiping
G1 X57 Y173 F4000 ; wiping
G1 X77 Y171 F4000 ; wiping
G1 X57 Y173 F4000 ; wiping
G1 X77 Y171 F4000 ; wiping
G1 X57 Y173 F4000 ; wiping
G1 X87 Y171 F4000 ; wiping
G1 X77 Y173 F4000 ; wiping
G1 X97 Y171 F4000 ; wiping
G1 X77 Y173 F4000 ; wiping
G1 X97 Y171 F4000 ; wiping
G1 X77 Y173 F4000 ; wiping
G1 X97 Y171 F4000 ; wiping
G1 X107 Y173 F4000 ; wiping
G1 X97 Y171 F4000 ; wiping
G1 X107 Y173 F4000 ; wiping
G1 X97 Y171 F4000 ; wiping
G1 X107 Y173 F4000 ; wiping
G1 X112 Y171 Z-0.5 F1000 ; wiping
G1 Z10 ; raise extruder
G28 X0 Y0 ; home X and Y
G0 X0 Y187 F200 ; move away from endstops
M109 R170 ; wait for extruder to reach probe temp
M204 S300 ; set probing acceleration
G29 ; start auto-leveling sequence
M204 S2000 ; restore standard acceleration
G28 X0 Y0 ; re-home to account for build variance of earlier mini builds
G0 X0 Y187 F200 ; move away from endstops
G0 Y152 F4000 ; move in front of wiper pad
G4 S1 ; pause
M400 ; wait for moves to finish
M117 Heating... ; progress indicator message on LCD
M109 R245 ; wait for extruder to reach printing temp
M190 S116 ; wait for bed to reach printing temp
G1 Z2 E0 F75 ; prime tiny bit of filament into the nozzle
M117 Mini Printing... ; progress indicator message on LCD


M221 S100
;LAYER_COUNT:177
;LAYER:0
M107
M204 S1000
M205 X10
G0 F2250 X32.787 Y63.389 Z0.42
;TYPE:SKIRT
G1 F900 X36.826 Y61.521 E0.17579
G1 X39.262 Y60.292 E0.28357
G1 X41.651 Y58.998 E0.39089
G1 X46.39 Y56.165 E0.60899
G1 X48.623 Y54.702 E0.71445
G1 X53.092 Y51.488 E0.93189
G1 X57.349 Y48.046 E1.14815
G1 X61.394 Y44.38 E1.36379
G1 X65.239 Y40.474 E1.5803
G1 X68.856 Y36.361 E1.79666
G1 X72.033 Y32.325 E1.99956
G1 X72.381 Y31.947 E2.01986
G1 X72.783 Y31.628 E2.04013
G1 X73.23 Y31.376 E2.0604
G1 X73.711 Y31.195 E2.0807
G1 X74.214 Y31.092 E2.10098
G1 X74.627 Y31.066 E2.11733
G1 X108.622 Y31.074 E3.46021
G1 X109.134 Y31.114 E3.48049
G1 X109.633 Y31.233 E3.50076
G1 X110.108 Y31.428 E3.52104
G1 X110.547 Y31.694 E3.54132
G1 X111.083 Y32.177 E3.56982
G1 X123.533 Y46.128 E4.30845
G1 X127.052 Y50.018 E4.51566
G1 X127.366 Y50.425 E4.53596
G1 X127.613 Y50.875 E4.55624
G1 X127.787 Y51.358 E4.57652
G1 X127.884 Y51.862 E4.5968
G1 X127.905 Y52.225 E4.61116
G1 X127.958 Y76.603 E5.57414
G1 X128.07 Y79.431 E5.68594
G1 X128.073 Y79.568 E5.69136
G1 X128.063 Y85.354 E5.91992
G1 X128.022 Y85.865 E5.94017
G1 X127.902 Y86.365 E5.96048
G1 X127.707 Y86.839 E5.98073
G1 X127.44 Y87.278 E6.00102
G1 X127.108 Y87.67 E6.02132
G1 X126.72 Y88.005 E6.04156
G1 X126.148 Y88.343 E6.06781
G1 X122.109 Y90.211 E6.2436
G1 X119.673 Y91.44 E6.35138
G1 X117.284 Y92.734 E6.4587
G1 X112.545 Y95.567 E6.6768
G1 X110.312 Y97.03 E6.78226
G1 X105.843 Y100.244 E6.9997
G1 X101.586 Y103.686 E7.21596
G1 X97.541 Y107.352 E7.4316
G1 X93.696 Y111.258 E7.64811
G1 X90.079 Y115.371 E7.86447
G1 X86.902 Y119.407 E8.06737
G1 X86.554 Y119.785 E8.08767
G1 X86.152 Y120.104 E8.10794
G1 X85.705 Y120.356 E8.12821
G1 X85.224 Y120.537 E8.14851
G1 X84.721 Y120.64 E8.16879
G1 X84.309 Y120.666 E8.1851
G1 X50.321 Y120.665 E9.5277
G1 X49.809 Y120.625 E9.54799
G1 X49.31 Y120.506 E9.56825
G1 X48.835 Y120.311 E9.58853
G1 X48.396 Y120.045 E9.60881
G1 X47.862 Y119.566 E9.63715
G1 X31.869 Y101.699 E10.58438
G1 X31.558 Y101.291 E10.60465
G1 X31.313 Y100.839 E10.62496
G1 X31.141 Y100.356 E10.64521
G1 X31.047 Y99.851 E10.6655
G1 X31.028 Y99.505 E10.67919
G1 X30.977 Y75.128 E11.64213
G1 X30.865 Y72.294 E11.75417
G1 X30.862 Y72.158 E11.75954
G1 X30.872 Y66.378 E11.98787
G1 X30.913 Y65.866 E12.00816
G1 X31.033 Y65.367 E12.02843
G1 X31.228 Y64.893 E12.04868
G1 X31.495 Y64.454 E12.06897
G1 X31.827 Y64.062 E12.08927
G1 X32.215 Y63.727 E12.10952
G1 X32.361 Y63.64 E12.11623
G0 F810 X32.787 Y63.389
G1 F420 E11.11623
G0 F2250 X33.497 Y68.117
G0 X34.967 Y68.117
G0 X35.517 Y71.3
;TYPE:WALL-INNER
G1 F420 E12.13578
G1 F900 X35.362 Y71.3 E12.13987
G1 X35.362 Y69.539 E12.18624
G1 X44.784 Y85.205 E12.66767
G1 X47.605 Y83.51 E12.75434
G1 X47.401 Y83.702 E12.76172
G1 X46.936 Y84.433 E12.78453
G1 X46.669 Y85.257 E12.80734
G1 X46.614 Y86.123 E12.83019
G1 X46.777 Y86.976 E12.85306
G1 X47.147 Y87.761 E12.87592
G1 X47.483 Y88.167 E12.8898
G1 X44.784 Y86.545 E12.97272
G1 X36.568 Y100.216 E13.39276
G1 X35.517 Y99.041 E13.43427
G1 X35.517 Y72.042 E14.14529
G0 F810 X35.517 Y71.3
G0 F2250 X44.912 Y84.694
G0 X51.742 Y80.59
G0 X44.356 Y67.575
G1 F420 E14.16483
G1 F900 X50.814 Y67.575 E14.3349
G1 X62.315 Y56.075 E14.76321
G1 X83.117 Y56.075 E15.31103
G1 X83.117 Y71.582 E15.7194
G1 X64.117 Y79.708 E16.2636
G1 X64.117 Y80.906 E16.29515
G1 X52.848 Y80.906 E16.59192
G1 X52.848 Y83.884 E16.67034
G1 X52.732 Y83.702 E16.67603
G1 X52.1 Y83.108 E16.69887
G1 X51.339 Y82.69 E16.72173
G1 X50.5 Y82.475 E16.74454
G1 X49.634 Y82.475 E16.76735
G1 X49.101 Y82.612 E16.78184
G1 X52.253 Y80.718 E16.87868
G1 X44.738 Y68.211 E17.26293
G0 F810 X44.356 Y67.575
G0 F2250 X51.742 Y80.59
G0 X53.108 Y85.327
G0 X53.156 Y86.1
G0 X53.012 Y86.862
G0 X52.435 Y88.428
G1 F420 E17.28247
G1 F900 X52.848 Y87.929 E17.29953
G1 X52.848 Y90.844 E17.3763
G1 X64.117 Y90.854 E17.67306
G1 X64.117 Y92.085 E17.70548
G1 X83.117 Y106.96 E18.34094
G1 X83.117 Y116.175 E18.58362
G1 X50.854 Y116.175 E19.43326
G1 X42.652 Y107.012 E19.75712
G1 X52.252 Y91.033 E20.24802
G1 X49.323 Y89.273 E20.33801
G1 X50.067 Y89.366 E20.35776
G1 X50.926 Y89.258 E20.38056
G1 X51.734 Y88.939 E20.40343
G1 X51.836 Y88.865 E20.40675
G0 F810 X52.435 Y88.428
G0 F2250 X52.159 Y88.134
G1 F420 E20.42629
G1 F900 X52.647 Y87.545 E20.44644
G1 X52.974 Y86.85 E20.46666
G1 X53.117 Y86.098 E20.48682
G1 X53.069 Y85.334 E20.50698
G1 X52.833 Y84.605 E20.52716
G1 X52.422 Y83.959 E20.54732
G1 X51.863 Y83.434 E20.56752
G1 X51.191 Y83.065 E20.58771
G1 X50.45 Y82.875 E20.60786
G1 X49.684 Y82.875 E20.62803
G1 X48.943 Y83.065 E20.64817
G1 X48.27 Y83.434 E20.66839
G1 X47.712 Y83.959 E20.68856
G1 X47.301 Y84.605 E20.70873
G1 X47.065 Y85.333 E20.72888
G1 X47.016 Y86.098 E20.74907
G1 X47.16 Y86.851 E20.76926
G1 X47.487 Y87.545 E20.78946
G1 X47.975 Y88.134 E20.8096
G1 X48.594 Y88.586 E20.82979
G1 X49.307 Y88.867 E20.84997
G1 X50.067 Y88.963 E20.87014
G1 X50.826 Y88.867 E20.89029
G1 X51.54 Y88.586 E20.9105
G1 X51.56 Y88.571 E20.91116
G0 F810 X52.159 Y88.134
G0 F2250 X52.227 Y88.206
G0 X53.178 Y90.514
G0 X53.248 Y90.444
G1 F420 E20.9307
G1 F900 X64.517 Y90.454 E21.22746
G1 X64.517 Y91.89 E21.26528
G1 X83.517 Y106.765 E21.90074
G1 X83.517 Y116.575 E22.15909
G1 X50.675 Y116.575 E23.02397
G1 X42.157 Y107.059 E23.36031
G1 X51.703 Y91.17 E23.84845
G1 X44.921 Y87.094 E24.05683
G1 X36.632 Y100.887 E24.48061
G1 X35.117 Y99.194 E24.54044
G1 X35.117 Y71.7 E25.26449
G1 X34.962 Y71.7 E25.26857
G1 X34.962 Y68.098 E25.36343
G1 X44.921 Y84.656 E25.87227
G1 X51.704 Y80.581 E26.08066
G1 X43.649 Y67.175 E26.49253
G1 X50.648 Y67.175 E26.67685
G1 X62.149 Y55.675 E27.10516
G1 X83.517 Y55.675 E27.66788
G1 X83.517 Y71.846 E28.09374
G1 X64.517 Y79.972 E28.63794
G1 X64.517 Y81.306 E28.67307
G1 X53.248 Y81.306 E28.96984
G1 X53.248 Y89.702 E29.19095
G0 F810 X53.248 Y90.444
G0 F2250 X53.178 Y90.514
G0 X53.22 Y81.278
G0 X83.434 Y71.791
G0 X84.017 Y72.176
;TYPE:WALL-OUTER
G1 F420 E29.21049
G1 F900 X65.017 Y80.302 E30.02679
G1 X65.017 Y81.806 E30.0862
G1 X53.748 Y81.806 E30.53135
G1 X53.748 Y89.944 E30.85282
G1 X65.017 Y89.954 E31.29797
G1 X65.017 Y91.646 E31.36481
G1 X84.017 Y106.521 E32.318
G1 X84.017 Y117.075 E32.73491
G1 X50.451 Y117.075 E34.06084
G1 X41.538 Y107.117 E34.58876
G1 X51.017 Y91.341 E35.31578
G1 X45.092 Y87.78 E35.58885
G1 X36.712 Y101.726 E36.23155
G1 X34.617 Y99.385 E36.35565
G1 X34.617 Y72.2 E37.42952
G1 X34.462 Y72.2 E37.43564
G1 X34.462 Y66.675 E37.65389
G1 X34.689 Y66.675 E37.66286
G1 X45.092 Y83.97 E38.46012
G1 X51.018 Y80.41 E38.7332
G1 X42.765 Y66.675 E39.36617
G1 X50.441 Y66.675 E39.66939
G1 X61.941 Y55.175 E40.31183
G1 X84.017 Y55.175 E41.18388
G1 X84.017 Y71.681 E41.83591
G0 F810 X84.017 Y72.176
G0 F2250 X83.788 Y72.274
G0 X83.434 Y71.791
G0 X53.22 Y81.278
G0 X53.145 Y85.245
G0 X52.574 Y85.428
G1 F420 E41.85546
G1 F900 X52.377 Y84.82 E41.88071
G1 X52.034 Y84.28 E41.90598
G1 X51.567 Y83.842 E41.93127
G1 X51.006 Y83.534 E41.95655
G1 X50.387 Y83.375 E41.9818
G1 X49.747 Y83.375 E42.00708
G1 X49.128 Y83.534 E42.03232
G1 X48.566 Y83.842 E42.05764
G1 X48.1 Y84.28 E42.0829
G1 X47.757 Y84.82 E42.10817
G1 X47.56 Y85.428 E42.13342
G1 X47.519 Y86.067 E42.15871
G1 X47.639 Y86.695 E42.18397
G1 X47.912 Y87.275 E42.20929
G1 X48.32 Y87.767 E42.23454
G1 X48.837 Y88.144 E42.25982
G1 X49.432 Y88.379 E42.28509
G1 X50.067 Y88.459 E42.31037
G1 X50.701 Y88.379 E42.33561
G1 X51.297 Y88.144 E42.36092
G1 X51.814 Y87.767 E42.38619
G1 X52.222 Y87.275 E42.41144
G1 X52.495 Y86.695 E42.43676
G1 X52.614 Y86.067 E42.46201
G1 X52.604 Y85.922 E42.46775
G0 F810 X52.574 Y85.428
G0 F2250 X52.497 Y85.191
G0 X53.068 Y85.008
G0 X52.483 Y83.4
;TYPE:SKIN
G1 F420 E42.48731
G1 F900 X52.797 Y83.4 E42.49971
G0 F2250 X52.797 Y82.8
G1 F900 X51.64 Y82.8 E42.54542
G0 F2250 X52.797 Y82.2
G1 F900 X49.882 Y82.2 E42.66057
G1 X49.782 Y82.2
G0 F2250 X50.881 Y81.6
G1 F900 X52.797 Y81.6 E42.73625
G1 X52.897 Y81.6
G0 F2250 X52.797 Y81
G1 F900 X51.879 Y81 E42.77251
G0 F2250 X52.118 Y80.4
G1 F900 X64.066 Y80.4 E43.24449
G1 X64.166 Y80.4
G0 F2250 X64.066 Y79.8
G1 F900 X51.758 Y79.8 E43.73068
G1 X51.658 Y79.8
G0 F2250 X51.397 Y79.2
G1 F900 X65.176 Y79.2 E44.27498
G1 X65.276 Y79.2
G0 F2250 X66.58 Y78.6
G1 F900 X51.037 Y78.6 E44.88896
G1 X50.937 Y78.6
G0 F2250 X50.676 Y78
G1 F900 X67.983 Y78 E45.57263
G1 X68.083 Y78
G0 F2250 X69.386 Y77.4
G1 F900 X50.316 Y77.4 E46.32593
G1 X50.216 Y77.4
G0 F2250 X49.955 Y76.8
G1 F900 X70.789 Y76.8 E47.14892
G1 X70.889 Y76.8
G0 F2250 X72.192 Y76.2
G1 F900 X49.595 Y76.2 E48.04155
G1 X49.495 Y76.2
G0 F2250 X49.234 Y75.6
G1 F900 X73.595 Y75.6 E49.00386
G1 X73.695 Y75.6
G0 F2250 X74.997 Y75
G1 F900 X48.874 Y75 E50.03578
G1 X48.774 Y75
G0 F2250 X48.513 Y74.4
G1 F900 X76.4 Y74.4 E51.13737
G1 X76.5 Y74.4
G0 F2250 X77.803 Y73.8
G1 F900 X48.153 Y73.8 E52.30861
G1 X48.053 Y73.8
G0 F2250 X47.792 Y73.2
G1 F900 X79.206 Y73.2 E53.54954
G1 X79.306 Y73.2
G0 F2250 X80.609 Y72.6
G1 F900 X47.431 Y72.6 E54.86014
G1 X47.331 Y72.6
G0 F2250 X47.071 Y72
G1 F900 X82.012 Y72 E56.24038
G1 X82.112 Y72
G0 F2250 X83.067 Y71.4
G1 F900 X46.71 Y71.4 E57.67656
G1 X46.61 Y71.4
G0 F2250 X46.35 Y70.8
G1 F900 X83.067 Y70.8 E59.12697
G1 X83.167 Y70.8
G0 F2250 X83.067 Y70.2
G1 F900 X45.989 Y70.2 E60.59163
G1 X45.889 Y70.2
G0 F2250 X45.629 Y69.6
G1 F900 X83.067 Y69.6 E62.07051
G1 X83.167 Y69.6
G0 F2250 X83.067 Y69
G1 F900 X45.268 Y69 E63.56365
G1 X45.168 Y69
G0 F2250 X44.908 Y68.4
G1 F900 X83.067 Y68.4 E65.07101
G1 X83.167 Y68.4
G0 F2250 X83.067 Y67.8
G1 F900 X44.547 Y67.8 E66.59264
G1 X44.447 Y67.8
G0 F2250 X51.259 Y67.2
G1 F900 X83.067 Y67.2 E67.84912
G1 X83.167 Y67.2
G0 F2250 X83.067 Y66.6
G1 F900 X51.859 Y66.6 E69.08191
G1 X51.759 Y66.6
G0 F2250 X52.459 Y66
G1 F900 X83.067 Y66 E70.29099
G1 X83.167 Y66
G0 F2250 X83.067 Y65.4
G1 F900 X53.059 Y65.4 E71.47637
G1 X52.959 Y65.4
G0 F2250 X53.659 Y64.8
G1 F900 X83.067 Y64.8 E72.63805
G1 X83.167 Y64.8
G0 F2250 X83.067 Y64.2
G1 F900 X54.259 Y64.2 E73.77603
G1 X54.159 Y64.2
G0 F2250 X54.859 Y63.6
G1 F900 X83.067 Y63.6 E74.89031
G1 X83.167 Y63.6
G0 F2250 X83.067 Y63
G1 F900 X55.459 Y63 E75.98088
G1 X55.359 Y63
G0 F2250 X56.059 Y62.4
G1 F900 X83.067 Y62.4 E77.04776
G1 X83.167 Y62.4
G0 F2250 X83.067 Y61.8
G1 F900 X56.659 Y61.8 E78.09093
G1 X56.559 Y61.8
G0 F2250 X57.259 Y61.2
G1 F900 X83.067 Y61.2 E79.1104
G1 X83.167 Y61.2
G0 F2250 X83.067 Y60.6
G1 F900 X57.859 Y60.6 E80.10617
G1 X57.759 Y60.6
G0 F2250 X58.459 Y60
G1 F900 X83.067 Y60 E81.07824
G1 X83.167 Y60
G0 F2250 X83.067 Y59.4
G1 F900 X59.06 Y59.4 E82.02657
G1 X58.96 Y59.4
G0 F2250 X59.66 Y58.8
G1 F900 X83.067 Y58.8 E82.9512
G1 X83.167 Y58.8
G0 F2250 X83.067 Y58.2
G1 F900 X60.26 Y58.2 E83.85212
G1 X60.16 Y58.2
G0 F2250 X60.86 Y57.6
G1 F900 X83.067 Y57.6 E84.72935
G1 X83.167 Y57.6
G0 F2250 X83.067 Y57
G1 F900 X61.46 Y57 E85.58287
G1 X61.36 Y57
G0 F2250 X62.06 Y56.4
G1 F900 X83.067 Y56.4 E86.41269
G1 X83.167 Y56.4
G0 F2250 X53.22 Y81.278
G0 X53.22 Y90.472
G0 X64.066 Y91.2
G1 F900 X52.209 Y91.2 E86.88107
G1 X52.109 Y91.2
G0 F2250 X51.848 Y91.8
G1 F900 X64.066 Y91.8 E87.36371
G1 X64.166 Y91.8
G0 F2250 X64.438 Y92.4
G1 F900 X51.488 Y92.4 E87.87526
G1 X51.388 Y92.4
G0 F2250 X51.127 Y93
G1 F900 X65.205 Y93 E88.43137
G1 X65.305 Y93
G0 F2250 X65.972 Y93.6
G1 F900 X50.767 Y93.6 E89.032
G1 X50.667 Y93.6
G0 F2250 X50.407 Y94.2
G1 F900 X66.738 Y94.2 E89.67711
G1 X66.838 Y94.2
G0 F2250 X67.505 Y94.8
G1 F900 X50.046 Y94.8 E90.36678
G1 X49.946 Y94.8
G0 F2250 X49.686 Y95.4
G1 F900 X68.271 Y95.4 E91.10093
G1 X68.371 Y95.4
G0 F2250 X69.038 Y96
G1 F900 X49.325 Y96 E91.87964
G1 X49.225 Y96
G0 F2250 X48.965 Y96.6
G1 F900 X69.804 Y96.6 E92.70282
G1 X69.904 Y96.6
G0 F2250 X70.57 Y97.2
G1 F900 X48.604 Y97.2 E93.57053
G1 X48.504 Y97.2
G0 F2250 X48.244 Y97.8
G1 F900 X71.337 Y97.8 E94.48275
G1 X71.437 Y97.8
G0 F2250 X72.103 Y98.4
G1 F900 X47.883 Y98.4 E95.43949
G1 X47.783 Y98.4
G0 F2250 X47.523 Y99
G1 F900 X72.869 Y99 E96.44071
G1 X72.969 Y99
G0 F2250 X73.636 Y99.6
G1 F900 X47.162 Y99.6 E97.48649
G1 X47.062 Y99.6
G0 F2250 X46.802 Y100.2
G1 F900 X74.402 Y100.2 E98.57675
G1 X74.502 Y100.2
G0 F2250 X75.169 Y100.8
G1 F900 X46.441 Y100.8 E99.71157
G1 X46.341 Y100.8
G0 F2250 X46.081 Y101.4
G1 F900 X75.935 Y101.4 E100.89087
G1 X76.035 Y101.4
G0 F2250 X76.701 Y102
G1 F900 X45.72 Y102 E102.11469
G1 X45.62 Y102
G0 F2250 X45.36 Y102.6
G1 F900 X77.468 Y102.6 E103.38302
G1 X77.568 Y102.6
G0 F2250 X78.234 Y103.2
G1 F900 X44.999 Y103.2 E104.69588
G1 X44.899 Y103.2
G0 F2250 X44.639 Y103.8
G1 F900 X79.001 Y103.8 E106.05325
G1 X79.101 Y103.8
G0 F2250 X79.767 Y104.4
G1 F900 X44.278 Y104.4 E107.45514
G1 X44.178 Y104.4
G0 F2250 X43.918 Y105
G1 F900 X80.533 Y105 E108.90151
G1 X80.633 Y105
G0 F2250 X81.3 Y105.6
G1 F900 X43.557 Y105.6 E110.39245
G1 X43.457 Y105.6
G0 F2250 X43.197 Y106.2
G1 F900 X82.066 Y106.2 E111.92785
G1 X82.166 Y106.2
G0 F2250 X82.832 Y106.8
G1 F900 X42.836 Y106.8 E113.50778
G1 X42.736 Y106.8
G0 F2250 X43.064 Y107.4
G1 F900 X83.067 Y107.4 E115.08799
G1 X83.167 Y107.4
G0 F2250 X83.067 Y108
G1 F900 X43.601 Y108 E116.64698
G1 X43.501 Y108
G0 F2250 X44.138 Y108.6
G1 F900 X83.067 Y108.6 E118.18476
G1 X83.167 Y108.6
G0 F2250 X83.067 Y109.2
G1 F900 X44.675 Y109.2 E119.70133
G1 X44.575 Y109.2
G0 F2250 X45.213 Y109.8
G1 F900 X83.067 Y109.8 E121.19664
G1 X83.167 Y109.8
G0 F2250 X83.067 Y110.4
G1 F900 X45.75 Y110.4 E122.67075
G1 X45.65 Y110.4
G0 F2250 X46.287 Y111
G1 F900 X83.067 Y111 E124.12364
G1 X83.167 Y111
G0 F2250 X83.067 Y111.6
G1 F900 X46.824 Y111.6 E125.55531
G1 X46.724 Y111.6
G0 F2250 X47.361 Y112.2
G1 F900 X83.067 Y112.2 E126.96578
G1 X83.167 Y112.2
G0 F2250 X83.067 Y112.8
G1 F900 X47.898 Y112.8 E128.35503
G1 X47.798 Y112.8
G0 F2250 X48.435 Y113.4
G1 F900 X83.067 Y113.4 E129.72307
G1 X83.167 Y113.4
G0 F2250 X83.067 Y114
G1 F900 X48.972 Y114 E131.06989
G1 X48.872 Y114
G0 F2250 X49.509 Y114.6
G1 F900 X83.067 Y114.6 E132.39551
G1 X83.167 Y114.6
G0 F2250 X83.067 Y115.2
G1 F900 X50.046 Y115.2 E133.69991
G1 X49.946 Y115.2
G0 F2250 X50.584 Y115.8
