;Generated by Cura LulzBot Edition GCodeWriter Version: 2.6.69
;FLAVOR:RepRap
;TIME:10854
;Filament used: 9.45164m
;Layer height: 0.378
;Generated with Cura_SteamEngine 2.6.69
;This G-Code has been generated specifically for the LulzBot Mini with Aerostruder
G26 ; clear potential 'probe fail' condition
G21 ; set units to Millimetres
M107 ; disable fans
G90 ; absolute positioning
M82 ; set extruder to absolute mode
G92 E0 ; set extruder position to 0
M140 S115 ; start bed heating up
G28 ; home all axes
G0 X0 Y187 Z156 F200 ; move away from endstops
M109 R170 ; soften filament before retraction
G1 E-15 F75 ; retract filament
M109 R170 ; wait for extruder to reach wiping temp
G1 X45 Y173 F11520 ; move above wiper pad
G1 Z0 F1200 ; push nozzle into wiper
G1 X42 Y173 Z-.5 F4000 ; wiping
G1 X52 Y171 Z-.5 F4000 ; wiping
G1 X42 Y173 Z0 F4000 ; wiping
G1 X52 Y171 F4000 ; wiping
G1 X42 Y173 F4000 ; wiping
G1 X52 Y171 F4000 ; wiping
G1 X42 Y173 F4000 ; wiping
G1 X52 Y171 F4000 ; wiping
G1 X57 Y173 F4000 ; wiping
G1 X77 Y171 F4000 ; wiping
G1 X57 Y173 F4000 ; wiping
G1 X77 Y171 F4000 ; wiping
G1 X57 Y173 F4000 ; wiping
G1 X87 Y171 F4000 ; wiping
G1 X77 Y173 F4000 ; wiping
G1 X97 Y171 F4000 ; wiping
G1 X77 Y173 F4000 ; wiping
G1 X97 Y171 F4000 ; wiping
G1 X77 Y173 F4000 ; wiping
G1 X97 Y171 F4000 ; wiping
G1 X107 Y173 F4000 ; wiping
G1 X97 Y171 F4000 ; wiping
G1 X107 Y173 F4000 ; wiping
G1 X97 Y171 F4000 ; wiping
G1 X107 Y173 F4000 ; wiping
G1 X112 Y171 Z-0.5 F1000 ; wiping
G1 Z10 ; raise extruder
G28 X0 Y0 ; home X and Y
G0 X0 Y187 F200 ; move away from endstops
M109 R170 ; wait for extruder to reach probe temp
M204 S300 ; set probing acceleration
G29 ; start auto-leveling sequence
M204 S2000 ; restore standard acceleration
G28 X0 Y0 ; re-home to account for build variance of earlier mini builds
G0 X0 Y187 F200 ; move away from endstops
G0 Y152 F4000 ; move in front of wiper pad
G4 S1 ; pause
M400 ; wait for moves to finish
M117 Heating... ; progress indicator message on LCD
M109 R250 ; wait for extruder to reach printing temp
M190 S116 ; wait for bed to reach printing temp
G1 Z2 E0 F75 ; prime tiny bit of filament into the nozzle
M117 Mini Printing... ; progress indicator message on LCD


M221 S100
;LAYER_COUNT:177
;LAYER:0
M107
M204 S1000
M205 X10
G0 F2250 X42.734 Y21.824 Z0.42
;TYPE:SKIRT
G1 F900 X43 Y21.385 E0.02028
G1 X43.331 Y20.992 E0.04057
G1 X43.718 Y20.656 E0.06082
G1 X44.154 Y20.384 E0.08112
G1 X44.626 Y20.182 E0.1014
G1 X45.124 Y20.056 E0.12169
G1 X45.681 Y20.009 E0.14377
G1 X63.163 Y20.01 E0.83435
G1 X63.653 Y20.047 E0.85376
G1 X67.455 Y20.618 E1.00563
G1 X72.911 Y21.183 E1.22231
G1 X78.367 Y21.439 E1.43807
G1 X83.843 Y21.386 E1.65439
G1 X89.299 Y21.023 E1.87039
G1 X96.731 Y20.04 E2.16653
G1 X97.164 Y20.011 E2.18367
G1 X108.163 Y20.01 E2.61816
G1 X108.675 Y20.05 E2.63844
G1 X109.174 Y20.169 E2.65871
G1 X109.649 Y20.364 E2.67899
G1 X110.088 Y20.63 E2.69927
G1 X110.481 Y20.961 E2.71956
G1 X110.817 Y21.349 E2.73984
G1 X111.089 Y21.784 E2.76011
G1 X111.29 Y22.256 E2.78037
G1 X111.416 Y22.754 E2.80066
G1 X111.463 Y23.31 E2.8227
G1 X111.462 Y57.295 E4.16519
G1 X111.422 Y57.807 E4.18547
G1 X111.369 Y58.073 E4.19619
G1 X110.123 Y63.209 E4.40496
G1 X109.591 Y65.857 E4.51165
G1 X109.134 Y68.555 E4.61974
G1 X108.442 Y73.974 E4.83554
G1 X108.059 Y79.435 E5.05179
G1 X107.984 Y84.912 E5.26817
G1 X108.219 Y90.367 E5.48385
G1 X108.763 Y95.818 E5.70025
G1 X109.617 Y101.247 E5.91734
G1 X110.14 Y103.847 E6.0221
G1 X111.435 Y109.146 E6.23759
G1 X111.517 Y109.652 E6.25784
G1 X111.529 Y109.927 E6.26871
G1 X111.541 Y132.461 E7.15885
G1 X111.501 Y132.973 E7.17914
G1 X111.383 Y133.473 E7.19943
G1 X111.188 Y133.948 E7.21971
G1 X110.922 Y134.387 E7.23999
G1 X110.591 Y134.78 E7.26029
G1 X110.204 Y135.116 E7.28053
G1 X109.768 Y135.388 E7.30083
G1 X109.296 Y135.59 E7.32111
G1 X108.798 Y135.716 E7.34141
G1 X108.241 Y135.763 E7.36349
G1 X90.747 Y135.761 E8.05454
G1 X90.3 Y135.731 E8.07223
G1 X83.724 Y134.832 E8.33442
G1 X78.265 Y134.421 E8.55067
G1 X72.826 Y134.321 E8.76556
G1 X67.336 Y134.53 E8.98258
G1 X61.889 Y135.046 E9.19871
G1 X57.237 Y135.726 E9.38443
G1 X56.76 Y135.761 E9.40332
G1 X45.759 Y135.762 E9.83789
G1 X45.247 Y135.722 E9.85817
G1 X44.748 Y135.603 E9.87844
G1 X44.273 Y135.408 E9.89872
G1 X43.834 Y135.142 E9.919
G1 X43.441 Y134.811 E9.9393
G1 X43.105 Y134.423 E9.95957
G1 X42.833 Y133.988 E9.97984
G1 X42.632 Y133.516 E10.0001
G1 X42.506 Y133.018 E10.02039
G1 X42.459 Y132.462 E10.04244
G1 X42.461 Y98.472 E11.38511
G1 X42.501 Y97.96 E11.4054
G1 X42.554 Y97.694 E11.41611
G1 X43.799 Y92.563 E11.62468
G1 X44.331 Y89.915 E11.73137
G1 X44.788 Y87.217 E11.83947
G1 X45.48 Y81.798 E12.05527
G1 X45.863 Y76.337 E12.27152
G1 X45.938 Y70.86 E12.48789
G1 X45.703 Y65.405 E12.70358
G1 X45.159 Y59.954 E12.91997
G1 X44.305 Y54.525 E13.13707
G1 X43.782 Y51.925 E13.24183
G1 X42.487 Y46.626 E13.45731
G1 X42.405 Y46.12 E13.47756
G1 X42.393 Y45.845 E13.48844
G1 X42.381 Y23.311 E14.37858
G1 X42.421 Y22.799 E14.39886
G1 X42.539 Y22.299 E14.41916
G1 X42.546 Y22.282 E14.41988
G0 F810 X42.734 Y21.824
G1 F420 E13.41988
G0 F2250 X45.007 Y24.5
G0 X46.872 Y24.5
;TYPE:WALL-INNER
G1 F420 E14.43944
G1 F900 X62.379 Y24.5 E14.84781
G1 X70.505 Y43.5 E15.39201
G1 X71.703 Y43.5 E15.42356
G1 X71.703 Y55 E15.72641
G1 X71.714 Y55 E15.7267
G1 X73.928 Y55 E15.78501
G1 X73.929 Y55 E15.78503
G1 X74.39 Y55 E15.79717
G1 X74.074 Y55.336 E15.80375
G1 X73.905 Y55.516 E15.81025
G1 X73.487 Y56.278 E15.83314
G1 X73.28 Y57.085 E15.85508
G1 X73.272 Y57.117 E15.85595
G1 X73.272 Y57.84 E15.87499
G1 X72.954 Y57.31 E15.88214
G1 X72.937 Y57.281 E15.883
G1 X71.714 Y55.246 E15.94546
G1 X58.674 Y63.08 E16.34608
G1 X58.372 Y63.261 E16.35535
G1 X58.372 Y62.909 E16.36059
G1 X58.372 Y62.908 E16.36062
G1 X58.372 Y56.803 E16.52139
G1 X46.872 Y45.302 E16.9497
G1 X46.872 Y25.242 E17.47798
G0 F810 X46.872 Y24.5
G1 F420 E16.47798
G0 F2250 X46.872 Y22.635
G0 X63.627 Y22.643
G0 X79.783 Y43.499
G0 X81.65 Y43.5
G1 F420 E17.49752
G1 F900 X82.882 Y43.5 E17.52996
G1 X97.757 Y24.5 E18.16543
G1 X106.972 Y24.5 E18.4081
G1 X106.972 Y56.763 E19.25774
G1 X97.81 Y64.965 E19.58158
G1 X81.631 Y55.245 E20.07863
G1 X81.561 Y55.361 E20.0822
G1 X80.469 Y57.179 E20.13804
G1 X80.225 Y57.586 E20.15054
G1 X80.141 Y57.726 E20.15484
G1 X80.163 Y57.55
G1 X80.104 Y57.079 E20.16248
G1 X80.055 Y56.69 E20.1728
G1 X79.736 Y55.883 E20.19565
G1 X79.351 Y55.355 E20.21286
G1 X79.225 Y55.182 E20.2185
G1 X79.005 Y55 E20.22602
G1 X79.225 Y55
G1 X79.439 Y55 E20.23029
G1 X81.505 Y55 E20.2847
G1 X81.641 Y55 E20.28767
G1 X81.65 Y43.5 E20.59052
G1 F420 E19.59052
G0 F2250 X79.783 Y43.499
G0 X78.177 Y53.135
G0 X78.163 Y53.214
G0 X77.664 Y56.212
G0 X77.651 Y56.291
G0 X77.191 Y59.053
G0 X77.873 Y60.792
G1 F420 E20.59052
G1 F900 X77.874 Y60.791 E20.59056
G1 X78.468 Y60.512 E20.60784
G1 X78.131 Y61.075 E20.61686
G1 X78.13 Y61.076 E20.6169
G1 X77.145 Y62.715 E20.66725
G1 X90.781 Y70.91 E21.08622
G1 X91.013 Y71.049 E21.09334
G1 X90.811 Y71.229 E21.09759
G1 X89.838 Y72.1 E21.13198
G1 X62.097 Y72.1 E21.86254
G1 X62.097 Y72.255 E21.86662
G1 X61.058 Y72.255 E21.89398
G1 X61.057 Y72.255 E21.89401
G1 X60.338 Y72.255 E21.91294
G1 X60.955 Y71.884 E21.92277
G1 X76.2 Y62.716 E22.39124
G1 X75.17 Y61.002 E22.44391
G1 X75.045 Y60.793 E22.45032
G1 X74.822 Y60.421 E22.46174
G1 X75.232 Y60.681 E22.46594
G1 X75.464 Y60.756 E22.47098
G1 X76.058 Y60.948 E22.48742
G1 X76.92 Y61.002 E22.51017
G1 X77.638 Y60.865 E22.52942
G0 F810 X77.771 Y60.84
G0 X77.873 Y60.792
G0 F2250 X77.694 Y62.578
G1 F420 E22.53595
G1 F900 X91.452 Y70.846 E22.95865
G1 X91.684 Y70.985 E22.96578
G1 X91.482 Y71.165 E22.97003
G1 X89.991 Y72.5 E23.02274
G1 X62.497 Y72.5 E23.74678
G1 X62.497 Y72.655 E23.75087
G1 X59.616 Y72.655 E23.82674
G1 X59.615 Y72.655 E23.82676
G1 X58.896 Y72.655 E23.8457
G1 X59.513 Y72.284 E23.85552
G1 X75.651 Y62.579 E24.35144
G1 X71.679 Y55.966 E24.55459
G1 X71.577 Y55.795 E24.55984
G1 X71.406 Y55.897 E24.56323
G1 X58.274 Y63.787 E24.96668
G1 X57.972 Y63.968 E24.97595
G1 X57.972 Y63.616 E24.98119
G1 X57.972 Y63.615 E24.98122
G1 X57.972 Y56.969 E25.15624
G1 X46.472 Y45.468 E25.58455
G1 X46.472 Y24.1 E26.14727
G1 X62.643 Y24.1 E26.57313
G1 X70.769 Y43.1 E27.11733
G1 X72.103 Y43.1 E27.15246
G1 X72.103 Y54.6 E27.45531
G1 X75.032 Y54.6 E27.53245
G1 X75.403 Y54.6 E27.54222
G1 X75.971 Y54.6 E27.55718
G1 X75.403 Y54.784 E27.56124
G1 X75.09 Y54.983 E27.56847
G1 X74.756 Y55.195 E27.57889
G1 X74.231 Y55.753 E27.59906
G1 X73.862 Y56.426 E27.61928
G1 X73.672 Y57.167 E27.63942
G1 X73.672 Y57.933 E27.65959
G1 X73.862 Y58.674 E27.67974
G1 X74.231 Y59.346 E27.69993
G1 X74.756 Y59.905 E27.72012
G1 X75.403 Y60.316 E27.74031
G1 X76.133 Y60.552 E27.76051
G1 X76.895 Y60.6 E27.78062
G1 X77.647 Y60.457 E27.80078
G1 X78.342 Y60.13 E27.82101
G1 X78.931 Y59.642 E27.84115
G1 X79.266 Y59.183 E27.85611
G1 X79.383 Y59.023 E27.86133
G1 X79.422 Y58.923 E27.86416
G1 X79.664 Y58.309 E27.88154
G1 X79.76 Y57.55 E27.90169
G1 X79.664 Y56.79 E27.92186
G1 X79.383 Y56.077 E27.94204
G1 X78.931 Y55.458 E27.96223
G1 X78.373 Y54.996 E27.98131
G1 X78.342 Y54.97 E27.98237
G1 X77.648 Y54.643 E28.00258
G1 X77.423 Y54.6 E28.00861
G1 X77.648 Y54.6
G1 X78.342 Y54.6 E28.01781
G1 X78.383 Y54.6 E28.01885
G1 X81.241 Y54.6 E28.09411
G1 X81.25 Y43.1 E28.39696
G1 X82.687 Y43.1 E28.43481
G1 X97.562 Y24.1 E29.07027
G1 X107.372 Y24.1 E29.32861
G1 X107.372 Y56.942 E30.1935
G1 X97.857 Y65.46 E30.52982
G1 X81.939 Y55.896 E31.01886
G1 X81.768 Y55.794 E31.0241
G1 X81.666 Y55.965 E31.02749
G1 X79.766 Y59.127 E31.12464
G1 X79.711 Y59.219 E31.1274
G1 X79.609 Y59.389 E31.1325
G1 X77.694 Y62.578 E31.23047
G1 F420 E30.23047
G0 F2250 X79.688 Y62.081
G0 X94.113 Y70.755
G0 X90.55 Y73.962
G0 X90.182 Y73.965
G0 X90.182 Y73
;TYPE:WALL-OUTER
G1 F420 E31.23047
G1 F900 X62.997 Y73 E32.30433
G1 X62.997 Y73.155 E32.31045
G1 X58.143 Y73.155 E32.5022
G1 X57.472 Y73.155 E32.5287
G1 X57.472 Y72.928 E32.53767
G1 X58.047 Y72.583 E32.55622
G1 X74.965 Y62.408 E33.33608
G1 X71.56 Y56.738 E33.59734
G1 X71.406 Y56.481 E33.60917
G1 X71.149 Y56.635 E33.61682
G1 X57.926 Y64.58 E34.22619
G1 X57.472 Y64.852 E34.2471
G1 X57.472 Y64.323 E34.25891
G1 X57.472 Y64.322 E34.25895
G1 X57.472 Y57.176 E34.54123
G1 X45.972 Y45.676 E35.18367
G1 X45.972 Y23.6 E36.05572
G1 X62.973 Y23.6 E36.7273
G1 X71.099 Y42.6 E37.5436
G1 X72.603 Y42.6 E37.60301
G1 X72.603 Y54.1 E38.05729
G1 X80.741 Y54.1 E38.37876
G1 X80.75 Y42.6 E38.83303
G1 X82.443 Y42.6 E38.89991
G1 X97.318 Y23.6 E39.8531
G1 X107.872 Y23.6 E40.27001
G1 X107.872 Y57.166 E41.59594
G1 X97.915 Y66.079 E42.12383
G1 X82.196 Y56.634 E42.84823
G1 X81.939 Y56.48 E42.86007
G1 X81.785 Y56.737 E42.86772
G1 X78.38 Y62.407 E43.12898
G1 X92.175 Y70.696 E43.76472
G1 X92.523 Y70.905 E43.78075
G1 X92.221 Y71.175 E43.79031
G1 X90.182 Y73 E43.89841
G0 F2250 X89.932 Y73
G1 F420 E42.89841
G0 F2250 X89.932 Y73.965
G0 X89.922 Y73.955
G0 X89.869 Y73.895
G0 X76.86 Y59.19
G0 X76.807 Y59.13
G0 X76.805 Y59.127
G0 X76.864 Y60.097
G1 F420 E43.89841
G1 F900 X77.492 Y59.978 E43.92366
G1 X78.072 Y59.705 E43.94898
G1 X78.564 Y59.297 E43.97423
G1 X78.941 Y58.78 E43.99951
G1 X79.176 Y58.184 E44.02481
G1 X79.256 Y57.55 E44.05006
G1 X79.176 Y56.915 E44.07534
G1 X78.941 Y56.32 E44.10061
G1 X78.564 Y55.803 E44.12588
G1 X78.072 Y55.395 E44.15113
G1 X77.492 Y55.122 E44.17645
G1 X76.864 Y55.002 E44.20171
G1 X76.226 Y55.043 E44.22697
G1 X75.617 Y55.24 E44.25225
G1 X75.077 Y55.583 E44.27752
G1 X74.639 Y56.049 E44.30278
G1 X74.331 Y56.611 E44.3281
G1 X74.172 Y57.23 E44.35334
G1 X74.172 Y57.87 E44.37863
G1 X74.331 Y58.489 E44.40387
G1 X74.639 Y59.05 E44.42915
G1 X75.077 Y59.517 E44.45444
G1 X75.617 Y59.86 E44.47971
G1 X76.227 Y60.057 E44.50504
G1 X76.37 Y60.066 E44.5107
G0 F810 X76.864 Y60.097
G0 F2250 X77.109 Y60.051
G0 X77.996 Y61.2
;TYPE:SKIN
G1 F420 E44.53025
G1 F900 X75.348 Y61.2 E44.63485
G1 X75.248 Y61.2
G0 F2250 X75.708 Y61.8
G1 F900 X77.636 Y61.8 E44.71101
G1 X77.736 Y61.8
G0 F2250 X77.275 Y62.4
G1 F900 X76.068 Y62.4 E44.75869
G1 X75.968 Y62.4
G0 F2250 X75.823 Y63
G1 F900 X77.525 Y63 E44.82592
G1 X77.625 Y63
G0 F2250 X78.523 Y63.6
G1 F900 X74.825 Y63.6 E44.972
G1 X74.725 Y63.6
G0 F2250 X73.828 Y64.2
G1 F900 X79.522 Y64.2 E45.19693
G1 X79.622 Y64.2
G0 F2250 X80.52 Y64.8
G1 F900 X72.83 Y64.8 E45.5007
G1 X72.73 Y64.8
G0 F2250 X71.832 Y65.4
G1 F900 X81.518 Y65.4 E45.88332
G1 X81.618 Y65.4
G0 F2250 X82.517 Y66
G1 F900 X70.835 Y66 E46.34478
G1 X70.735 Y66
G0 F2250 X69.837 Y66.6
G1 F900 X83.515 Y66.6 E46.88509
G1 X83.615 Y66.6
G0 F2250 X84.513 Y67.2
G1 F900 X68.84 Y67.2 E47.50421
G1 X68.74 Y67.2
G0 F2250 X67.842 Y67.8
G1 F900 X85.511 Y67.8 E48.20217
G1 X85.611 Y67.8
G0 F2250 X86.51 Y68.4
G1 F900 X66.844 Y68.4 E48.97902
G1 X66.744 Y68.4
G0 F2250 X65.847 Y69
G1 F900 X87.508 Y69 E49.83468
G1 X87.608 Y69
G0 F2250 X88.506 Y69.6
G1 F900 X64.848 Y69.6 E50.76922
G1 X64.748 Y69.6
G0 F2250 X63.85 Y70.2
G1 F900 X89.505 Y70.2 E51.78265
G1 X89.605 Y70.2
G0 F2250 X90.503 Y70.8
G1 F900 X62.853 Y70.8 E52.87489
G1 X62.753 Y70.8
G0 F2250 X61.855 Y71.4
G1 F900 X90.546 Y71.4 E54.00824
G1 X90.646 Y71.4
G0 F2250 X89.874 Y72
G1 F900 X60.886 Y72 E55.15333
G1 X60.786 Y72
G1 F420 E54.15333
G0 F2250 X59.818 Y70.392
G0 X72.988 Y60.992
G0 X73.053 Y60.946
G0 X75.845 Y58.953
G0 X75.91 Y58.907
G0 X78.246 Y57.241
G0 X80.144 Y57
G1 F420 E55.15333
G1 F900 X80.519 Y57 E55.16814
G0 F2250 X80.879 Y56.4
G1 F900 X79.993 Y56.4 E55.20314
G0 F2250 X79.738 Y55.8
G1 F900 X81.239 Y55.8 E55.26244
G1 X81.339 Y55.8
G0 F2250 X81.599 Y55.2
G1 F900 X79.318 Y55.2 E55.35254
G1 X79.218 Y55.2
G0 F2250 X81.692 Y55.2
G1 F900 X106.922 Y55.2 E56.34918
G1 X107.022 Y55.2
G0 F2250 X106.922 Y54.6
G1 F900 X81.692 Y54.6 E57.34582
G1 X81.592 Y54.6
G0 F2250 X81.692 Y54
G1 F900 X106.922 Y54 E58.34246
G1 X107.022 Y54
G0 F2250 X106.922 Y53.4
G1 F900 X81.693 Y53.4 E59.33906
G1 X81.593 Y53.4
G0 F2250 X81.693 Y52.8
G1 F900 X106.922 Y52.8 E60.33566
G1 X107.022 Y52.8
G0 F2250 X106.922 Y52.2
G1 F900 X81.694 Y52.2 E61.33222
G1 X81.594 Y52.2
G0 F2250 X81.694 Y51.6
G1 F900 X106.922 Y51.6 E62.32878
G1 X107.022 Y51.6
G0 F2250 X106.922 Y51
G1 F900 X81.695 Y51 E63.3253
G1 X81.595 Y51
G0 F2250 X81.695 Y50.4
G1 F900 X106.922 Y50.4 E64.32182
G1 X107.022 Y50.4
G0 F2250 X106.922 Y49.8
G1 F900 X81.696 Y49.8 E65.31831
G1 X81.596 Y49.8
G0 F2250 X81.696 Y49.2
G1 F900 X106.922 Y49.2 E66.31479
G1 X107.022 Y49.2
G0 F2250 X106.922 Y48.6
G1 F900 X81.697 Y48.6 E67.31123
G1 X81.597 Y48.6
G0 F2250 X81.697 Y48
G1 F900 X106.922 Y48 E68.30767
G1 X107.022 Y48
G0 F2250 X106.922 Y47.4
G1 F900 X81.698 Y47.4 E69.30407
G1 X81.598 Y47.4
G0 F2250 X81.698 Y46.8
G1 F900 X106.922 Y46.8 E70.30048
G1 X107.022 Y46.8
G0 F2250 X106.922 Y46.2
G1 F900 X81.698 Y46.2 E71.29688
G1 X81.598 Y46.2
G0 F2250 X81.699 Y45.6
G1 F900 X106.922 Y45.6 E72.29324
G1 X107.022 Y45.6
G0 F2250 X106.922 Y45
G1 F900 X81.699 Y45 E73.28961
G1 X81.599 Y45
G0 F2250 X81.7 Y44.4
G1 F900 X106.922 Y44.4 E74.28593
G1 X107.022 Y44.4
G0 F2250 X106.922 Y43.8
G1 F900 X81.7 Y43.8 E75.28225
G1 X81.6 Y43.8
G0 F2250 X83.18 Y43.2
G1 F900 X106.922 Y43.2 E76.22011
G1 X107.022 Y43.2
G0 F2250 X106.922 Y42.6
G1 F900 X83.649 Y42.6 E77.13945
G1 X83.549 Y42.6
G0 F2250 X84.119 Y42
G1 F900 X106.922 Y42 E78.04022
G1 X107.022 Y42
G0 F2250 X106.922 Y41.4
G1 F900 X84.589 Y41.4 E78.92242
G1 X84.489 Y41.4
G0 F2250 X85.059 Y40.8
G1 F900 X106.922 Y40.8 E79.78605
G1 X107.022 Y40.8
G0 F2250 X106.922 Y40.2
G1 F900 X85.528 Y40.2 E80.63116
G1 X85.428 Y40.2
G0 F2250 X85.998 Y39.6
G1 F900 X106.922 Y39.6 E81.45771
G1 X107.022 Y39.6
G0 F2250 X106.922 Y39
G1 F900 X86.468 Y39 E82.26568
G1 X86.368 Y39
G0 F2250 X86.938 Y38.4
G1 F900 X106.922 Y38.4 E83.0551
G1 X107.022 Y38.4
G0 F2250 X106.922 Y37.8
G1 F900 X87.407 Y37.8 E83.82598
G1 X87.307 Y37.8
G0 F2250 X87.877 Y37.2
G1 F900 X106.922 Y37.2 E84.5783
G1 X107.022 Y37.2
G0 F2250 X106.922 Y36.6
G1 F900 X88.347 Y36.6 E85.31205
G1 X88.247 Y36.6
G0 F2250 X88.817 Y36
G1 F900 X106.922 Y36 E86.02724
G1 X107.022 Y36
G0 F2250 X106.922 Y35.4
G1 F900 X89.286 Y35.4 E86.7239
G1 X89.186 Y35.4
G0 F2250 X89.756 Y34.8
G1 F900 X106.922 Y34.8 E87.40199
G1 X107.022 Y34.8
G0 F2250 X106.922 Y34.2
G1 F900 X90.226 Y34.2 E88.06152
