;Generated by Cura LulzBot Edition GCodeWriter Version: 2.6.56
;FLAVOR:RepRap
;TIME:7033
;Filament used: 2.39641m
;Layer height: 0.378
;Generated with Cura_SteamEngine 2.6.56
;This G-Code has been generated specifically for the LulzBot Mini with standard extruder
G26                                ; clear potential 'probe fail' condition
G21                                ; set units to Millimetres
M107                               ; disable fans
G90                                ; absolute positioning
M82                                ; set extruder to absolute mode
G92 E0                             ; set extruder position to 0
M140 S115   ; start bed heating up
M109 R175 ; soften filament before homing Z
G28                                ; home all axes
M109 R170  ; wait for extruder to reach wiping temp
G1 Z150 E-15 F75                   ; retract filament
G1 X45 Y174 F11520                 ; move above wiper pad
G1 Z0  F1200                       ; push nozzle into wiper
G1 X45 Y174 Z-.5 F4000             ; wiping
G1 X55 Y172 Z-.5 F4000             ; wiping
G1 X45 Y174 Z0 F4000               ; wiping
G1 X55 Y172 F4000                  ; wiping
G1 X45 Y174 F4000                  ; wiping
G1 X55 Y172 F4000                  ; wiping
G1 X45 Y174 F4000                  ; wiping
G1 X55 Y172 F4000                  ; wiping
G1 X60 Y174 F4000                  ; wiping
G1 X80 Y172 F4000                  ; wiping
G1 X60 Y174 F4000                  ; wiping
G1 X80 Y172 F4000                  ; wiping
G1 X60 Y174 F4000                  ; wiping
G1 X90 Y172 F4000                  ; wiping
G1 X80 Y174 F4000                  ; wiping
G1 X100 Y172 F4000                 ; wiping
G1 X80 Y174 F4000                  ; wiping
G1 X100 Y172 F4000                 ; wiping
G1 X80 Y174 F4000                  ; wiping
G1 X100 Y172 F4000                 ; wiping
G1 X110 Y174 F4000                 ; wiping
G1 X100 Y172 F4000                 ; wiping
G1 X110 Y174 F4000                 ; wiping
G1 X100 Y172 F4000                 ; wiping
G1 X110 Y174 F4000                 ; wiping
G1 X115 Y172 Z-0.5 F1000           ; wiping
G1 Z10                             ; raise extruder
G28 X0 Y0                          ; home X and Y
M109 R170 ; wait for extruder to reach probe temp
M204 S300                          ; set probing acceleration
G29                                ; start auto-leveling sequence
M204 S2000                         ; restore standard acceleration
G1 X5 Y15 Z10 F5000                ; move up off last probe point
G4 S1                              ; pause
M400                               ; wait for moves to finish
M117 Heating...                    ; progress indicator message on LCD
M109 R245 ; wait for extruder to reach printing temp
M190 S116   ; wait for bed to reach printing temp
G1 Z2 E0 F75                       ; prime tiny bit of filment into the nozzle
M117 Mini Printing...              ; progress indicator message on LCD

;LAYER_COUNT:28
;LAYER:0
M107
M204 S800
M205 X2
G0 F2250 X64.051 Y5.932 Z0.42
;TYPE:SKIRT
G1 F900 X64.111 Y5.422 E0.02029
G1 X64.197 Y5.08 E0.03422
G1 X64.431 Y4.326 E0.0654
G1 X64.621 Y3.849 E0.08568
G1 X64.915 Y3.361 E0.10819
G1 X65.199 Y2.971 E0.12725
G1 X65.533 Y2.581 E0.14753
G1 X65.757 Y2.377 E0.1595
G1 X66.137 Y2.061 E0.17902
G1 X66.556 Y1.764 E0.19931
G1 X66.855 Y1.606 E0.21267
G1 X67.36 Y1.371 E0.23467
G1 X67.841 Y1.191 E0.25496
G1 X68.39 Y1.083 E0.27706
G1 X69.252 Y0.988 E0.31132
G1 X69.674 Y0.969 E0.328
G1 X85.63 Y1.261 E0.95841
G1 X86.141 Y1.31 E0.97868
G1 X86.639 Y1.438 E0.999
G1 X87.11 Y1.641 E1.01926
G1 X87.544 Y1.916 E1.03955
G1 X87.93 Y2.254 E1.05982
G1 X88.26 Y2.648 E1.08012
G1 X88.524 Y3.088 E1.10039
G1 X88.716 Y3.564 E1.12067
G1 X88.833 Y4.064 E1.14095
G1 X88.87 Y4.611 E1.16261
G1 X88.715 Y14.555 E1.55546
G1 X88.711 Y14.663 E1.55973
G1 X88.488 Y19.281 E1.74237
G1 X88.455 Y22.013 E1.85029
G1 X88.569 Y26.907 E2.04367
G1 X88.57 Y27.038 E2.04885
G1 X88.412 Y36.621 E2.42745
G1 X88.404 Y36.796 E2.43437
G1 X88.244 Y39.088 E2.52513
G1 X88.08 Y44.63 E2.74414
G1 X88.158 Y48.982 E2.91608
G1 X88.159 Y49.095 E2.92055
G1 X88.001 Y58.68 E3.29923
G1 X87.999 Y58.747 E3.30188
G1 X87.731 Y66.057 E3.59083
G1 X87.837 Y70.824 E3.77918
G1 X87.838 Y70.951 E3.7842
G1 X87.679 Y80.658 E4.1677
G1 X87.67 Y80.85 E4.17529
G1 X87.417 Y84.233 E4.3093
G1 X87.254 Y89.757 E4.52761
G1 X87.288 Y92.906 E4.65201
G1 X87.287 Y93.002 E4.6558
G1 X87.103 Y103.099 E5.05472
G1 X87.099 Y103.222 E5.05958
G1 X86.841 Y107.852 E5.24276
G1 X86.873 Y114.919 E5.52192
G1 X86.872 Y114.998 E5.52504
G1 X86.65 Y126.488 E5.97901
G1 X86.652 Y132.067 E6.19939
G1 X86.886 Y136.899 E6.39049
G1 X86.89 Y137.112 E6.3989
G1 X86.737 Y146.687 E6.77719
G1 X86.688 Y147.198 E6.79746
G1 X86.562 Y147.695 E6.81772
G1 X86.359 Y148.167 E6.83801
G1 X86.086 Y148.602 E6.8583
G1 X85.749 Y148.989 E6.87857
G1 X85.355 Y149.319 E6.89887
G1 X84.916 Y149.584 E6.91913
G1 X84.44 Y149.778 E6.93943
G1 X83.94 Y149.895 E6.95972
G1 X83.386 Y149.934 E6.98166
G1 X65.176 Y149.652 E7.70108
G1 X64.665 Y149.604 E7.72135
G1 X64.167 Y149.477 E7.74165
G1 X63.695 Y149.275 E7.76194
G1 X63.26 Y149.002 E7.78222
G1 X62.873 Y148.665 E7.80249
G1 X62.543 Y148.272 E7.82277
G1 X62.278 Y147.832 E7.84305
G1 X62.084 Y147.357 E7.86332
G1 X61.966 Y146.857 E7.88362
G1 X61.927 Y146.352 E7.90362
G1 X61.927 Y142.81 E8.04354
G1 X61.562 Y135.473 E8.33373
G1 X61.558 Y135.258 E8.34222
G1 X61.682 Y127.274 E8.65765
G1 X61.685 Y127.188 E8.66104
G1 X61.947 Y120.882 E8.91036
G1 X62.004 Y117.601 E9.03999
G1 X61.913 Y113.086 E9.21837
G1 X61.913 Y112.941 E9.2241
G1 X62.239 Y99.177 E9.76796
G1 X62.092 Y93.653 E9.98625
G1 X61.948 Y91.044 E10.08947
G1 X61.943 Y90.807 E10.09883
G1 X62.069 Y83.251 E10.39735
G1 X62.086 Y82.97 E10.40847
G1 X62.387 Y80.03 E10.52522
G1 X62.71 Y74.553 E10.74195
G1 X62.828 Y63.025 E11.19735
G1 X62.83 Y62.934 E11.20095
G1 X63.043 Y57.321 E11.42283
G1 X63.047 Y51.811 E11.64049
G1 X62.825 Y47.152 E11.82474
G1 X62.821 Y46.94 E11.83311
G1 X62.951 Y39.186 E12.13946
G1 X62.957 Y39.049 E12.14487
G1 X63.28 Y33.502 E12.36436
G1 X63.29 Y27.988 E12.58218
G1 X63.189 Y25.022 E12.69941
G1 X63.188 Y24.84 E12.7066
G1 X63.358 Y16.869 E13.02154
G1 X63.369 Y16.653 E13.03009
G1 X63.853 Y11.097 E13.25039
G1 X64.033 Y6.426 E13.43504
G0 F810 X64.051 Y5.932
G1 F420 E12.43504
G0 F2250 X66.668 Y6.09
G0 X67.938 Y6.275
G0 X68.659 Y5.582
G0 X68.728 Y5.653
;TYPE:WALL-INNER
G1 F420 E13.4546
G1 F900 X68.713 Y6.652 E13.48091
G1 X67.913 Y6.64 E13.50198
G1 X67.919 Y6.274 E13.51162
G1 X67.976 Y5.881 E13.52208
G1 X68.121 Y5.547 E13.53166
G1 X68.347 Y5.261 E13.54126
G1 X68.642 Y5.042 E13.55094
G1 X68.979 Y4.909 E13.56048
G1 X69.38 Y4.862 E13.57111
G1 X84.971 Y5.104 E13.98175
G1 X84.959 Y5.903 E14.00279
G1 X69.469 Y5.664 E14.41077
G0 F810 X68.728 Y5.653
G1 F420 E13.41077
G0 F2250 X68.659 Y5.582
G0 X67.982 Y6.622
G0 X67.964 Y7.907
G0 X67.932 Y9.575
G0 X67.914 Y10.859
G0 X67.918 Y10.91
G0 X67.849 Y10.839
G1 F420 E14.43031
G1 F900 X84.878 Y11.103 E14.87882
G1 X84.834 Y13.902 E14.95254
G1 X67.805 Y13.639 E15.40104
G1 X67.838 Y11.581 E15.45525
G0 F810 X67.849 Y10.839
G0 F2250 X67.918 Y10.91
G0 X84.765 Y13.831
G0 X85.18 Y14.258
;TYPE:WALL-OUTER
G1 F420 E15.47479
G1 F900 X67.449 Y13.985 E15.94179
G1 X67.503 Y10.483 E16.03402
G1 X85.234 Y10.757 E16.50102
G1 X85.191 Y13.516 E16.57369
G0 F810 X85.18 Y14.258
G0 F2250 X84.931 Y14.255
G1 F420 E15.57369
G0 F2250 X84.765 Y13.831
G0 X68.575 Y10.869
G0 X68.593 Y9.586
G0 X68.621 Y7.916
G0 X68.639 Y6.631
G0 X68.644 Y6.581
G0 X69.059 Y7.008
G1 F420 E16.59323
G1 F900 X67.557 Y6.986 E16.63278
G1 X67.568 Y6.248 E16.65222
G1 X67.636 Y5.783 E16.6646
G1 X67.817 Y5.366 E16.67657
G1 X68.101 Y5.007 E16.68862
G1 X68.468 Y4.734 E16.70067
G1 X68.895 Y4.565 E16.71276
G1 X69.36 Y4.511 E16.72509
G1 X85.328 Y4.758 E17.14566
G1 X85.304 Y6.259 E17.18519
G1 X69.074 Y6.009 E17.61265
G1 X69.07 Y6.266 E17.61942
G0 F810 X69.059 Y7.008
G0 F2250 X68.809 Y7.005
G0 X68.27 Y6.327
G1 F420 E17.63896
G1 F900 X68.462 Y5.671 E17.66587
G0 F2250 X69.249 Y5.61
;TYPE:SKIN
G1 F900 X68.708 Y5.069 E17.6961
G0 F2250 X69.401 Y4.912
G1 F900 X70.111 Y5.623 E17.73579
G0 F2250 X70.263 Y4.926
G1 F900 X70.973 Y5.637 E17.77548
G0 F2250 X71.125 Y4.939
G1 F900 X71.834 Y5.649 E17.81511
G0 F2250 X71.987 Y4.953
G1 F900 X72.696 Y5.663 E17.85475
G0 F2250 X72.848 Y4.966
G1 F900 X73.558 Y5.676 E17.89441
G0 F2250 X73.71 Y4.979
G1 F900 X74.42 Y5.69 E17.93411
G0 F2250 X74.572 Y4.992
G1 F900 X75.282 Y5.703 E17.9738
G0 F2250 X75.434 Y5.006
G1 F900 X76.144 Y5.716 E18.01346
G0 F2250 X76.296 Y5.019
G1 F900 X77.006 Y5.729 E18.05313
G0 F2250 X77.158 Y5.033
G1 F900 X77.868 Y5.743 E18.09279
G0 F2250 X78.02 Y5.046
G1 F900 X78.729 Y5.756 E18.13243
G0 F2250 X78.882 Y5.06
G1 F900 X79.591 Y5.769 E18.17203
G0 F2250 X79.743 Y5.073
G1 F900 X80.453 Y5.782 E18.21167
G0 F2250 X80.605 Y5.086
G1 F900 X81.315 Y5.796 E18.25133
G0 F2250 X81.467 Y5.1
G1 F900 X82.177 Y5.809 E18.29097
G0 F2250 X82.329 Y5.113
G1 F900 X83.039 Y5.823 E18.33063
G0 F2250 X83.191 Y5.127
G1 F900 X83.901 Y5.836 E18.37027
G0 F2250 X84.053 Y5.139
G1 F900 X84.762 Y5.849 E18.4099
G1 F420 E17.4099
G0 F2250 X84.764 Y5.801
G0 X84.197 Y5.873
G0 X84.179 Y7.155
G0 X84.134 Y9.826
G0 X84.115 Y11.11
G0 X84.113 Y11.19
G0 X84.114 Y11.141
G1 F420 E18.4099
G1 F900 X84.816 Y11.842 E18.44909
G0 F2250 X84.803 Y12.678
G1 F900 X83.252 Y11.127 E18.53574
G1 X83.182 Y11.057
G0 F2250 X82.39 Y11.114
G1 F900 X84.789 Y13.513 E18.66976
G1 X84.859 Y13.583
G0 F2250 X84.27 Y13.843
G1 F900 X81.528 Y11.1 E18.82297
G1 X81.458 Y11.03
G0 F2250 X80.667 Y11.088
G1 F900 X83.409 Y13.83 E18.97615
G1 X83.479 Y13.9
G0 F2250 X82.547 Y13.816
G1 F900 X79.805 Y11.074 E19.12933
G1 X79.735 Y11.004
G0 F2250 X78.943 Y11.061
G1 F900 X81.685 Y13.803 E19.28251
G1 X81.755 Y13.873
G0 F2250 X80.823 Y13.789
G1 F900 X78.081 Y11.047 E19.43569
G1 X78.011 Y10.977
G0 F2250 X77.219 Y11.034
G1 F900 X79.961 Y13.776 E19.58887
G1 X80.031 Y13.846
G0 F2250 X79.1 Y13.763
G1 F900 X76.357 Y11.02 E19.74211
G1 X76.287 Y10.95
G0 F2250 X75.496 Y11.008
G1 F900 X78.238 Y13.75 E19.89529
G1 X78.308 Y13.82
G0 F2250 X77.376 Y13.736
G1 F900 X74.634 Y10.994 E20.04847
G1 X74.564 Y10.924
G0 F2250 X73.772 Y10.981
G1 F900 X76.514 Y13.723 E20.20165
G1 X76.584 Y13.793
G0 F2250 X75.652 Y13.71
G1 F900 X72.91 Y10.967 E20.35485
G1 X72.84 Y10.897
G0 F2250 X72.048 Y10.954
G1 F900 X74.791 Y13.697 E20.50809
G1 X74.861 Y13.767
G0 F2250 X73.929 Y13.683
G1 F900 X71.186 Y10.941 E20.6613
G1 X71.116 Y10.871
G0 F2250 X70.325 Y10.928
G1 F900 X73.067 Y13.67 E20.81448
G1 X73.137 Y13.74
G0 F2250 X72.205 Y13.657
G1 F900 X69.463 Y10.914 E20.96769
G1 X69.393 Y10.844
G0 F2250 X68.601 Y10.901
G1 F900 X71.344 Y13.644 E21.12092
G1 X71.414 Y13.714
G0 F2250 X70.482 Y13.63
G1 F900 X67.894 Y11.042 E21.2655
G1 X67.824 Y10.972
G0 F2250 X67.881 Y11.878
G1 F900 X69.62 Y13.617 E21.36265
G1 X69.69 Y13.687
G0 F2250 X68.758 Y13.604
G1 F900 X67.868 Y12.714 E21.41237
G1 X67.798 Y12.644
G0 F2250 X68.22 Y12.651
G1 F420 E20.41237
G0 F2250 X67.991 Y13.623
G0 X68.267 Y16.003
G0 X67.944 Y16.656
G0 X68.013 Y16.727
;TYPE:WALL-INNER
G1 F420 E21.41237
G1 F900 X67.998 Y17.727 E21.43871
G1 X67.199 Y17.714 E21.45975
G1 X67.205 Y17.348 E21.46939
G1 X67.262 Y16.958 E21.47977
G1 X67.409 Y16.617 E21.48955
G1 X67.632 Y16.335 E21.49902
G1 X67.925 Y16.117 E21.50864
G1 X68.263 Y15.984 E21.5182
G1 X68.666 Y15.936 E21.52889
G1 X84.256 Y16.179 E21.9395
G1 X84.244 Y16.978 E21.96054
G1 X68.754 Y16.738 E22.36852
G0 F810 X68.013 Y16.727
G1 F420 E21.36852
G0 F2250 X67.944 Y16.656
G0 X67.273 Y17.696
G0 X67.253 Y18.981
G0 X67.223 Y20.65
G0 X67.205 Y21.934
G0 X67.203 Y21.985
G0 X67.134 Y21.914
G1 F420 E22.38806
G1 F900 X84.163 Y22.177 E22.83657
G1 X84.119 Y24.977 E22.91031
G1 X67.09 Y24.713 E23.35882
G1 X67.123 Y22.656 E23.413
G0 F810 X67.134 Y21.914
G0 F2250 X67.203 Y21.985
G0 X84.05 Y24.906
G0 X84.465 Y25.333
;TYPE:WALL-OUTER
G1 F420 E23.43254
G1 F900 X66.734 Y25.059 E23.89954
G1 X66.788 Y21.558 E23.99175
G1 X84.519 Y21.831 E24.45874
G1 X84.476 Y24.591 E24.53144
G0 F810 X84.465 Y25.333
G0 F2250 X84.216 Y25.33
G1 F420 E23.53144
G0 F2250 X84.05 Y24.906
G0 X67.861 Y21.944
G0 X67.879 Y20.661
G0 X67.911 Y18.991
G0 X67.93 Y17.706
G0 X67.929 Y17.656
G0 X68.344 Y18.083
G1 F420 E24.55098
G1 F900 X66.842 Y18.06 E24.59054
G1 X66.854 Y17.322 E24.60997
G1 X66.922 Y16.861 E24.62225
G1 X67.106 Y16.435 E24.63447
G1 X67.386 Y16.081 E24.64635
G1 X67.752 Y15.809 E24.65836
G1 X68.18 Y15.64 E24.67048
G1 X68.645 Y15.585 E24.68281
G1 X84.613 Y15.833 E25.10337
G1 X84.589 Y17.334 E25.14291
G1 X68.359 Y17.083 E25.57037
G1 X68.355 Y17.341 E25.57717
G0 F810 X68.344 Y18.083
G0 F2250 X68.094 Y18.08
G0 X67.504 Y17.441
G1 F420 E25.59671
G1 F900 X67.726 Y16.815 E25.62242
G0 F2250 X68.442 Y16.682
;TYPE:SKIN
G1 F900 X67.933 Y16.172 E25.65088
G0 F2250 X68.603 Y15.994
G1 F900 X69.304 Y16.696 E25.69007
G0 F2250 X69.456 Y15.998
G1 F900 X70.166 Y16.709 E25.72976
G0 F2250 X70.318 Y16.012
G1 F900 X71.028 Y16.723 E25.76946
G0 F2250 X71.18 Y16.025
G1 F900 X71.89 Y16.736 E25.80915
G0 F2250 X72.042 Y16.039
G1 F900 X72.752 Y16.749 E25.84881
G0 F2250 X72.904 Y16.052
G1 F900 X73.614 Y16.762 E25.88848
G0 F2250 X73.766 Y16.066
G1 F900 X74.476 Y16.776 E25.92814
G0 F2250 X74.628 Y16.079
G1 F900 X75.337 Y16.789 E25.96777
G0 F2250 X75.49 Y16.093
G1 F900 X76.199 Y16.802 E26.00738
G0 F2250 X76.351 Y16.106
G1 F900 X77.061 Y16.816 E26.04705
G0 F2250 X77.213 Y16.119
G1 F900 X77.923 Y16.829 E26.08671
G0 F2250 X78.075 Y16.133
G1 F900 X78.785 Y16.843 E26.12637
G0 F2250 X78.937 Y16.146
G1 F900 X79.647 Y16.856 E26.16604
G0 F2250 X79.799 Y16.16
G1 F900 X80.509 Y16.87 E26.2057
G0 F2250 X80.661 Y16.173
G1 F900 X81.371 Y16.883 E26.24537
G0 F2250 X81.523 Y16.186
G1 F900 X82.232 Y16.896 E26.285
G0 F2250 X82.385 Y16.199
G1 F900 X83.094 Y16.909 E26.32464
G0 F2250 X83.601 Y16.568
G1 F900 X84.155 Y16.273 E26.34712
G1 F420 E25.34712
G0 F2250 X84.109 Y16.275
G0 X83.39 Y16.946
G0 X83.372 Y18.228
G0 X83.327 Y20.898
G0 X83.308 Y22.182
G0 X83.306 Y22.262
G0 X83.307 Y22.213
G1 F420 E26.34712
G1 F900 X84.099 Y23.005 E26.39136
G0 F2250 X84.087 Y23.841
G1 F900 X82.445 Y22.2 E26.48306
G1 X82.375 Y22.13
G0 F2250 X81.584 Y22.187
G1 F900 X84.073 Y24.676 E26.62211
G1 X84.143 Y24.746
G0 F2250 X83.464 Y24.915
G1 F900 X80.722 Y22.174 E26.77526
G1 X80.652 Y22.104
G0 F2250 X79.86 Y22.16
G1 F900 X82.602 Y24.902 E26.92844
G1 X82.672 Y24.972
G0 F2250 X81.74 Y24.889
G1 F900 X78.998 Y22.147 E27.08162
G1 X78.928 Y22.077
G0 F2250 X78.137 Y22.134
G1 F900 X80.878 Y24.876 E27.23478
G1 X80.948 Y24.946
G0 F2250 X80.016 Y24.862
G1 F900 X77.275 Y22.121 E27.3879
G1 X77.205 Y22.051
G0 F2250 X76.413 Y22.107
G1 F900 X79.154 Y24.849 E27.54105
G1 X79.224 Y24.919
G0 F2250 X78.292 Y24.835
G1 F900 X75.551 Y22.094 E27.69418
G1 X75.481 Y22.024
G0 F2250 X74.69 Y22.081
G1 F900 X77.431 Y24.822 E27.8473
G1 X77.501 Y24.892
G0 F2250 X76.569 Y24.809
G1 F900 X73.828 Y22.068 E28.00043
G1 X73.758 Y21.998
G0 F2250 X72.966 Y22.054
G1 F900 X75.707 Y24.796 E28.15358
G1 X75.777 Y24.866
G0 F2250 X74.845 Y24.782
G1 F900 X72.104 Y22.041 E28.3067
G1 X72.034 Y21.971
G0 F2250 X71.243 Y22.028
G1 F900 X73.983 Y24.769 E28.4598
G1 X74.053 Y24.839
G0 F2250 X73.121 Y24.755
G1 F900 X70.381 Y22.015 E28.61287
G1 X70.311 Y21.945
G0 F2250 X69.519 Y22.001
G1 F900 X72.259 Y24.742 E28.76597
G1 X72.329 Y24.812
G0 F2250 X71.398 Y24.729
G1 F900 X68.657 Y21.988 E28.91909
G1 X68.587 Y21.918
G0 F2250 X67.795 Y21.975
G1 F900 X70.536 Y24.716 E29.07222
G1 X70.606 Y24.786
G0 F2250 X69.674 Y24.702
G1 F900 X67.177 Y22.205 E29.21171
G1 X67.107 Y22.135
G0 F2250 X67.165 Y23.041
G1 F900 X68.812 Y24.689 E29.30375
G1 X68.882 Y24.759
G0 F2250 X67.95 Y24.675
G1 F900 X67.151 Y23.876 E29.34838
G0 F2250 X67.503 Y23.882
G1 F420 E28.34838
G0 F2250 X68.511 Y24.717
G0 X67.87 Y25.958
G0 X67.716 Y25.986
G0 X67.157 Y26.401
G0 X66.724 Y26.948
G0 X66.448 Y27.589
G0 X66.353 Y28.234
G0 X66.231 Y36.928
G0 X67.17 Y36.922
G0 X68.302 Y37.932
G0 X68.304 Y38.012
G0 X68.299 Y37.913
;TYPE:WALL-INNER
G1 F420 E29.34838
G1 F900 X83.89 Y38.156 E29.75902
G1 X83.877 Y38.955 E29.78006
G1 X67.648 Y38.704 E30.2075
