;Generated by Cura LulzBot Edition GCodeWriter Version: 2.6.69
;FLAVOR:RepRap
;TIME:9531
;Filament used: 8.7691m
;Layer height: 0.35
;Generated with Cura_SteamEngine 2.6.69
;This G-Code has been generated specifically for the LulzBot Mini with Aerostruder
G26 ; clear potential 'probe fail' condition
G21 ; set units to Millimetres
M107 ; disable fans
G90 ; absolute positioning
M82 ; set extruder to absolute mode
G92 E0 ; set extruder position to 0
M140 S115 ; start bed heating up
G28 ; home all axes
G0 X0 Y187 Z156 F200 ; move away from endstops
M109 R170 ; soften filament before retraction
G1 E-15 F75 ; retract filament
M109 R170 ; wait for extruder to reach wiping temp
G1 X45 Y173 F11520 ; move above wiper pad
G1 Z0 F1200 ; push nozzle into wiper
G1 X42 Y173 Z-.5 F4000 ; wiping
G1 X52 Y171 Z-.5 F4000 ; wiping
G1 X42 Y173 Z0 F4000 ; wiping
G1 X52 Y171 F4000 ; wiping
G1 X42 Y173 F4000 ; wiping
G1 X52 Y171 F4000 ; wiping
G1 X42 Y173 F4000 ; wiping
G1 X52 Y171 F4000 ; wiping
G1 X57 Y173 F4000 ; wiping
G1 X77 Y171 F4000 ; wiping
G1 X57 Y173 F4000 ; wiping
G1 X77 Y171 F4000 ; wiping
G1 X57 Y173 F4000 ; wiping
G1 X87 Y171 F4000 ; wiping
G1 X77 Y173 F4000 ; wiping
G1 X97 Y171 F4000 ; wiping
G1 X77 Y173 F4000 ; wiping
G1 X97 Y171 F4000 ; wiping
G1 X77 Y173 F4000 ; wiping
G1 X97 Y171 F4000 ; wiping
G1 X107 Y173 F4000 ; wiping
G1 X97 Y171 F4000 ; wiping
G1 X107 Y173 F4000 ; wiping
G1 X97 Y171 F4000 ; wiping
G1 X107 Y173 F4000 ; wiping
G1 X112 Y171 Z-0.5 F1000 ; wiping
G1 Z10 ; raise extruder
G28 X0 Y0 ; home X and Y
G0 X0 Y187 F200 ; move away from endstops
M109 R170 ; wait for extruder to reach probe temp
M204 S300 ; set probing acceleration
G29 ; start auto-leveling sequence
M204 S2000 ; restore standard acceleration
G28 X0 Y0 ; re-home to account for build variance of earlier mini builds
G0 X0 Y187 F200 ; move away from endstops
G0 Y152 F4000 ; move in front of wiper pad
G4 S1 ; pause
M400 ; wait for moves to finish
M117 Heating... ; progress indicator message on LCD
M109 R250 ; wait for extruder to reach printing temp
M190 S116 ; wait for bed to reach printing temp
G1 Z2 E0 F75 ; prime tiny bit of filament into the nozzle
M117 Mini Printing... ; progress indicator message on LCD


M221 S100
;LAYER_COUNT:140
;LAYER:0
M107
M204 S1000
M205 X10
G0 F2250 X57.648 Y27.949 Z0.42
;TYPE:SKIRT
G1 F900 X57.925 Y27.516 E0.0203
G1 X58.265 Y27.132 E0.04057
G1 X58.661 Y26.805 E0.06085
G1 X59.103 Y26.543 E0.08115
G1 X59.579 Y26.353 E0.10139
G1 X60.08 Y26.239 E0.12169
G1 X60.559 Y26.204 E0.14066
G1 X69.044 Y26.205 E0.47584
G1 X69.556 Y26.245 E0.49613
G1 X70.056 Y26.364 E0.51643
G1 X70.531 Y26.559 E0.53671
G1 X70.97 Y26.825 E0.55699
G1 X71.362 Y27.156 E0.57725
G1 X71.698 Y27.544 E0.59753
G1 X72.033 Y28.106 E0.62337
G1 X73.399 Y31.024 E0.75065
G1 X75.948 Y35.894 E0.96778
G1 X78.744 Y40.572 E1.18306
G1 X81.812 Y45.1 E1.39912
G1 X85.141 Y49.464 E1.61594
G1 X88.691 Y53.605 E1.8314
G1 X92.486 Y57.559 E2.04789
G1 X94.446 Y59.434 E2.15504
G1 X98.564 Y63.053 E2.3716
G1 X102.871 Y66.425 E2.58768
G1 X107.372 Y69.557 E2.80428
G1 X112.02 Y72.414 E3.0198
G1 X117.059 Y75.136 E3.24604
G1 X117.338 Y75.305 E3.25892
G1 X118.187 Y75.879 E3.29941
G1 X118.589 Y76.199 E3.3197
G1 X118.829 Y76.448 E3.33337
G1 X119.801 Y77.566 E3.39189
G1 X120.107 Y77.978 E3.41216
G1 X120.274 Y78.279 E3.42576
G1 X120.716 Y79.181 E3.46544
G1 X120.906 Y79.658 E3.48572
G1 X120.986 Y79.971 E3.49848
G1 X121.259 Y81.304 E3.55223
G1 X121.326 Y81.966 E3.57851
G1 X121.329 Y120.787 E5.11203
G1 X121.283 Y121.334 E5.13371
G1 X121.161 Y122.06 E5.16279
G1 X121.037 Y122.558 E5.18306
G1 X120.931 Y122.835 E5.19478
G1 X120.431 Y123.979 E5.2441
G1 X120.189 Y124.432 E5.26439
G1 X120.038 Y124.649 E5.27483
G1 X119.683 Y125.118 E5.29806
G1 X119.232 Y125.604 E5.32425
G1 X118.451 Y126.291 E5.36534
G1 X118.04 Y126.599 E5.38563
G1 X117.693 Y126.791 E5.4013
G1 X116.65 Y127.289 E5.44695
G1 X116.171 Y127.473 E5.46722
G1 X115.844 Y127.553 E5.48052
G1 X114.95 Y127.723 E5.51647
G1 X114.334 Y127.781 E5.54091
G1 X39.613 Y127.775 E8.49255
G1 X38.912 Y127.7 E8.5204
G1 X37.905 Y127.481 E8.56111
G1 X37.413 Y127.333 E8.5814
G1 X37.024 Y127.152 E8.59835
G1 X35.935 Y126.557 E8.64737
G1 X35.32 Y126.123 E8.67711
G1 X34.875 Y125.726 E8.70066
G1 X34.373 Y125.162 E8.73049
G1 X33.681 Y124.178 E8.77801
G1 X33.318 Y123.511 E8.80801
G1 X33.086 Y122.934 E8.83257
G1 X32.928 Y122.425 E8.85363
G1 X32.775 Y121.743 E8.88124
G1 X32.695 Y121.025 E8.90977
G1 X32.65 Y82.735 E10.42231
G1 X32.66 Y82.475 E10.43259
G1 X32.759 Y81.202 E10.48303
G1 X32.838 Y80.695 E10.5033
G1 X32.95 Y80.325 E10.51857
G1 X33.395 Y79.108 E10.56976
G1 X33.69 Y78.501 E10.59642
G1 X34.03 Y77.953 E10.62189
G1 X34.271 Y77.614 E10.63832
G1 X38.79 Y72.044 E10.92166
G1 X41.971 Y67.612 E11.13716
G1 X44.905 Y62.992 E11.35335
G1 X47.575 Y58.214 E11.56956
G1 X49.966 Y53.298 E11.7855
G1 X52.071 Y48.273 E12.00071
G1 X53.903 Y43.084 E12.21809
G1 X55.425 Y37.856 E12.43318
G1 X56.67 Y32.462 E12.65186
G1 X57.312 Y28.916 E12.79421
G1 X57.442 Y28.419 E12.8145
G1 X57.648 Y27.949 E12.83477
G1 F420 E11.83477
G0 F2250 X59.885 Y30.995
G0 X62.05 Y30.995
;TYPE:WALL-INNER
G1 F420 E12.83477
G1 F900 X67.55 Y30.995 E13.05204
G1 X67.55 Y41.745 E13.47668
G1 X62.05 Y41.745 E13.69395
G1 X62.05 Y30.995 E14.11859
G0 F2250 X61.45 Y30.395
G1 F900 X68.15 Y30.395 E14.38326
G1 X68.15 Y42.345 E14.85531
G1 X61.45 Y42.345 E15.11997
G1 X61.45 Y30.395 E15.59202
G1 F420 E14.59202
G0 F2250 X61.45 Y28.83
G0 X68.75 Y28.83
G0 X68.75 Y29.795
;TYPE:WALL-OUTER
G1 F420 E15.59202
G1 F900 X68.75 Y42.945 E16.11148
G1 X60.85 Y42.945 E16.42355
G1 X60.85 Y29.795 E16.943
G1 X68.75 Y29.795 E17.25507
G0 F2250 X68.75 Y30.045
G0 X67.4 Y31.2
;TYPE:SKIN
G1 F900 X62.2 Y31.2 E17.46048
G1 X62.05 Y31.2
G0 F2250 X62.2 Y31.8
G1 F900 X67.4 Y31.8 E17.66589
G1 X67.55 Y31.8
G0 F2250 X67.4 Y32.4
G1 F900 X62.2 Y32.4 E17.8713
G1 X62.05 Y32.4
G0 F2250 X62.2 Y33
G1 F900 X67.4 Y33 E18.07671
G1 X67.55 Y33
G0 F2250 X67.4 Y33.6
G1 F900 X62.2 Y33.6 E18.28212
G1 X62.05 Y33.6
G0 F2250 X62.2 Y34.2
G1 F900 X67.4 Y34.2 E18.48753
G1 X67.55 Y34.2
G0 F2250 X67.4 Y34.8
G1 F900 X62.2 Y34.8 E18.69295
G1 X62.05 Y34.8
G0 F2250 X62.2 Y35.4
G1 F900 X67.4 Y35.4 E18.89836
G1 X67.55 Y35.4
G0 F2250 X67.4 Y36
G1 F900 X62.2 Y36 E19.10377
G1 X62.05 Y36
G0 F2250 X62.2 Y36.6
G1 F900 X67.4 Y36.6 E19.30918
G1 X67.55 Y36.6
G0 F2250 X67.4 Y37.2
G1 F900 X62.2 Y37.2 E19.51459
G1 X62.05 Y37.2
G0 F2250 X62.2 Y37.8
G1 F900 X67.4 Y37.8 E19.72
G1 X67.55 Y37.8
G0 F2250 X67.4 Y38.4
G1 F900 X62.2 Y38.4 E19.92541
G1 X62.05 Y38.4
G0 F2250 X62.2 Y39
G1 F900 X67.4 Y39 E20.13082
G1 X67.55 Y39
G0 F2250 X67.4 Y39.6
G1 F900 X62.2 Y39.6 E20.33624
G1 X62.05 Y39.6
G0 F2250 X62.2 Y40.2
G1 F900 X67.4 Y40.2 E20.54165
G1 X67.55 Y40.2
G0 F2250 X67.4 Y40.8
G1 F900 X62.2 Y40.8 E20.74706
G1 X62.05 Y40.8
G0 F2250 X62.2 Y41.4
G1 F900 X67.4 Y41.4 E20.95247
G1 X67.55 Y41.4
G1 F420 E19.95247
G0 F2250 X69.715 Y41.4
G0 X69.703 Y28.842
G0 X59.897 Y28.842
G0 X59.897 Y43.473
G0 X59.723 Y45.626
;TYPE:WALL-INNER
G1 F420 E20.95247
G1 F900 X75.763 Y45.626 E21.58608
G1 X92.039 Y74.595 E22.89867
G1 X110.465 Y78.343 E23.64144
G1 X110.562 Y78.362 E23.64535
G1 X111.001 Y78.452 E23.66305
G1 X111.126 Y78.478 E23.66809
G1 X110.982 Y78.541
G1 X110.462 Y78.858 E23.67996
G1 X110.385 Y78.921 E23.68361
G1 X109.993 Y79.241 E23.7036
G1 X109.58 Y79.684 E23.72752
G1 X109.231 Y80.181 E23.75151
G1 X108.952 Y80.72 E23.77549
G1 X108.747 Y81.294 E23.79956
G1 X108.627 Y81.876 E23.82304
G1 X108.596 Y82.193 E23.83562
G1 X108.585 Y82.492 E23.84744
G1 X108.595 Y82.796 E23.85945
G1 X108.629 Y83.132 E23.87279
G1 X108.75 Y83.705 E23.89593
G1 X108.955 Y84.276 E23.91989
G1 X109.234 Y84.815 E23.94387
G1 X109.582 Y85.309 E23.96774
G1 X109.999 Y85.754 E23.99183
G1 X110.472 Y86.139 E24.01592
G1 X110.992 Y86.453 E24.03992
G1 X111.547 Y86.694 E24.06382
G1 X112.136 Y86.861 E24.088
G1 X112.743 Y86.942 E24.11219
G1 X113.351 Y86.941 E24.13621
G1 X113.953 Y86.857 E24.16022
G1 X114.533 Y86.695 E24.18401
G1 X115.09 Y86.452 E24.20801
G1 X115.612 Y86.135 E24.23214
G1 X115.975 Y85.839 E24.25064
G1 X116.084 Y85.75 E24.2562
G1 X116.498 Y85.307 E24.28015
G1 X116.55 Y85.233 E24.28372
G1 X116.55 Y85.307
G1 X116.55 Y85.75
G1 X116.55 Y85.891 E24.28873
G1 X116.55 Y116.099 E25.48201
G1 X116.55 Y116.235 E25.48739
G1 X116.55 Y116.678 E25.50489
G1 X116.55 Y116.757 E25.50801
G1 X116.494 Y116.678
G1 X116.079 Y116.235 E25.51832
G1 X115.974 Y116.149 E25.52316
G1 X115.608 Y115.85 E25.54183
G1 X115.084 Y115.533 E25.56602
G1 X114.53 Y115.294 E25.58986
G1 X113.945 Y115.131 E25.61385
G1 X113.344 Y115.048 E25.63781
G1 X112.732 Y115.048 E25.66199
G1 X112.129 Y115.132 E25.68604
G1 X111.545 Y115.295 E25.70999
G1 X110.982 Y115.541 E25.73426
G1 X110.462 Y115.858 E25.75832
G1 X109.993 Y116.241 E25.78224
G1 X109.58 Y116.684 E25.80616
G1 X109.231 Y117.181 E25.83015
G1 X108.952 Y117.72 E25.85412
G1 X108.747 Y118.294 E25.8782
G1 X108.627 Y118.876 E25.90168
G1 X108.596 Y119.193 E25.91426
G1 X108.585 Y119.492 E25.92608
G1 X108.595 Y119.796 E25.93809
G1 X108.629 Y120.132 E25.95143
G1 X108.75 Y120.705 E25.97457
G1 X108.955 Y121.276 E25.99853
G1 X109.234 Y121.815 E26.02251
G1 X109.582 Y122.309 E26.04638
G1 X109.718 Y122.454 E26.05423
G1 X109.999 Y122.754 E26.07047
G1 X110.298 Y122.997 E26.08569
G1 X110 Y122.997
G1 X109.589 Y122.997 E26.09749
G1 X44.489 Y122.999 E28.66908
G1 X44.085 Y122.999 E28.68504
G1 X43.778 Y123 E28.69717
G1 X44.084 Y122.75
G1 X44.36 Y122.455 E28.70884
G1 X44.498 Y122.307 E28.71683
G1 X44.85 Y121.808 E28.74095
G1 X45.13 Y121.266 E28.76505
G1 X45.333 Y120.692 E28.7891
G1 X45.456 Y120.095 E28.81318
G1 X45.497 Y119.495 E28.83694
G1 X45.456 Y118.886 E28.86105
G1 X45.33 Y118.29 E28.88511
G1 X45.128 Y117.719 E28.90904
G1 X44.847 Y117.176 E28.93319
G1 X44.494 Y116.678 E28.9573
G1 X44.079 Y116.235 E28.98128
G1 X43.608 Y115.85 E29.00531
G1 X43.084 Y115.533 E29.0295
G1 X42.53 Y115.294 E29.05334
G1 X41.945 Y115.131 E29.07732
G1 X41.344 Y115.048 E29.10129
G1 X40.732 Y115.048 E29.12547
G1 X40.129 Y115.132 E29.14952
G1 X39.545 Y115.295 E29.17347
G1 X38.982 Y115.541 E29.19774
G1 X38.462 Y115.858 E29.22179
G1 X38.042 Y116.201 E29.24321
G1 X37.993 Y116.241 E29.24571
G1 X37.58 Y116.684 E29.26964
G1 X37.454 Y116.864 E29.27832
G1 X37.454 Y116.684
G1 X37.454 Y116.242 E29.28265
G1 X37.454 Y116.178 E29.28506
G1 X37.452 Y85.81 E30.48466
G1 X37.452 Y85.755 E30.48684
G1 X37.451 Y85.31 E30.50441
G1 X37.45 Y85.122 E30.51184
G1 X37.582 Y85.309
G1 X37.999 Y85.754 E30.52558
G1 X38.041 Y85.788 E30.52763
G1 X38.472 Y86.139 E30.54958
G1 X38.992 Y86.453 E30.57358
G1 X39.547 Y86.694 E30.59748
G1 X40.136 Y86.861 E30.62166
G1 X40.743 Y86.942 E30.64585
G1 X41.351 Y86.941 E30.66987
G1 X41.953 Y86.857 E30.69388
G1 X42.533 Y86.695 E30.71767
G1 X43.09 Y86.452 E30.74168
G1 X43.612 Y86.135 E30.7658
G1 X44.084 Y85.75 E30.78986
G1 X44.498 Y85.307 E30.81381
G1 X44.85 Y84.808 E30.83794
G1 X45.13 Y84.266 E30.86203
G1 X45.333 Y83.692 E30.88608
G1 X45.456 Y83.095 E30.91016
G1 X45.497 Y82.495 E30.93392
G1 X45.456 Y81.886 E30.95803
G1 X45.33 Y81.29 E30.98209
G1 X45.128 Y80.719 E31.00602
G1 X44.847 Y80.176 E31.03017
G1 X44.494 Y79.678 E31.05428
G1 X44.079 Y79.235 E31.07826
G1 X43.608 Y78.85 E31.10229
G1 X43.084 Y78.533 E31.12648
G1 X42.53 Y78.294 E31.15032
G1 X41.945 Y78.131 E31.17431
G1 X41.344 Y78.048 E31.19827
G1 X40.925 Y78.048 E31.21483
G1 X40.732 Y78.048 E31.22245
G1 X40.097 Y78.141 E31.2478
G1 X40.41 Y77.774 E31.25024
G1 X40.535 Y77.628 E31.2568
G1 X43.662 Y73.969 E31.44693
G1 X52.262 Y73.969 E31.78665
G1 X59.723 Y45.626 E32.9444
G0 F2250 X59.261 Y45.026
G1 F900 X76.114 Y45.026 E33.61013
G1 X92.428 Y74.062 E34.92576
G1 X112.4 Y78.124 E35.73085
G1 X112.862 Y78.218 E35.74948
G1 X113.37 Y78.321 E35.76995
G1 X113.883 Y78.426 E35.79064
G1 X114.239 Y78.499 E35.80499
G1 X114.423 Y78.555 E35.81259
G1 X114.548 Y78.594 E35.81776
G1 X114.877 Y78.728 E35.83179
G1 X114.959 Y78.769 E35.83542
G1 X115.147 Y78.864 E35.84374
G1 X115.274 Y78.938 E35.84954
G1 X115.452 Y79.058 E35.85802
G1 X115.592 Y79.153 E35.86471
G1 X115.808 Y79.328 E35.87569
G1 X115.904 Y79.415 E35.8808
G1 X115.934 Y79.442 E35.8824
G1 X116.175 Y79.693 E35.89614
G1 X116.295 Y79.842 E35.9037
G1 X116.383 Y79.951 E35.90924
G1 X116.569 Y80.225 E35.92232
G1 X116.623 Y80.315 E35.92646
G1 X116.648 Y80.357 E35.92839
G1 X116.799 Y80.653 E35.94152
G1 X116.874 Y80.836 E35.94933
G1 X116.924 Y80.958 E35.95454
G1 X117.027 Y81.292 E35.96835
G1 X117.048 Y81.38 E35.97192
G1 X117.061 Y81.432 E35.97404
G1 X117.122 Y81.776 E35.98784
G1 X117.137 Y81.942 E35.99442
G1 X117.15 Y82.071 E35.99955
G1 X117.15 Y82.495 E36.01629
G1 X117.15 Y83.014 E36.0368
G1 X117.15 Y83.531 E36.05722
G1 X117.15 Y84.027 E36.07681
G1 X117.15 Y84.084 E36.07906
G1 X117.15 Y117.905 E37.41507
G1 X117.15 Y117.958 E37.41716
G1 X117.15 Y118.453 E37.43671
G1 X117.15 Y118.969 E37.4571
G1 X117.15 Y119.495 E37.47788
G1 X117.15 Y120.014 E37.49838
G1 X117.15 Y120.495 E37.51738
G1 X117.148 Y120.55 E37.51955
G1 X117.136 Y120.785 E37.52885
G1 X117.103 Y121.031 E37.53865
G1 X117.079 Y121.138 E37.54298
G1 X117.038 Y121.321 E37.55039
G1 X116.964 Y121.558 E37.5602
G1 X116.895 Y121.724 E37.5673
G1 X116.856 Y121.815 E37.57121
G1 X116.666 Y122.165 E37.58694
G1 X116.506 Y122.391 E37.59788
G1 X116.33 Y122.6 E37.60867
G1 X116.139 Y122.791 E37.61934
G1 X115.938 Y122.959 E37.62969
G1 X115.703 Y123.122 E37.64099
G1 X115.472 Y123.254 E37.6515
G1 X115.365 Y123.307 E37.65622
G1 X115.253 Y123.353 E37.661
G1 X115.098 Y123.417 E37.66762
G1 X114.979 Y123.454 E37.67255
G1 X114.846 Y123.495 E37.67804
G1 X114.719 Y123.527 E37.68322
G1 X114.441 Y123.575 E37.69436
G1 X114.37 Y123.581 E37.69718
G1 X114.183 Y123.597 E37.70459
G1 X113.83 Y123.597 E37.71853
G1 X113.309 Y123.597 E37.73912
G1 X112.782 Y123.597 E37.75993
G1 X112.258 Y123.597 E37.78063
G1 X111.75 Y123.597 E37.8007
G1 X111.435 Y123.597 E37.81314
G1 X42.645 Y123.597 E40.5305
G1 X42.331 Y123.597 E40.5429
G1 X41.83 Y123.597 E40.56269
G1 X41.31 Y123.597 E40.58323
G1 X40.783 Y123.598 E40.60405
G1 X40.259 Y123.599 E40.62475
G1 X39.962 Y123.6 E40.63648
G1 X39.727 Y123.589 E40.64577
G1 X39.67 Y123.586 E40.64803
G1 X39.414 Y123.553 E40.65822
G1 X39.134 Y123.489 E40.66957
G1 X39.092 Y123.476 E40.67131
G1 X39.029 Y123.456 E40.67392
G1 X38.882 Y123.409 E40.68001
G1 X38.631 Y123.305 E40.69075
G1 X38.395 Y123.182 E40.70126
G1 X38.178 Y123.042 E40.71146
G1 X37.949 Y122.866 E40.72287
G1 X37.756 Y122.688 E40.73324
G1 X37.569 Y122.483 E40.7442
G1 X37.409 Y122.275 E40.75457
G1 X37.266 Y122.047 E40.7652
G1 X37.138 Y121.802 E40.77612
G1 X37.035 Y121.55 E40.78687
G1 X36.954 Y121.29 E40.79763
G1 X36.927 Y121.179 E40.80214
G1 X36.924 Y121.169 E40.80256
G1 X36.919 Y121.138 E40.8038
G1 X36.878 Y120.902 E40.81326
G1 X36.854 Y120.623 E40.82432
G1 X36.854 Y120.541 E40.82756
G1 X36.854 Y120.039 E40.84739
G1 X36.854 Y119.755 E40.85861
G1 X36.854 Y119.493 E40.86896
G1 X36.854 Y119.234 E40.87919
G1 X36.854 Y118.966 E40.88978
G1 X36.854 Y118.457 E40.90988
G1 X36.854 Y118.088 E40.92446
G1 X36.854 Y83.901 E42.27492
G1 X36.854 Y83.541 E42.28914
G1 X36.854 Y83.04 E42.30893
G1 X36.853 Y82.756 E42.32015
G1 X36.852 Y82.494 E42.3305
G1 X36.851 Y82.235 E42.34073
G1 X36.85 Y82.075 E42.34705
G1 X36.865 Y81.947 E42.35214
G1 X36.872 Y81.905 E42.35382
G1 X36.919 Y81.642 E42.36438
G1 X36.991 Y81.368 E42.37557
G1 X36.999 Y81.339 E42.37676
G1 X37.053 Y81.176 E42.38354
G1 X37.175 Y80.873 E42.39644
G1 X37.201 Y80.817 E42.39888
G1 X37.236 Y80.745 E42.40204
G1 X37.385 Y80.474 E42.41426
G1 X37.486 Y80.322 E42.42147
G1 X37.569 Y80.197 E42.4274
G1 X37.777 Y79.933 E42.44067
G1 X37.826 Y79.876 E42.44364
G1 X38.166 Y79.478 E42.46432
G1 X38.501 Y79.086 E42.48469
G1 X38.826 Y78.705 E42.50447
G1 X38.869 Y78.655 E42.50708
G1 X43.385 Y73.369 E42.78171
G1 X51.8 Y73.369 E43.11412
G1 X59.261 Y45.026 E44.27187
G1 F420 E43.27187
G0 F2250 X57.748 Y44.629
G0 X45.87 Y71.807
G0 X45.838 Y71.88
G0 X42.12 Y80.387
G0 X42.088 Y80.461
G0 X42.089 Y80.461
G0 X42.809 Y79.068
G1 F420 E44.27187
G1 F900 X42.33 Y78.861 E44.29249
G1 X41.823 Y78.72 E44.31327
G1 X41.303 Y78.648 E44.33401
G1 X40.774 Y78.648 E44.35491
G1 X40.252 Y78.721 E44.37573
G1 X39.746 Y78.862 E44.39648
