;Generated by Cura LulzBot Edition GCodeWriter Version: 2.6.66
;FLAVOR:RepRap
;TIME:8636
;Filament used: 8.38256m
;Layer height: 0.378
;Generated with Cura_SteamEngine 2.6.66
;This G-Code has been generated specifically for the LulzBot Mini with Aerostruder
G26 ; clear potential 'probe fail' condition
G21 ; set units to Millimetres
M107 ; disable fans
G90 ; absolute positioning
M82 ; set extruder to absolute mode
G92 E0 ; set extruder position to 0
M140 S115 ; start bed heating up
G28 ; home all axes
G0 X0 Y187 Z156 F200 ; move away from endstops
M109 R170 ; soften filament before retraction
G1 E-15 F75 ; retract filament
M109 R170 ; wait for extruder to reach wiping temp
G1 X45 Y173 F11520 ; move above wiper pad
G1 Z0 F1200 ; push nozzle into wiper
G1 X42 Y173 Z-.5 F4000 ; wiping
G1 X52 Y171 Z-.5 F4000 ; wiping
G1 X42 Y173 Z0 F4000 ; wiping
G1 X52 Y171 F4000 ; wiping
G1 X42 Y173 F4000 ; wiping
G1 X52 Y171 F4000 ; wiping
G1 X42 Y173 F4000 ; wiping
G1 X52 Y171 F4000 ; wiping
G1 X57 Y173 F4000 ; wiping
G1 X77 Y171 F4000 ; wiping
G1 X57 Y173 F4000 ; wiping
G1 X77 Y171 F4000 ; wiping
G1 X57 Y173 F4000 ; wiping
G1 X87 Y171 F4000 ; wiping
G1 X77 Y173 F4000 ; wiping
G1 X97 Y171 F4000 ; wiping
G1 X77 Y173 F4000 ; wiping
G1 X97 Y171 F4000 ; wiping
G1 X77 Y173 F4000 ; wiping
G1 X97 Y171 F4000 ; wiping
G1 X107 Y173 F4000 ; wiping
G1 X97 Y171 F4000 ; wiping
G1 X107 Y173 F4000 ; wiping
G1 X97 Y171 F4000 ; wiping
G1 X107 Y173 F4000 ; wiping
G1 X112 Y171 Z-0.5 F1000 ; wiping
G1 Z10 ; raise extruder
G28 X0 Y0 ; home X and Y
G0 X0 Y187 F200 ; move away from endstops
M109 R170 ; wait for extruder to reach probe temp
M204 S300 ; set probing acceleration
G29 ; start auto-leveling sequence
M204 S2000 ; restore standard acceleration
G28 X0 Y0 ; re-home to account for build variance of earlier mini builds
G0 X0 Y187 F200 ; move away from endstops
G0 Y152 F4000 ; move in front of wiper pad
G4 S1 ; pause
M400 ; wait for moves to finish
M117 Heating... ; progress indicator message on LCD
M109 R245 ; wait for extruder to reach printing temp
M190 S116 ; wait for bed to reach printing temp
G1 Z2 E0 F75 ; prime tiny bit of filament into the nozzle
M117 Mini Printing... ; progress indicator message on LCD


M221 S100
;LAYER_COUNT:130
;LAYER:0
M107
M204 S1000
M205 X10
G0 F2250 X64.731 Y28.421 Z0.42
G0 X64.6 Y28.918
;TYPE:SKIRT
G1 F900 X64.731 Y28.421 E0.0203
G1 X64.937 Y27.951 E0.04057
G1 X65.213 Y27.519 E0.06082
G1 X65.554 Y27.134 E0.08114
G1 X65.949 Y26.807 E0.1014
G1 X66.391 Y26.545 E0.12169
G1 X66.868 Y26.355 E0.14198
G1 X67.369 Y26.242 E0.16226
G1 X67.847 Y26.207 E0.1812
G1 X76.332 Y26.208 E0.51637
G1 X76.844 Y26.248 E0.53666
G1 X77.344 Y26.367 E0.55696
G1 X77.819 Y26.562 E0.57724
G1 X78.258 Y26.828 E0.59752
G1 X78.65 Y27.159 E0.61779
G1 X78.986 Y27.547 E0.63806
G1 X79.302 Y28.069 E0.66217
G1 X81.914 Y33.458 E0.89873
G1 X84.573 Y38.212 E1.1139
G1 X87.511 Y42.83 E1.33011
G1 X90.696 Y47.261 E1.54567
G1 X94.145 Y51.529 E1.76244
G1 X97.809 Y55.572 E1.97797
G1 X101.706 Y59.411 E2.19406
G1 X105.854 Y63.061 E2.41232
G1 X107.914 Y64.721 E2.51683
G1 X112.358 Y68.006 E2.73513
G1 X116.917 Y70.993 E2.95043
G1 X121.658 Y73.729 E3.16666
G1 X123.152 Y74.508 E3.23322
G1 X123.244 Y74.558 E3.23735
G1 X125.001 Y75.547 E3.317
G1 X125.534 Y75.921 E3.34272
G1 X126.091 Y76.4 E3.37174
G1 X126.435 Y76.743 E3.39093
G1 X126.858 Y77.232 E3.41647
G1 X127.143 Y77.614 E3.4353
G1 X127.554 Y78.257 E3.46544
G1 X127.863 Y78.875 E3.49274
G1 X128.293 Y80.021 E3.54109
G1 X128.472 Y80.726 E3.56982
G1 X128.584 Y81.533 E3.602
G1 X128.615 Y81.987 E3.61998
G1 X128.614 Y120.828 E5.15428
G1 X128.568 Y121.377 E5.17605
G1 X128.455 Y122.047 E5.20289
G1 X128.314 Y122.593 E5.22516
G1 X128.091 Y123.227 E5.25171
G1 X127.765 Y123.899 E5.28121
G1 X127.145 Y124.877 E5.32696
G1 X126.837 Y125.288 E5.34724
G1 X126.645 Y125.489 E5.35822
G1 X126.105 Y126.008 E5.38781
G1 X125.568 Y126.427 E5.41472
G1 X124.828 Y126.89 E5.4492
G1 X124.373 Y127.127 E5.46946
G1 X124.061 Y127.242 E5.4826
G1 X122.92 Y127.598 E5.52981
G1 X122.419 Y127.713 E5.55012
G1 X122.079 Y127.745 E5.56361
G1 X120.895 Y127.796 E5.61042
G1 X120.753 Y127.799 E5.61603
G1 X47.113 Y127.791 E8.52497
G1 X46.493 Y127.732 E8.54958
G1 X45.265 Y127.497 E8.59896
G1 X44.77 Y127.362 E8.61923
G1 X44.304 Y127.153 E8.63941
G1 X43.28 Y126.594 E8.68549
G1 X42.781 Y126.259 E8.70923
G1 X42.436 Y125.979 E8.72679
G1 X41.917 Y125.451 E8.75603
G1 X41.157 Y124.48 E8.80474
G1 X40.873 Y124.052 E8.82503
G1 X40.696 Y123.682 E8.84123
G1 X40.322 Y122.756 E8.88068
G1 X40.126 Y122.06 E8.90925
G1 X40 Y121.3 E8.93968
G1 X39.956 Y120.761 E8.96104
G1 X39.949 Y82.03 E10.491
G1 X40.013 Y81.384 E10.51664
G1 X40.205 Y80.42 E10.55547
G1 X40.435 Y79.703 E10.58521
G1 X40.926 Y78.619 E10.63222
G1 X41.174 Y78.17 E10.65248
G1 X41.361 Y77.913 E10.66504
G1 X46.074 Y72.053 E10.9621
G1 X49.27 Y67.597 E11.17872
G1 X52.201 Y62.983 E11.39464
G1 X54.875 Y58.197 E11.61121
G1 X57.257 Y53.294 E11.82653
G1 X59.367 Y48.257 E12.04226
G1 X61.19 Y43.09 E12.2587
G1 X62.721 Y37.829 E12.47514
G1 X63.958 Y32.457 E12.6929
G1 X64.6 Y28.918 E12.83498
G1 F420 E11.83498
G0 F2250 X67.173 Y30.998
G0 X69.338 Y30.998
;TYPE:WALL-INNER
G1 F420 E12.83498
G1 F900 X74.838 Y30.998 E13.05224
G1 X74.838 Y41.748 E13.47689
G1 X69.338 Y41.748 E13.69415
G1 X69.338 Y30.998 E14.1188
G0 F2250 X68.738 Y30.398
G1 F900 X75.438 Y30.398 E14.38346
G1 X75.438 Y42.348 E14.85551
G1 X68.738 Y42.348 E15.12018
G1 X68.738 Y30.398 E15.59223
G1 F420 E14.59223
G0 F2250 X68.738 Y28.833
G0 X76.038 Y28.833
G0 X76.038 Y29.798
;TYPE:WALL-OUTER
G1 F420 E15.59223
G1 F900 X76.038 Y42.948 E16.11168
G1 X68.138 Y42.948 E16.42375
G1 X68.138 Y29.798 E16.9432
G1 X76.038 Y29.798 E17.25527
G0 F2250 X76.038 Y30.048
G0 X74.688 Y31.2
;TYPE:SKIN
G1 F900 X69.488 Y31.2 E17.46068
G1 X69.338 Y31.2
G0 F2250 X69.488 Y31.8
G1 F900 X74.688 Y31.8 E17.66609
G1 X74.838 Y31.8
G0 F2250 X74.688 Y32.4
G1 F900 X69.488 Y32.4 E17.8715
G1 X69.338 Y32.4
G0 F2250 X69.488 Y33
G1 F900 X74.688 Y33 E18.07692
G1 X74.838 Y33
G0 F2250 X74.688 Y33.6
G1 F900 X69.488 Y33.6 E18.28233
G1 X69.338 Y33.6
G0 F2250 X69.488 Y34.2
G1 F900 X74.688 Y34.2 E18.48774
G1 X74.838 Y34.2
G0 F2250 X74.688 Y34.8
G1 F900 X69.488 Y34.8 E18.69315
G1 X69.338 Y34.8
G0 F2250 X69.488 Y35.4
G1 F900 X74.688 Y35.4 E18.89856
G1 X74.838 Y35.4
G0 F2250 X74.688 Y36
G1 F900 X69.488 Y36 E19.10397
G1 X69.338 Y36
G0 F2250 X69.488 Y36.6
G1 F900 X74.688 Y36.6 E19.30938
G1 X74.838 Y36.6
G0 F2250 X74.688 Y37.2
G1 F900 X69.488 Y37.2 E19.5148
G1 X69.338 Y37.2
G0 F2250 X69.488 Y37.8
G1 F900 X74.688 Y37.8 E19.72021
G1 X74.838 Y37.8
G0 F2250 X74.688 Y38.4
G1 F900 X69.488 Y38.4 E19.92562
G1 X69.338 Y38.4
G0 F2250 X69.488 Y39
G1 F900 X74.688 Y39 E20.13103
G1 X74.838 Y39
G0 F2250 X74.688 Y39.6
G1 F900 X69.488 Y39.6 E20.33644
G1 X69.338 Y39.6
G0 F2250 X69.488 Y40.2
G1 F900 X74.688 Y40.2 E20.54185
G1 X74.838 Y40.2
G0 F2250 X74.688 Y40.8
G1 F900 X69.488 Y40.8 E20.74726
G1 X69.338 Y40.8
G0 F2250 X69.488 Y41.4
G1 F900 X74.688 Y41.4 E20.95267
G1 X74.838 Y41.4
G1 F420 E19.95267
G0 F2250 X77.003 Y41.4
G0 X76.991 Y28.845
G0 X67.185 Y28.845
G0 X67.185 Y43.497
G0 X67.006 Y45.65
;TYPE:WALL-INNER
G1 F420 E20.95267
G1 F900 X83.064 Y45.65 E21.587
G1 X99.327 Y74.598 E22.89861
G1 X118.391 Y78.476 E23.6671
G1 X118.253 Y78.537 E23.67306
G1 X117.73 Y78.858 E23.6973
G1 X117.256 Y79.249 E23.72158
G1 X116.86 Y79.677 E23.74461
G1 X116.506 Y80.175 E23.76874
G1 X116.224 Y80.721 E23.79302
G1 X116.018 Y81.303 E23.81741
G1 X115.899 Y81.906 E23.84169
G1 X115.869 Y82.21 E23.85375
G1 X115.859 Y82.492 E23.8649
G1 X115.868 Y82.787 E23.87656
G1 X115.907 Y83.152 E23.89106
G1 X116.03 Y83.729 E23.91436
G1 X116.239 Y84.305 E23.93857
G1 X116.524 Y84.845 E23.96269
G1 X116.862 Y85.322 E23.98578
G1 X117.28 Y85.768 E24.00993
G1 X117.757 Y86.156 E24.03422
G1 X118.281 Y86.472 E24.05839
G1 X118.843 Y86.716 E24.08259
G1 X119.44 Y86.881 E24.10706
G1 X120.046 Y86.959 E24.13119
G1 X120.661 Y86.957 E24.15549
G1 X121.266 Y86.868 E24.17964
G1 X121.827 Y86.709 E24.20268
G1 X122.388 Y86.466 E24.22683
G1 X122.914 Y86.146 E24.25115
G1 X123.391 Y85.754 E24.27554
G1 X123.804 Y85.306 E24.29961
G1 X123.838 Y85.258 E24.30193
G1 X123.838 Y116.74 E25.54554
G1 X123.781 Y116.66 E25.54942
G1 X123.364 Y116.217 E25.57345
G1 X122.888 Y115.833 E25.59761
G1 X122.363 Y115.515 E25.62186
G1 X121.822 Y115.283 E25.64511
G1 X121.234 Y115.119 E25.66922
G1 X120.627 Y115.036 E25.69342
G1 X120.012 Y115.037 E25.71772
G1 X119.403 Y115.124 E25.74202
G1 X118.814 Y115.291 E25.7662
G1 X118.253 Y115.537 E25.7904
G1 X117.73 Y115.858 E25.81464
G1 X117.256 Y116.249 E25.83891
G1 X116.86 Y116.677 E25.86195
G1 X116.506 Y117.175 E25.88608
G1 X116.224 Y117.721 E25.91036
G1 X116.018 Y118.303 E25.93475
G1 X115.899 Y118.906 E25.95903
G1 X115.869 Y119.21 E25.97109
G1 X115.859 Y119.492 E25.98224
G1 X115.868 Y119.787 E25.9939
G1 X115.907 Y120.152 E26.0084
G1 X116.03 Y120.729 E26.0317
G1 X116.239 Y121.305 E26.05591
G1 X116.524 Y121.845 E26.08003
G1 X116.862 Y122.322 E26.10312
G1 X117.28 Y122.768 E26.12727
G1 X117.564 Y122.999 E26.14173
G1 X51.088 Y123.003 E28.76767
G1 X51.391 Y122.754 E28.78317
G1 X51.804 Y122.306 E28.80724
G1 X52.158 Y121.807 E28.8314
G1 X52.438 Y121.259 E28.85571
G1 X52.641 Y120.678 E28.88002
G1 X52.761 Y120.078 E28.90419
G1 X52.799 Y119.494 E28.92731
G1 X52.758 Y118.886 E28.95138
G1 X52.632 Y118.285 E28.97564
G1 X52.425 Y117.706 E28.99993
G1 X52.139 Y117.16 E29.02428
G1 X51.781 Y116.66 E29.04857
G1 X51.364 Y116.217 E29.0726
G1 X50.888 Y115.833 E29.09676
G1 X50.363 Y115.515 E29.12101
G1 X49.822 Y115.283 E29.14426
G1 X49.234 Y115.119 E29.16838
G1 X48.627 Y115.036 E29.19258
G1 X48.012 Y115.037 E29.21687
G1 X47.403 Y115.124 E29.24117
G1 X46.814 Y115.291 E29.26536
G1 X46.253 Y115.537 E29.28955
G1 X45.73 Y115.858 E29.31379
G1 X45.256 Y116.249 E29.33807
G1 X44.86 Y116.677 E29.3611
G1 X44.743 Y116.842 E29.36909
G1 X44.739 Y85.149 E30.62103
G1 X44.862 Y85.322 E30.62942
G1 X45.28 Y85.768 E30.65356
G1 X45.757 Y86.156 E30.67785
G1 X46.281 Y86.472 E30.70202
G1 X46.843 Y86.716 E30.72623
G1 X47.44 Y86.881 E30.75069
G1 X48.046 Y86.959 E30.77483
G1 X48.661 Y86.957 E30.79912
G1 X49.266 Y86.868 E30.82328
G1 X49.827 Y86.709 E30.84631
G1 X50.388 Y86.466 E30.87046
G1 X50.914 Y86.146 E30.89478
G1 X51.391 Y85.754 E30.91917
G1 X51.804 Y85.306 E30.94324
G1 X52.158 Y84.807 E30.96741
G1 X52.438 Y84.259 E30.99172
G1 X52.641 Y83.678 E31.01603
G1 X52.761 Y83.078 E31.0402
G1 X52.799 Y82.494 E31.06332
G1 X52.758 Y81.886 E31.08739
G1 X52.632 Y81.285 E31.11165
G1 X52.425 Y80.706 E31.13594
G1 X52.139 Y80.16 E31.16029
G1 X51.781 Y79.66 E31.18458
G1 X51.364 Y79.217 E31.20861
G1 X50.888 Y78.833 E31.23277
G1 X50.363 Y78.515 E31.25702
G1 X49.822 Y78.283 E31.28027
G1 X49.234 Y78.119 E31.30438
G1 X48.627 Y78.036 E31.32858
G1 X48.012 Y78.037 E31.35288
G1 X47.402 Y78.124 E31.37722
G1 X50.95 Y73.971 E31.59299
G1 X59.55 Y73.971 E31.93271
G1 X67.006 Y45.65 E33.08957
G0 F2250 X66.544 Y45.05
G1 F900 X83.415 Y45.05 E33.75601
G1 X99.716 Y74.065 E35.07066
G1 X121.528 Y78.502 E35.94993
G1 X121.837 Y78.597 E35.9627
G1 X122.164 Y78.73 E35.97664
G1 X122.438 Y78.868 E35.98876
G1 X122.569 Y78.945 E35.99476
G1 X122.875 Y79.152 E36.00936
G1 X122.962 Y79.219 E36.0137
G1 X123.248 Y79.471 E36.02875
G1 X123.451 Y79.682 E36.04032
G1 X123.665 Y79.943 E36.05365
G1 X123.86 Y80.23 E36.06736
G1 X124.016 Y80.509 E36.07998
G1 X124.155 Y80.812 E36.09315
G1 X124.262 Y81.108 E36.10559
G1 X124.352 Y81.448 E36.11948
G1 X124.408 Y81.757 E36.13188
G1 X124.438 Y82.074 E36.14446
G1 X124.438 Y120.498 E37.66229
G1 X124.425 Y120.78 E37.67345
G1 X124.389 Y121.044 E37.68397
G1 X124.331 Y121.308 E37.69465
G1 X124.242 Y121.584 E37.7061
G1 X124.149 Y121.81 E37.71576
G1 X124.019 Y122.057 E37.72678
G1 X123.869 Y122.291 E37.73776
G1 X123.707 Y122.5 E37.74821
G1 X123.531 Y122.694 E37.75856
G1 X123.319 Y122.886 E37.76985
G1 X123.113 Y123.045 E37.78013
G1 X122.887 Y123.186 E37.79066
G1 X122.633 Y123.319 E37.80198
G1 X122.398 Y123.416 E37.81202
G1 X122.129 Y123.5 E37.82316
G1 X121.872 Y123.556 E37.83355
G1 X121.603 Y123.591 E37.84426
G1 X121.47 Y123.599 E37.84953
G1 X47.251 Y123.603 E40.78134
G1 X46.965 Y123.59 E40.79265
G1 X46.687 Y123.552 E40.80373
G1 X46.429 Y123.496 E40.81416
G1 X46.178 Y123.415 E40.82458
G1 X45.922 Y123.308 E40.83554
G1 X45.686 Y123.185 E40.84605
G1 X45.44 Y123.028 E40.85758
G1 X45.361 Y122.97 E40.86145
G1 X45.139 Y122.782 E40.87294
G1 X44.942 Y122.584 E40.88397
G1 X44.777 Y122.386 E40.89416
G1 X44.625 Y122.167 E40.90469
G1 X44.487 Y121.928 E40.91559
G1 X44.37 Y121.677 E40.92653
G1 X44.284 Y121.435 E40.93667
G1 X44.211 Y121.164 E40.94776
G1 X44.164 Y120.892 E40.95866
G1 X44.143 Y120.629 E40.96909
G1 X44.139 Y82.071 E42.49221
G1 X44.152 Y81.956 E42.49678
G1 X44.207 Y81.649 E42.5091
G1 X44.289 Y81.339 E42.52177
G1 X44.399 Y81.031 E42.53469
G1 X44.537 Y80.724 E42.54798
G1 X44.676 Y80.472 E42.55935
G1 X44.854 Y80.204 E42.57206
G1 X45.072 Y79.928 E42.58595
G1 X50.673 Y73.371 E42.9266
G1 X59.088 Y73.371 E43.25901
G1 X66.544 Y45.05 E44.41588
G1 F420 E43.41588
G0 F2250 X65.031 Y44.652
G0 X53.147 Y71.808
G0 X53.115 Y71.882
G0 X49.401 Y80.371
G0 X49.369 Y80.444
G0 X49.37 Y80.444
G0 X50.088 Y79.05
G1 F420 E44.41588
G1 F900 X49.622 Y78.85 E44.43591
G1 X49.112 Y78.708 E44.45682
G1 X48.587 Y78.636 E44.47775
G1 X48.055 Y78.637 E44.49877
G1 X47.528 Y78.712 E44.5198
G1 X47.017 Y78.857 E44.54078
G1 X46.532 Y79.07 E44.5617
G1 X46.079 Y79.348 E44.5827
G1 X45.669 Y79.686 E44.60369
G1 X45.327 Y80.056 E44.62359
G1 X45.02 Y80.488 E44.64453
G1 X44.776 Y80.96 E44.66551
G1 X44.598 Y81.462 E44.68655
G1 X44.493 Y81.993 E44.70794
G1 X44.468 Y82.25 E44.71814
G1 X44.459 Y82.494 E44.72778
G1 X44.467 Y82.746 E44.73774
G1 X44.5 Y83.057 E44.7501
G1 X44.608 Y83.563 E44.77053
G1 X44.789 Y84.062 E44.7915
G1 X45.036 Y84.53 E44.81241
G1 X45.328 Y84.942 E44.83235
G1 X45.69 Y85.328 E44.85326
G1 X46.103 Y85.664 E44.87429
G1 X46.557 Y85.938 E44.89524
G1 X47.043 Y86.149 E44.91617
G1 X47.559 Y86.291 E44.93731
G1 X48.084 Y86.359 E44.95822
G1 X48.616 Y86.357 E44.97923
G1 X49.14 Y86.28 E45.00016
G1 X49.625 Y86.143 E45.02006
G1 X50.111 Y85.932 E45.04099
G1 X50.566 Y85.655 E45.06203
G1 X50.978 Y85.317 E45.08309
G1 X51.337 Y84.928 E45.104
G1 X51.643 Y84.496 E45.12491
G1 X51.885 Y84.022 E45.14593
G1 X52.061 Y83.519 E45.16698
G1 X52.165 Y82.999 E45.18793
G1 X52.198 Y82.495 E45.20788
G1 X52.162 Y81.968 E45.22875
G1 X52.053 Y81.448 E45.24974
G1 X51.874 Y80.947 E45.27075
G1 X51.627 Y80.475 E45.2918
G1 X51.317 Y80.042 E45.31283
G1 X50.955 Y79.658 E45.33368
G1 X50.543 Y79.325 E45.3546
G1 X50.088 Y79.05 E45.37561
G1 F420 E44.37561
G0 F2250 X49.37 Y80.444
G0 X49.27 Y84.595
G0 X49.268 Y84.675
G0 X48.486 Y117.12
G0 X48.484 Y117.2
G0 X48.485 Y117.2
G0 X48.587 Y115.636
G1 F420 E45.37561
G1 F900 X48.055 Y115.637 E45.39662
G1 X47.528 Y115.712 E45.41765
G1 X47.017 Y115.857 E45.43863
G1 X46.532 Y116.07 E45.45955
G1 X46.079 Y116.348 E45.48055
G1 X45.669 Y116.686 E45.50154
G1 X45.327 Y117.056 E45.52144
G1 X45.02 Y117.488 E45.54238
G1 X44.776 Y117.96 E45.56337
G1 X44.598 Y118.462 E45.58441
G1 X44.493 Y118.993 E45.60579
G1 X44.468 Y119.25 E45.61599
G1 X44.459 Y119.494 E45.62563
G1 X44.467 Y119.746 E45.63559
G1 X44.5 Y120.057 E45.64795
G1 X44.608 Y120.563 E45.66839
G1 X44.789 Y121.062 E45.68935
G1 X45.036 Y121.53 E45.71026
G1 X45.328 Y121.942 E45.73021
G1 X45.69 Y122.328 E45.75111
G1 X46.103 Y122.664 E45.77214
G1 X46.557 Y122.938 E45.79309
G1 X47.043 Y123.149 E45.81402
G1 X47.559 Y123.291 E45.83516
G1 X48.084 Y123.359 E45.85607
G1 X48.616 Y123.357 E45.87709
G1 X49.14 Y123.28 E45.89801
G1 X49.625 Y123.143 E45.91792
G1 X50.111 Y122.932 E45.93885
G1 X50.566 Y122.655 E45.95989
G1 X50.978 Y122.317 E45.98094
G1 X51.337 Y121.928 E46.00185
G1 X51.643 Y121.496 E46.02276
G1 X51.885 Y121.022 E46.04378
G1 X52.061 Y120.519 E46.06483
G1 X52.165 Y119.999 E46.08578
G1 X52.198 Y119.495 E46.10573
G1 X52.162 Y118.968 E46.1266
G1 X52.053 Y118.448 E46.14759
G1 X51.874 Y117.947 E46.1686
G1 X51.627 Y117.475 E46.18965
G1 X51.317 Y117.042 E46.21068
G1 X50.955 Y116.658 E46.23153
G1 X50.543 Y116.325 E46.25246
G1 X50.088 Y116.05 E46.27346
G1 X49.622 Y115.85 E46.29349
