;Generated by Cura LulzBot Edition GCodeWriter Version: 2.6.66
;FLAVOR:RepRap
;TIME:3235
;Filament used: 1.52165m
;Layer height: 0.378
;Generated with Cura_SteamEngine 2.6.66
;This G-Code has been generated specifically for the LulzBot Mini with Aerostruder
G26 ; clear potential 'probe fail' condition
G21 ; set units to Millimetres
M107 ; disable fans
G90 ; absolute positioning
M82 ; set extruder to absolute mode
G92 E0 ; set extruder position to 0
M140 S115 ; start bed heating up
G28 ; home all axes
G0 X0 Y187 Z156 F200 ; move away from endstops
M109 R170 ; soften filament before retraction
G1 E-15 F75 ; retract filament
M109 R170 ; wait for extruder to reach wiping temp
G1 X45 Y173 F11520 ; move above wiper pad
G1 Z0 F1200 ; push nozzle into wiper
G1 X42 Y173 Z-.5 F4000 ; wiping
G1 X52 Y171 Z-.5 F4000 ; wiping
G1 X42 Y173 Z0 F4000 ; wiping
G1 X52 Y171 F4000 ; wiping
G1 X42 Y173 F4000 ; wiping
G1 X52 Y171 F4000 ; wiping
G1 X42 Y173 F4000 ; wiping
G1 X52 Y171 F4000 ; wiping
G1 X57 Y173 F4000 ; wiping
G1 X77 Y171 F4000 ; wiping
G1 X57 Y173 F4000 ; wiping
G1 X77 Y171 F4000 ; wiping
G1 X57 Y173 F4000 ; wiping
G1 X87 Y171 F4000 ; wiping
G1 X77 Y173 F4000 ; wiping
G1 X97 Y171 F4000 ; wiping
G1 X77 Y173 F4000 ; wiping
G1 X97 Y171 F4000 ; wiping
G1 X77 Y173 F4000 ; wiping
G1 X97 Y171 F4000 ; wiping
G1 X107 Y173 F4000 ; wiping
G1 X97 Y171 F4000 ; wiping
G1 X107 Y173 F4000 ; wiping
G1 X97 Y171 F4000 ; wiping
G1 X107 Y173 F4000 ; wiping
G1 X112 Y171 Z-0.5 F1000 ; wiping
G1 Z10 ; raise extruder
G28 X0 Y0 ; home X and Y
G0 X0 Y187 F200 ; move away from endstops
M109 R170 ; wait for extruder to reach probe temp
M204 S300 ; set probing acceleration
G29 ; start auto-leveling sequence
M204 S2000 ; restore standard acceleration
G28 X0 Y0 ; re-home to account for build variance of earlier mini builds
G0 X0 Y187 F200 ; move away from endstops
G0 Y152 F4000 ; move in front of wiper pad
G4 S1 ; pause
M400 ; wait for moves to finish
M117 Heating... ; progress indicator message on LCD
M109 R245 ; wait for extruder to reach printing temp
M190 S116 ; wait for bed to reach printing temp
G1 Z2 E0 F75 ; prime tiny bit of filament into the nozzle
M117 Mini Printing... ; progress indicator message on LCD


M221 S100
;LAYER_COUNT:7
;LAYER:0
M107
M204 S1000
M205 X10
G0 F2250 X54.787 Y10.047 Z0.42
G0 X54.747 Y10.558
;TYPE:SKIRT
G1 F900 X54.787 Y10.047 E0.02025
G1 X54.973 Y9.358 E0.04844
G1 X55.236 Y8.685 E0.07698
G1 X55.46 Y8.223 E0.09726
G1 X55.752 Y7.801 E0.11753
G1 X55.938 Y7.592 E0.12859
G1 X56.522 Y6.988 E0.16178
G1 X56.906 Y6.648 E0.18204
G1 X57.339 Y6.371 E0.20234
G1 X57.751 Y6.186 E0.22018
G1 X58.634 Y5.86 E0.25736
G1 X59.128 Y5.72 E0.27764
G1 X59.777 Y5.656 E0.30341
G1 X94.229 Y5.661 E1.66433
G1 X94.741 Y5.701 E1.68462
G1 X95.056 Y5.766 E1.69733
G1 X95.601 Y5.907 E1.71956
G1 X96.086 Y6.074 E1.73983
G1 X96.533 Y6.31 E1.75979
G1 X97.087 Y6.659 E1.78566
G1 X97.499 Y6.965 E1.80593
G1 X97.858 Y7.332 E1.82621
G1 X98.03 Y7.556 E1.83737
G1 X98.523 Y8.259 E1.87129
G1 X98.784 Y8.701 E1.89156
G1 X99.025 Y9.365 E1.91947
G1 X99.186 Y10.019 E1.94607
G1 X99.27 Y10.526 E1.96637
G1 X99.282 Y10.809 E1.97756
G1 X99.259 Y140.669 E7.10731
G1 X99.219 Y141.18 E7.12756
G1 X99.084 Y141.728 E7.14986
G1 X98.891 Y142.297 E7.17359
G1 X98.689 Y142.769 E7.19387
G1 X98.345 Y143.296 E7.21873
G1 X97.893 Y143.862 E7.24734
G1 X97.542 Y144.237 E7.26763
G1 X97.051 Y144.609 E7.29197
G1 X96.426 Y144.996 E7.32101
G1 X95.97 Y145.231 E7.34127
G1 X95.276 Y145.437 E7.36987
G1 X94.601 Y145.559 E7.39696
G1 X94.014 Y145.612 E7.42024
G1 X60.556 Y145.617 E8.74191
G1 X60.203 Y145.598 E8.75587
G1 X58.938 Y145.462 E8.80613
G1 X58.434 Y145.368 E8.82638
G1 X57.95 Y145.196 E8.84667
G1 X57.529 Y144.971 E8.86553
G1 X56.867 Y144.553 E8.89646
G1 X56.456 Y144.246 E8.91672
G1 X56.097 Y143.879 E8.937
G1 X55.88 Y143.589 E8.95131
G1 X55.387 Y142.847 E8.9865
G1 X55.137 Y142.399 E9.00677
G1 X54.927 Y141.79 E9.03221
G1 X54.817 Y141.331 E9.05086
G1 X54.736 Y140.824 E9.07114
G1 X54.726 Y140.561 E9.08154
G1 X54.747 Y11.053 E14.19738
G0 F810 X54.747 Y10.558
G1 F420 E12.69738
G0 F2250 X57.335 Y11.094
G0 X59.2 Y11.134
;TYPE:WALL-INNER
G1 F420 E14.21694
G1 F900 X59.211 Y10.827 E14.22503
G1 X59.268 Y10.614 E14.23083
G1 X59.338 Y10.49 E14.23458
G1 X59.402 Y10.405 E14.23739
G1 X59.517 Y10.3 E14.24149
G1 X59.662 Y10.211 E14.24597
G1 X59.79 Y10.163 E14.24957
G1 X59.917 Y10.139 E14.25297
G1 X63.158 Y10.135 E14.33832
G1 X63.376 Y10.135 E14.34406
G1 X63.747 Y10.134 E14.35383
G1 X63.377 Y10.375 E14.3569
G1 X63.211 Y10.516 E14.36155
G1 X63.085 Y10.623 E14.36591
G1 X62.793 Y10.939 E14.37724
G1 X62.54 Y11.306 E14.38898
G1 X62.358 Y11.674 E14.39979
G1 X62.271 Y11.897 E14.40609
G1 X62.209 Y12.107 E14.41186
G1 X62.161 Y12.312 E14.4174
G1 X62.125 Y12.528 E14.42317
G1 X62.104 Y12.755 E14.42917
G1 X62.105 Y13.162 E14.43989
G1 X62.165 Y13.585 E14.45114
G1 X62.279 Y13.997 E14.4624
G1 X62.448 Y14.39 E14.47367
G1 X62.656 Y14.738 E14.48434
G1 X62.796 Y14.928 E14.49056
G1 X62.948 Y15.104 E14.49668
G1 X63.196 Y15.344 E14.50577
G1 X63.418 Y15.523 E14.51328
G1 X63.761 Y15.741 E14.52398
G1 X64.021 Y15.866 E14.53158
G1 X64.362 Y15.996 E14.54119
G1 X64.76 Y16.09 E14.55196
G1 X64.995 Y16.12 E14.5582
G1 X65.203 Y16.132 E14.56369
G1 X65.435 Y16.132 E14.5698
G1 X65.842 Y16.09 E14.58057
G1 X66.258 Y15.99 E14.59184
G1 X66.655 Y15.835 E14.60306
G1 X67.008 Y15.641 E14.61367
G1 X67.2 Y15.509 E14.61981
G1 X67.387 Y15.362 E14.62607
G1 X67.661 Y15.094 E14.63616
G1 X67.827 Y14.901 E14.64287
G1 X68.058 Y14.563 E14.65365
G1 X68.25 Y14.181 E14.66491
G1 X68.383 Y13.796 E14.67563
G1 X68.436 Y13.571 E14.68172
G1 X68.471 Y13.364 E14.68725
G1 X68.496 Y13.131 E14.69342
G1 X68.496 Y12.72 E14.70425
G1 X68.439 Y12.295 E14.71554
G1 X68.324 Y11.878 E14.72693
G1 X68.164 Y11.507 E14.73757
G1 X68.045 Y11.286 E14.74418
G1 X67.824 Y10.964 E14.75446
G1 X67.658 Y10.769 E14.76121
G1 X67.408 Y10.526 E14.77039
G1 X67.365 Y10.485 E14.77195
G1 X67.019 Y10.231 E14.78326
G1 X66.841 Y10.134 E14.7886
G1 X67.019 Y10.134
G1 X67.365 Y10.134 E14.79064
G1 X67.425 Y10.134 E14.79214
G1 X86.577 Y10.134 E15.2965
G1 X86.616 Y10.134 E15.29753
G1 X86.789 Y10.134 E15.30208
G1 X86.979 Y10.134 E15.30709
G1 X87.159 Y10.134 E15.31183
G1 X86.979 Y10.234
G1 X86.789 Y10.366
G1 X86.616 Y10.503 E15.31642
G1 X86.588 Y10.529 E15.31739
G1 X86.457 Y10.651 E15.3221
G1 X86.298 Y10.818 E15.32817
G1 X86.086 Y11.088 E15.33721
G1 X85.949 Y11.298 E15.34382
G1 X85.761 Y11.665 E15.35467
G1 X85.631 Y12.027 E15.3648
G1 X85.563 Y12.291 E15.37198
G1 X85.526 Y12.516 E15.37799
G1 X85.504 Y12.747 E15.3841
G1 X85.504 Y13.153 E15.39479
G1 X85.542 Y13.439 E15.40239
G1 X85.615 Y13.791 E15.41186
G1 X85.757 Y14.199 E15.42323
G1 X85.954 Y14.584 E15.43462
G1 X86.201 Y14.937 E15.44597
G1 X86.445 Y15.203 E15.45547
G1 X86.609 Y15.357 E15.4614
G1 X86.801 Y15.512 E15.4679
G1 X87.151 Y15.734 E15.47881
G1 X87.476 Y15.887 E15.48827
G1 X87.747 Y15.99 E15.49591
G1 X88.159 Y16.09 E15.50707
G1 X88.459 Y16.123 E15.51502
G1 X88.822 Y16.133 E15.52458
G1 X89.245 Y16.089 E15.53578
G1 X89.67 Y15.987 E15.54729
G1 X90.052 Y15.834 E15.55813
G1 X90.273 Y15.72 E15.56468
G1 X90.581 Y15.525 E15.57428
G1 X90.91 Y15.252 E15.58554
G1 X91.202 Y14.933 E15.59692
G1 X91.436 Y14.597 E15.60771
G1 X91.554 Y14.385 E15.6141
G1 X91.652 Y14.169 E15.62034
G1 X91.779 Y13.804 E15.63052
G1 X91.834 Y13.576 E15.6367
G1 X91.871 Y13.366 E15.64231
G1 X91.892 Y13.151 E15.648
G1 X91.9 Y12.928 E15.65388
G1 X91.888 Y12.666 E15.66079
G1 X91.841 Y12.303 E15.67042
G1 X91.728 Y11.89 E15.6817
G1 X91.571 Y11.517 E15.69236
G1 X91.449 Y11.29 E15.69914
G1 X91.216 Y10.953 E15.70993
G1 X90.932 Y10.638 E15.7211
G1 X90.785 Y10.513 E15.72619
G1 X90.605 Y10.359 E15.73242
G1 X90.249 Y10.134 E15.74351
G1 X90.605 Y10.134 E15.74431
G1 X90.842 Y10.134 E15.74927
G1 X93.975 Y10.134 E15.83178
G1 X94.107 Y10.142 E15.83526
G1 X94.234 Y10.172 E15.8387
G1 X94.327 Y10.205 E15.8413
G1 X94.426 Y10.26 E15.84428
G1 X94.525 Y10.333 E15.84752
G1 X94.639 Y10.457 E15.85196
G1 X94.694 Y10.541 E15.8546
G1 X94.758 Y10.681 E15.85865
G1 X94.788 Y10.813 E15.86222
G1 X94.799 Y10.953 E15.86592
G1 X94.795 Y18.015 E16.05189
G1 X94.765 Y18.159 E16.05577
G1 X94.728 Y18.259 E16.05858
G1 X94.68 Y18.35 E16.06128
G1 X94.601 Y18.456 E16.06477
G1 X94.503 Y18.553 E16.0684
G1 X94.331 Y18.659 E16.07372
G1 X94.222 Y18.7 E16.07679
G1 X94.115 Y18.724 E16.07967
G1 X93.957 Y18.734 E16.08384
G1 X60.049 Y18.734 E16.9768
G1 X59.879 Y18.721 E16.98129
G1 X59.78 Y18.699 E16.98396
G1 X59.666 Y18.657 E16.98716
G1 X59.498 Y18.555 E16.99234
G1 X59.367 Y18.418 E16.99733
G1 X59.305 Y18.324 E17.0003
G1 X59.234 Y18.158 E17.00505
G1 X59.205 Y17.999 E17.00931
G1 X59.2 Y17.75 E17.01586
G1 X59.2 Y11.876 E17.17056
G0 F810 X59.2 Y11.134
G0 F2250 X58.8 Y11.119
G1 F420 E17.1901
G1 F900 X58.813 Y10.77 E17.19929
G1 X58.881 Y10.501 E17.2066
G1 X58.911 Y10.434 E17.20853
G1 X59.002 Y10.271 E17.21345
G1 X59.101 Y10.141 E17.21775
G1 X59.219 Y10.025 E17.22211
G1 X59.286 Y9.972 E17.22436
G1 X59.487 Y9.849 E17.23057
G1 X59.679 Y9.778 E17.23596
G1 X59.827 Y9.746 E17.23994
G1 X59.895 Y9.739 E17.24174
G1 X62.605 Y9.734 E17.31311
G1 X65.387 Y9.734 E17.38638
G1 X88.619 Y9.734 E17.99818
G1 X93.982 Y9.734 E18.13942
G1 X94.165 Y9.745 E18.14425
G1 X94.347 Y9.788 E18.14917
G1 X94.494 Y9.84 E18.15328
G1 X94.645 Y9.924 E18.15783
G1 X94.783 Y10.026 E18.16235
G1 X94.857 Y10.097 E18.16505
G1 X94.959 Y10.216 E18.16917
G1 X95.045 Y10.347 E18.1733
G1 X95.122 Y10.51 E18.17805
G1 X95.144 Y10.574 E18.17983
G1 X95.185 Y10.758 E18.1848
G1 X95.199 Y10.935 E18.18947
G1 X95.197 Y18.01 E18.37579
G1 X95.19 Y18.081 E18.37767
G1 X95.152 Y18.263 E18.38257
G1 X95.094 Y18.421 E18.387
G1 X95.016 Y18.568 E18.39138
G1 X94.909 Y18.712 E18.3961
G1 X94.783 Y18.841 E18.40085
G1 X94.733 Y18.882 E18.40256
G1 X94.509 Y19.02 E18.40948
G1 X94.341 Y19.083 E18.41421
G1 X94.17 Y19.121 E18.41882
G1 X93.966 Y19.134 E18.42421
G1 X60.032 Y19.134 E19.31785
G1 X59.819 Y19.118 E19.32348
G1 X59.67 Y19.085 E19.32749
G1 X59.497 Y19.021 E19.33235
G1 X59.289 Y18.901 E19.33868
G1 X59.228 Y18.851 E19.34075
G1 X59.096 Y18.719 E19.34567
G1 X59.045 Y18.658 E19.34776
G1 X58.955 Y18.52 E19.3521
G1 X58.874 Y18.345 E19.35718
G1 X58.848 Y18.264 E19.35942
G1 X58.816 Y18.113 E19.36349
G1 X58.806 Y18.032 E19.36564
G1 X58.8 Y17.75 E19.37306
G1 X58.8 Y11.861 E19.52815
G0 F810 X58.8 Y11.119
G1 F420 E18.02815
G0 F2250 X57.335 Y11.119
G0 X57.336 Y11.119
G0 X57.414 Y11.135
G0 X63.961 Y12.477
G0 X64.039 Y12.493
G0 X62.65 Y12.026
G1 F420 E19.54769
G1 F900 X62.596 Y12.21 E19.55274
G1 X62.553 Y12.391 E19.55764
G1 X62.522 Y12.579 E19.56266
G1 X62.504 Y12.773 E19.56779
G1 X62.505 Y13.133 E19.57727
G1 X62.557 Y13.503 E19.58711
G1 X62.657 Y13.864 E19.59697
G1 X62.805 Y14.208 E19.60683
G1 X62.989 Y14.516 E19.61628
G1 X63.109 Y14.678 E19.62159
G1 X63.239 Y14.829 E19.62684
G1 X63.461 Y15.044 E19.63498
G1 X63.652 Y15.198 E19.64144
G1 X63.955 Y15.391 E19.6509
G1 X64.179 Y15.498 E19.65744
G1 X64.48 Y15.613 E19.66592
G1 X64.831 Y15.696 E19.67542
G1 X65.032 Y15.721 E19.68075
G1 X65.215 Y15.732 E19.68558
G1 X65.414 Y15.732 E19.69082
G1 X65.774 Y15.695 E19.70035
G1 X66.138 Y15.607 E19.71022
G1 X66.485 Y15.472 E19.72002
G1 X66.798 Y15.3 E19.72943
G1 X66.963 Y15.187 E19.73469
G1 X67.123 Y15.061 E19.74006
G1 X67.369 Y14.82 E19.74913
G1 X67.509 Y14.657 E19.75478
G1 X67.713 Y14.359 E19.76429
G1 X67.881 Y14.025 E19.77414
G1 X67.998 Y13.685 E19.78361
G1 X68.044 Y13.491 E19.78886
G1 X68.075 Y13.309 E19.79372
G1 X68.096 Y13.11 E19.79899
G1 X68.096 Y12.747 E19.80855
G1 X68.046 Y12.375 E19.81844
G1 X67.946 Y12.011 E19.82838
G1 X67.804 Y11.682 E19.83781
G1 X67.703 Y11.495 E19.84341
G1 X67.506 Y11.207 E19.8526
G1 X67.366 Y11.043 E19.85828
G1 X67.106 Y10.791 E19.86781
G1 X66.804 Y10.569 E19.87768
G1 X66.475 Y10.39 E19.88755
G1 X66.139 Y10.261 E19.89703
G1 X65.946 Y10.208 E19.9023
G1 X65.746 Y10.168 E19.90767
G1 X65.387 Y10.134 E19.91716
G1 X65.017 Y10.146 E19.92691
G1 X64.664 Y10.204 E19.93633
G1 X64.36 Y10.298 E19.94471
G1 X64.14 Y10.383 E19.95093
G1 X63.947 Y10.481 E19.95663
G1 X63.616 Y10.696 E19.96702
G1 X63.362 Y10.912 E19.9758
G1 X63.106 Y11.189 E19.98573
G1 X62.985 Y11.365 E19.99136
G0 F810 X62.886 Y11.509
G0 X62.724 Y11.836
G0 X62.65 Y12.026
G1 F420 E18.49136
G0 F2250 X64.039 Y12.493
G0 X66.57 Y12.529
G0 X66.65 Y12.531
G0 X87.288 Y12.835
G0 X87.368 Y12.836
G0 X87.368 Y12.837
G0 X85.904 Y12.766
G1 F420 E20.0109
G1 F900 X85.904 Y13.126 E20.02038
G1 X85.937 Y13.372 E20.02692
G1 X86.001 Y13.684 E20.0353
G1 X86.126 Y14.041 E20.04526
G1 X86.298 Y14.377 E20.0552
G1 X86.514 Y14.686 E20.06513
G1 X86.73 Y14.922 E20.07356
G1 X86.872 Y15.055 E20.07868
G1 X87.035 Y15.187 E20.08421
G1 X87.344 Y15.383 E20.09384
G1 X87.632 Y15.518 E20.10222
G1 X87.866 Y15.607 E20.10881
G1 X88.229 Y15.695 E20.11865
G1 X88.486 Y15.724 E20.12546
G1 X88.807 Y15.732 E20.13391
G1 X89.178 Y15.694 E20.14374
G1 X89.548 Y15.605 E20.15376
G1 X89.886 Y15.47 E20.16334
G1 X90.074 Y15.373 E20.16891
G1 X90.345 Y15.201 E20.17737
G1 X90.634 Y14.962 E20.18724
G1 X90.889 Y14.683 E20.1972
G1 X91.096 Y14.385 E20.20675
G1 X91.196 Y14.205 E20.21217
G1 X91.28 Y14.02 E20.21753
G1 X91.395 Y13.691 E20.2267
G1 X91.442 Y13.495 E20.23201
G1 X91.474 Y13.311 E20.23693
G1 X91.493 Y13.124 E20.24188
G1 X91.5 Y12.93 E20.24699
G1 X91.489 Y12.701 E20.25303
G1 X91.448 Y12.382 E20.2615
G1 X91.349 Y12.021 E20.27136
G1 X91.21 Y11.69 E20.28081
G1 X91.107 Y11.499 E20.28653
G1 X90.902 Y11.202 E20.29603
G1 X90.652 Y10.925 E20.30586
G1 X90.367 Y10.681 E20.31574
G1 X90.063 Y10.488 E20.32522
G1 X89.887 Y10.397 E20.33044
G1 X89.714 Y10.323 E20.33539
G1 X89.535 Y10.26 E20.34039
G1 X89.355 Y10.211 E20.3453
G1 X89.158 Y10.171 E20.3506
G1 X88.852 Y10.141 E20.35869
G1 X88.619 Y10.134 E20.36483
G1 X88.256 Y10.166 E20.37443
G1 X88.04 Y10.211 E20.38024
G1 X87.809 Y10.282 E20.3866
G1 X87.511 Y10.396 E20.39501
G1 X87.191 Y10.574 E20.40465
G1 X87.028 Y10.687 E20.40987
G1 X86.877 Y10.807 E20.41495
G1 X86.738 Y10.936 E20.41995
G1 X86.601 Y11.08 E20.42518
G1 X86.411 Y11.322 E20.43328
G1 X86.295 Y11.499 E20.43886
G1 X86.129 Y11.824 E20.44847
G1 X86.051 Y12.04 E20.45451
G0 F810 X86.014 Y12.145
G0 X85.955 Y12.374
G0 X85.923 Y12.568
G0 X85.904 Y12.766
G0 F2250 X86.419 Y12.633
;TYPE:WALL-OUTER
G1 F420 E20.47405
G1 F900 X86.404 Y12.79 E20.48028
G1 X86.404 Y13.093 E20.49225
G1 X86.43 Y13.288 E20.50002
G1 X86.484 Y13.55 E20.51059
G1 X86.587 Y13.843 E20.52286
G1 X86.728 Y14.119 E20.5351
G1 X86.905 Y14.373 E20.54733
G1 X87.086 Y14.57 E20.5579
G1 X87.201 Y14.678 E20.56413
G1 X87.327 Y14.78 E20.57054
G1 X87.585 Y14.944 E20.58261
G1 X87.827 Y15.057 E20.59316
G1 X88.015 Y15.129 E20.60112
G1 X88.316 Y15.202 E20.61335
G1 X88.52 Y15.225 E20.62146
G1 X88.787 Y15.231 E20.63201
G1 X89.094 Y15.2 E20.6442
G1 X89.396 Y15.127 E20.65647
G1 X89.679 Y15.014 E20.66851
G1 X89.825 Y14.939 E20.67499
G1 X90.05 Y14.796 E20.68552
G1 X90.288 Y14.599 E20.69773
G1 X90.497 Y14.37 E20.70998
G1 X90.671 Y14.12 E20.72201
G1 X90.749 Y13.979 E20.72837
G1 X90.816 Y13.833 E20.73472
G1 X90.915 Y13.55 E20.74656
G1 X90.952 Y13.395 E20.75286
G1 X90.978 Y13.243 E20.75895
G1 X90.994 Y13.089 E20.76506
G1 X91 Y12.932 E20.77127
G1 X90.991 Y12.745 E20.77867
G1 X90.957 Y12.481 E20.78918
G1 X90.875 Y12.184 E20.80135
G1 X90.759 Y11.906 E20.81325
G1 X90.68 Y11.761 E20.81977
G1 X90.509 Y11.512 E20.83171
G1 X90.303 Y11.284 E20.84384
G1 X90.069 Y11.084 E20.856
G1 X89.814 Y10.922 E20.86794
G1 X89.674 Y10.85 E20.87416
G1 X89.532 Y10.789 E20.88026
G1 X89.387 Y10.738 E20.88633
G1 X89.239 Y10.698 E20.89239
G1 X89.083 Y10.666 E20.89868
G1 X88.821 Y10.64 E20.90908
G1 X88.634 Y10.635 E20.91647
G1 X88.329 Y10.662 E20.92857
G1 X88.164 Y10.696 E20.93522
G1 X87.972 Y10.755 E20.94315
G1 X87.723 Y10.85 E20.95368
G1 X87.456 Y10.999 E20.96576
G1 X87.326 Y11.089 E20.97201
G1 X87.203 Y11.187 E20.97822
G1 X87.089 Y11.292 E20.98434
G1 X86.98 Y11.407 E20.9906
G1 X86.817 Y11.614 E21.00101
G1 X86.728 Y11.75 E21.00743
G1 X86.589 Y12.022 E21.01949
G1 X86.542 Y12.155 E21.02507
G0 F810 X86.493 Y12.292
G0 X86.445 Y12.478
G0 X86.419 Y12.633
G0 F2250 X86.404 Y12.79
G0 X86.404 Y12.883
G1 F420 E19.52507
G0 F2250 X87.369 Y12.883
