;Generated by Cura LulzBot Edition GCodeWriter Version: 2.6.66
;FLAVOR:RepRap
;TIME:6178
;Filament used: 3.72816m
;Layer height: 0.378
;Generated with Cura_SteamEngine 2.6.66
;This G-Code has been generated specifically for the LulzBot Mini with Aerostruder
G26 ; clear potential 'probe fail' condition
G21 ; set units to Millimetres
M107 ; disable fans
G90 ; absolute positioning
M82 ; set extruder to absolute mode
G92 E0 ; set extruder position to 0
M140 S115 ; start bed heating up
G28 ; home all axes
G0 X0 Y187 Z156 F200 ; move away from endstops
M109 R170 ; soften filament before retraction
G1 E-15 F75 ; retract filament
M109 R170 ; wait for extruder to reach wiping temp
G1 X45 Y173 F11520 ; move above wiper pad
G1 Z0 F1200 ; push nozzle into wiper
G1 X42 Y173 Z-.5 F4000 ; wiping
G1 X52 Y171 Z-.5 F4000 ; wiping
G1 X42 Y173 Z0 F4000 ; wiping
G1 X52 Y171 F4000 ; wiping
G1 X42 Y173 F4000 ; wiping
G1 X52 Y171 F4000 ; wiping
G1 X42 Y173 F4000 ; wiping
G1 X52 Y171 F4000 ; wiping
G1 X57 Y173 F4000 ; wiping
G1 X77 Y171 F4000 ; wiping
G1 X57 Y173 F4000 ; wiping
G1 X77 Y171 F4000 ; wiping
G1 X57 Y173 F4000 ; wiping
G1 X87 Y171 F4000 ; wiping
G1 X77 Y173 F4000 ; wiping
G1 X97 Y171 F4000 ; wiping
G1 X77 Y173 F4000 ; wiping
G1 X97 Y171 F4000 ; wiping
G1 X77 Y173 F4000 ; wiping
G1 X97 Y171 F4000 ; wiping
G1 X107 Y173 F4000 ; wiping
G1 X97 Y171 F4000 ; wiping
G1 X107 Y173 F4000 ; wiping
G1 X97 Y171 F4000 ; wiping
G1 X107 Y173 F4000 ; wiping
G1 X112 Y171 Z-0.5 F1000 ; wiping
G1 Z10 ; raise extruder
G28 X0 Y0 ; home X and Y
G0 X0 Y187 F200 ; move away from endstops
M109 R170 ; wait for extruder to reach probe temp
M204 S300 ; set probing acceleration
G29 ; start auto-leveling sequence
M204 S2000 ; restore standard acceleration
G28 X0 Y0 ; re-home to account for build variance of earlier mini builds
G0 X0 Y187 F200 ; move away from endstops
G0 Y152 F4000 ; move in front of wiper pad
G4 S1 ; pause
M400 ; wait for moves to finish
M117 Heating... ; progress indicator message on LCD
M109 R245 ; wait for extruder to reach printing temp
M190 S116 ; wait for bed to reach printing temp
G1 Z2 E0 F75 ; prime tiny bit of filament into the nozzle
M117 Mini Printing... ; progress indicator message on LCD


M221 S100
;LAYER_COUNT:24
;LAYER:0
M107
M204 S800
M205 X2
G0 F2250 X22.979 Y5.26 Z0.42
;TYPE:SKIRT
G1 F900 X23.062 Y4.953 E0.01256
G1 X23.402 Y4.117 E0.04821
G1 X23.569 Y3.823 E0.06157
G1 X24.122 Y3.091 E0.09781
G1 X24.362 Y2.848 E0.1113
G1 X25.078 Y2.292 E0.14711
G1 X25.369 Y2.122 E0.16042
G1 X26.206 Y1.768 E0.19632
G1 X26.535 Y1.677 E0.20981
G1 X27.48 Y1.547 E0.24749
G1 X27.657 Y1.535 E0.2545
G1 X115.886 Y1.56 E3.73973
G1 X116.07 Y1.573 E3.74702
G1 X116.698 Y1.663 E3.77208
G1 X117.003 Y1.745 E3.78456
G1 X117.858 Y2.092 E3.82101
G1 X118.154 Y2.26 E3.83445
G1 X118.87 Y2.802 E3.86992
G1 X119.111 Y3.041 E3.88333
G1 X119.675 Y3.766 E3.91962
G1 X119.846 Y4.058 E3.93298
G1 X120.198 Y4.891 E3.96871
G1 X120.293 Y5.256 E3.9836
G1 X120.746 Y9.416 E4.1489
G1 X121.552 Y14.943 E4.36954
G1 X122.672 Y20.433 E4.59088
G1 X123.341 Y23.126 E4.70049
G1 X124.09 Y25.812 E4.81064
G1 X125.821 Y31.136 E5.03179
G1 X126.793 Y33.744 E5.14173
G1 X128.969 Y38.901 E5.36283
G1 X130.902 Y43.057 E5.54389
G1 X131.014 Y43.455 E5.56023
G1 X131.149 Y44.62 E5.60656
G1 X131.158 Y44.772 E5.61257
G1 X131.147 Y51.563 E5.88083
G1 X131.113 Y51.855 E5.89244
G1 X129.694 Y57.966 E6.14026
G1 X129.176 Y60.678 E6.24933
G1 X128.357 Y66.207 E6.47012
G1 X127.851 Y71.779 E6.69113
G1 X127.66 Y77.912 E6.93352
G1 X127.7 Y80.927 E7.05263
G1 X128.016 Y86.504 E7.27328
G1 X128.647 Y92.066 E7.4944
G1 X129.589 Y97.562 E7.71467
G1 X130.18 Y100.306 E7.82555
G1 X131.113 Y104.216 E7.98434
G1 X131.149 Y104.524 E7.99659
G1 X131.116 Y111.85 E8.28599
G1 X131.103 Y112.03 E8.29312
G1 X131.021 Y112.596 E8.31571
G1 X130.915 Y112.952 E8.33038
G1 X127.953 Y119.405 E8.61086
G1 X125.876 Y124.632 E8.83304
G1 X124.976 Y127.22 E8.94128
G1 X123.356 Y132.588 E9.16277
G1 X122.049 Y138.014 E9.38324
G1 X121.052 Y143.496 E9.60334
G1 X120.306 Y149.336 E9.83591
G1 X120.221 Y149.659 E9.8491
G1 X119.874 Y150.515 E9.88559
G1 X119.706 Y150.811 E9.89904
G1 X119.163 Y151.529 E9.9346
G1 X118.923 Y151.772 E9.94809
G1 X118.203 Y152.331 E9.98409
G1 X117.914 Y152.5 E9.99732
G1 X117.081 Y152.854 E10.03307
G1 X116.722 Y152.949 E10.04774
G1 X115.516 Y153.088 E10.0957
G1 X115.367 Y153.097 E10.10159
G1 X27.606 Y153.085 E13.56834
G1 X27.433 Y153.074 E13.57519
G1 X26.589 Y152.961 E13.60883
G1 X26.276 Y152.878 E13.62162
G1 X25.439 Y152.541 E13.65726
G1 X25.141 Y152.372 E13.6708
G1 X24.402 Y151.813 E13.7074
G1 X24.158 Y151.572 E13.72095
G1 X23.606 Y150.859 E13.75656
G1 X23.437 Y150.571 E13.76976
G1 X23.081 Y149.733 E13.80572
G1 X22.987 Y149.375 E13.82034
G1 X22.851 Y148.205 E13.86687
G1 X22.842 Y148.044 E13.87324
G1 X22.903 Y140.896 E14.15561
G1 X22.938 Y140.606 E14.16715
G1 X24.298 Y134.889 E14.39929
G1 X24.817 Y132.187 E14.50797
G1 X25.637 Y126.665 E14.7285
G1 X26.148 Y121.065 E14.95063
G1 X26.281 Y118.334 E15.05864
G1 X26.34 Y114.675 E15.20319
G1 X26.182 Y109.104 E15.42335
G1 X25.71 Y103.544 E15.64377
G1 X24.922 Y98.021 E15.86415
G1 X23.82 Y92.522 E16.08569
G1 X22.886 Y88.603 E16.24484
G1 X22.851 Y88.295 E16.25708
G1 X22.918 Y75.958 E16.74443
G1 X22.842 Y73.12 E16.85657
G1 X22.842 Y73.074 E16.85839
G1 X22.903 Y65.924 E17.14084
G1 X22.938 Y65.634 E17.15238
G1 X24.298 Y59.917 E17.38452
G1 X24.817 Y57.215 E17.4932
G1 X25.637 Y51.693 E17.71373
G1 X26.148 Y46.093 E17.93586
G1 X26.281 Y43.362 E18.04387
G1 X26.34 Y39.702 E18.18846
G1 X26.182 Y34.131 E18.40862
G1 X25.71 Y28.571 E18.62904
G1 X24.922 Y23.048 E18.84942
G1 X23.821 Y17.556 E19.07068
G1 X22.886 Y13.636 E19.22987
G1 X22.851 Y13.331 E19.242
G1 X22.869 Y6.123 E19.52673
G1 X22.882 Y5.943 E19.53386
G1 X22.91 Y5.75 E19.54157
G0 F810 X22.979 Y5.26
G1 F420 E18.54157
G0 F2250 X23.587 Y5.439
G0 X25.059 Y5.634
G0 X26.28 Y4.628
;TYPE:WALL-INNER
G1 F420 E19.56112
G1 F900 X25.732 Y5.085 E19.57991
G1 X26.022 Y4.707 E19.59246
G1 X26.498 Y4.342 E19.60825
G1 X27.045 Y4.115 E19.62385
G1 X27.72 Y4.026 E19.64178
G1 X115.56 Y4.026 E21.95503
G1 X116.234 Y4.114 E21.97293
G1 X116.334 Y4.156 E21.97578
G1 X115.793 Y4.125 E21.99005
G1 X115.004 Y4.281 E22.01123
G1 X114.28 Y4.628 E22.03238
G1 X113.661 Y5.144 E22.0536
G1 X113.194 Y5.798 E22.07476
G1 X112.903 Y6.548 E22.09595
G1 X112.808 Y7.348 E22.11716
G1 X112.914 Y8.144 E22.13831
G1 X113.215 Y8.887 E22.15942
G1 X113.691 Y9.536 E22.18062
G1 X113.801 Y9.626 E22.18436
G1 X30.44 Y9.626 E24.37966
G1 X30.44 Y70.026 E25.97028
G1 X113.803 Y70.026 E28.16562
G1 X113.661 Y70.144 E28.17048
G1 X113.194 Y70.798 E28.19165
G1 X112.903 Y71.548 E28.21283
G1 X112.808 Y72.348 E28.23405
G1 X112.914 Y73.144 E28.2552
G1 X113.215 Y73.887 E28.27631
G1 X113.691 Y74.537 E28.29752
G1 X114.315 Y75.044 E28.3187
G1 X115.042 Y75.382 E28.33981
G1 X115.834 Y75.529 E28.36102
G1 X116.34 Y75.494 E28.37438
G1 X116.234 Y75.538 E28.3774
G1 X115.56 Y75.626 E28.3953
G1 X27.72 Y75.626 E30.70855
G1 X27.045 Y75.537 E30.72648
G1 X26.498 Y75.31 E30.74208
G1 X26.022 Y74.945 E30.75787
G1 X25.738 Y74.576 E30.77014
G1 X26.315 Y75.044 E30.7897
G1 X27.042 Y75.382 E30.81082
G1 X27.834 Y75.529 E30.83203
G1 X28.637 Y75.473 E30.85323
G1 X29.399 Y75.22 E30.87437
G1 X30.076 Y74.785 E30.89556
G1 X30.623 Y74.195 E30.91675
G1 X31.006 Y73.489 E30.9379
G1 X31.2 Y72.707 E30.95912
G1 X31.197 Y71.903 E30.98029
G1 X30.99 Y71.126 E31.00147
G1 X30.598 Y70.424 E31.02264
G1 X30.044 Y69.842 E31.0438
G1 X29.364 Y69.415 E31.06495
G1 X28.597 Y69.171 E31.08615
G1 X27.793 Y69.125 E31.10735
G1 X27.004 Y69.281 E31.12853
G1 X26.28 Y69.628 E31.14968
G1 X25.661 Y70.144 E31.1709
G1 X25.34 Y70.594 E31.18546
G1 X25.34 Y66.404 E31.2958
G1 X25.361 Y66.247 E31.29997
G1 X25.387 Y66.184 E31.30177
G1 X25.436 Y66.12 E31.30389
G1 X25.492 Y66.077 E31.30575
G1 X25.569 Y66.046 E31.30793
G1 X25.715 Y66.026 E31.31181
G1 X26.219 Y66.026 E31.32509
G1 X26.842 Y65.944 E31.34164
G1 X27.496 Y65.673 E31.36028
G1 X28.057 Y65.241 E31.37892
G1 X28.487 Y64.681 E31.39752
G1 X28.758 Y64.027 E31.41616
G1 X28.84 Y63.405 E31.43268
G1 X28.84 Y16.247 E32.67458
G1 X28.758 Y15.625 E32.6911
G1 X28.488 Y14.972 E32.70971
G1 X28.057 Y14.409 E32.72838
G1 X27.494 Y13.978 E32.74705
G1 X26.843 Y13.708 E32.76561
G1 X26.219 Y13.626 E32.78219
G1 X25.715 Y13.626 E32.79546
G1 X25.569 Y13.606 E32.79934
G1 X25.492 Y13.575 E32.80153
G1 X25.436 Y13.532 E32.80339
G1 X25.387 Y13.468 E32.80551
G1 X25.361 Y13.405 E32.8073
G1 X25.34 Y13.248 E32.81148
G1 X25.34 Y9.057 E32.92184
G1 X25.691 Y9.536 E32.93748
G1 X26.315 Y10.045 E32.95869
G1 X27.043 Y10.382 E32.97982
G1 X27.834 Y10.529 E33.001
G1 X28.635 Y10.473 E33.02215
G1 X29.399 Y10.221 E33.04334
G1 X30.076 Y9.785 E33.06454
G1 X30.623 Y9.195 E33.08573
G1 X31.006 Y8.489 E33.10688
G1 X31.2 Y7.708 E33.12807
G1 X31.197 Y6.903 E33.14927
G1 X30.99 Y6.126 E33.17045
G1 X30.598 Y5.424 E33.19162
G1 X30.044 Y4.842 E33.21278
G1 X29.364 Y4.415 E33.23393
G1 X28.597 Y4.171 E33.25513
G1 X27.793 Y4.125 E33.27633
G1 X27.004 Y4.281 E33.29751
G1 X26.949 Y4.307 E33.29912
G0 F810 X26.28 Y4.628
G0 F2250 X26.498 Y4.967
G1 F420 E33.31866
G1 F900 X25.957 Y5.418 E33.3372
G1 X25.549 Y5.99 E33.35571
G1 X25.294 Y6.646 E33.37424
G1 X25.211 Y7.345 E33.39278
G1 X25.304 Y8.041 E33.41127
G1 X25.567 Y8.691 E33.42974
G1 X25.983 Y9.258 E33.44826
G1 X26.529 Y9.703 E33.46681
G1 X27.165 Y9.998 E33.48527
G1 X27.857 Y10.126 E33.5038
G1 X28.557 Y10.077 E33.52228
G1 X29.225 Y9.857 E33.5408
G1 X29.817 Y9.476 E33.55934
G1 X30.295 Y8.96 E33.57787
G1 X30.63 Y8.343 E33.59635
G1 X30.8 Y7.66 E33.61489
G1 X30.797 Y6.956 E33.63343
G1 X30.616 Y6.277 E33.65194
G1 X30.273 Y5.663 E33.67046
G1 X29.789 Y5.154 E33.68895
G1 X29.194 Y4.781 E33.70745
G1 X28.524 Y4.567 E33.72597
G1 X27.821 Y4.527 E33.74451
G1 X27.171 Y4.657 E33.76197
G0 F810 X27.131 Y4.664
G0 X26.498 Y4.967
G0 F2250 X25.737 Y4.422
G1 F420 E33.78151
G1 F900 X26.294 Y3.994 E33.80001
G1 X26.944 Y3.724 E33.81854
G1 X27.691 Y3.626 E33.83839
G1 X115.589 Y3.626 E36.15316
G1 X116.337 Y3.724 E36.17303
G1 X116.986 Y3.994 E36.19154
G1 X117.544 Y4.422 E36.21006
G1 X117.972 Y4.98 E36.22858
G1 X118.242 Y5.63 E36.24711
G1 X117.789 Y5.154 E36.26442
G1 X117.194 Y4.781 E36.28291
G1 X116.524 Y4.567 E36.30143
G1 X115.821 Y4.527 E36.31998
G1 X115.131 Y4.664 E36.3385
G1 X114.498 Y4.967 E36.35698
G1 X113.957 Y5.418 E36.37553
G1 X113.549 Y5.99 E36.39404
G1 X113.294 Y6.646 E36.41257
G1 X113.211 Y7.345 E36.43111
G1 X113.304 Y8.041 E36.4496
G1 X113.567 Y8.691 E36.46807
G1 X113.983 Y9.258 E36.48658
G1 X114.529 Y9.703 E36.50513
G1 X115.165 Y9.998 E36.5236
G1 X115.316 Y10.026 E36.52764
G1 X30.84 Y10.026 E38.7523
G1 X30.84 Y69.626 E40.32185
G1 X115.322 Y69.626 E42.54667
G1 X115.131 Y69.664 E42.55179
G1 X114.498 Y69.967 E42.57028
G1 X113.957 Y70.418 E42.58882
G1 X113.549 Y70.99 E42.60733
G1 X113.294 Y71.646 E42.62586
G1 X113.211 Y72.345 E42.6444
G1 X113.304 Y73.041 E42.66289
G1 X113.567 Y73.691 E42.68136
G1 X113.983 Y74.259 E42.6999
G1 X114.529 Y74.702 E42.71841
G1 X115.165 Y74.998 E42.73689
G1 X115.857 Y75.126 E42.75542
G1 X116.559 Y75.077 E42.77395
G1 X117.225 Y74.856 E42.79243
G1 X117.817 Y74.476 E42.81096
G1 X118.242 Y74.017 E42.82743
G1 X117.972 Y74.672 E42.84609
G1 X117.544 Y75.23 E42.86461
G1 X116.986 Y75.658 E42.88313
G1 X116.337 Y75.928 E42.90164
G1 X115.589 Y76.026 E42.92151
G1 X27.691 Y76.026 E45.23628
G1 X26.944 Y75.928 E45.25612
G1 X26.294 Y75.658 E45.27466
G1 X25.737 Y75.23 E45.29316
G1 X25.308 Y74.672 E45.31169
G1 X25.04 Y74.023 E45.33018
G1 X24.94 Y73.274 E45.35008
G1 X24.94 Y66.38 E45.53163
G1 X24.972 Y66.143 E45.53793
G1 X25.037 Y65.984 E45.54246
G1 X25.152 Y65.834 E45.54743
G1 X25.294 Y65.726 E45.55213
G1 X25.461 Y65.657 E45.55689
G1 X25.692 Y65.626 E45.56303
G1 X26.193 Y65.626 E45.57622
G1 X26.738 Y65.554 E45.5907
G1 X27.294 Y65.324 E45.60654
G1 X27.772 Y64.956 E45.62243
G1 X28.138 Y64.479 E45.63826
G1 X28.368 Y63.923 E45.65411
G1 X28.44 Y63.379 E45.66856
G1 X28.44 Y16.273 E46.90909
G1 X28.368 Y15.729 E46.92354
G1 X28.138 Y15.173 E46.93938
G1 X27.772 Y14.694 E46.95526
G1 X27.293 Y14.328 E46.97113
G1 X26.738 Y14.098 E46.98696
G1 X26.193 Y14.026 E47.00143
G1 X25.692 Y14.026 E47.01463
G1 X25.461 Y13.995 E47.02076
G1 X25.294 Y13.926 E47.02552
G1 X25.152 Y13.818 E47.03022
G1 X25.037 Y13.668 E47.0352
G1 X24.972 Y13.509 E47.03972
G1 X24.94 Y13.272 E47.04602
G1 X24.94 Y6.378 E47.22757
G1 X25.04 Y5.629 E47.24747
G1 X25.294 Y5.016 E47.26495
G0 F810 X25.308 Y4.98
G0 X25.737 Y4.422
G0 F2250 X25.807 Y4.492
G0 X25.256 Y6.637
G0 X25.171 Y7.345
G0 X26.195 Y13.987
G0 X26.748 Y14.06
G0 X27.312 Y14.294
G0 X27.8 Y14.666
G0 X28.172 Y15.154
G0 X28.406 Y15.719
G0 X28.479 Y16.271
G0 X28.479 Y63.381
G0 X27.815 Y69.428
G0 X27.821 Y69.527
G1 F420 E47.28449
G1 F900 X27.131 Y69.664 E47.30301
G1 X26.498 Y69.967 E47.32149
G1 X25.957 Y70.418 E47.34004
G1 X25.549 Y70.99 E47.35854
G1 X25.294 Y71.646 E47.37708
G1 X25.211 Y72.345 E47.39562
G1 X25.304 Y73.041 E47.41411
G1 X25.567 Y73.691 E47.43257
G1 X25.983 Y74.259 E47.45112
G1 X26.529 Y74.702 E47.46963
G1 X27.165 Y74.998 E47.48811
G1 X27.857 Y75.126 E47.50664
G1 X28.559 Y75.077 E47.52517
G1 X29.225 Y74.856 E47.54365
G1 X29.817 Y74.476 E47.56218
G1 X30.295 Y73.96 E47.5807
G1 X30.63 Y73.343 E47.59919
G1 X30.8 Y72.659 E47.61775
G1 X30.797 Y71.956 E47.63626
G1 X30.616 Y71.277 E47.65477
G1 X30.273 Y70.663 E47.67329
G1 X29.789 Y70.154 E47.69179
G1 X29.194 Y69.781 E47.71028
G1 X28.56 Y69.578 E47.72781
G0 F810 X28.524 Y69.567
G0 X27.821 Y69.527
G0 F2250 X27.856 Y70.03
;TYPE:WALL-OUTER
G1 F420 E47.74735
G1 F900 X27.29 Y70.142 E47.77014
G1 X26.77 Y70.391 E47.79292
G1 X26.327 Y70.761 E47.81572
G1 X25.992 Y71.23 E47.83849
G1 X25.783 Y71.768 E47.86129
G1 X25.715 Y72.341 E47.88408
G1 X25.791 Y72.912 E47.90683
G1 X26.007 Y73.446 E47.92959
G1 X26.348 Y73.911 E47.95237
G1 X26.796 Y74.275 E47.97517
G1 X27.318 Y74.518 E47.99791
G1 X27.886 Y74.623 E48.02073
G1 X28.461 Y74.583 E48.0435
G1 X29.008 Y74.401 E48.06627
G1 X29.493 Y74.09 E48.08903
G1 X29.885 Y73.666 E48.11184
G1 X30.16 Y73.16 E48.13459
G1 X30.3 Y72.599 E48.15743
G1 X30.297 Y72.023 E48.18018
G1 X30.149 Y71.466 E48.20295
G1 X29.867 Y70.962 E48.22576
G1 X29.47 Y70.544 E48.24854
G1 X28.982 Y70.238 E48.27129
G1 X28.432 Y70.063 E48.29409
G1 X28.351 Y70.058 E48.29729
G0 F810 X27.856 Y70.03
G0 F2250 X27.611 Y70.078
G0 X27.495 Y69.489
G0 X30.74 Y69.126
G0 X31.34 Y69.126
G1 F420 E48.31685
G1 F900 X115.624 Y69.126 E51.64625
G1 X116.466 Y69.237 E51.6798
G1 X117.238 Y69.557 E51.71281
G1 X117.901 Y70.065 E51.7458
G1 X118.409 Y70.728 E51.7788
G1 X118.729 Y71.5 E51.81181
G1 X118.84 Y72.341 E51.84532
G1 X118.84 Y73.31 E51.8836
G1 X118.729 Y74.152 E51.91714
G1 X118.409 Y74.924 E51.95016
G1 X117.901 Y75.587 E51.98315
G1 X117.238 Y76.095 E52.01614
G1 X116.466 Y76.415 E52.04916
G1 X115.624 Y76.526 E52.0827
G1 X27.656 Y76.526 E55.55763
G1 X26.815 Y76.415 E55.59114
G1 X26.042 Y76.095 E55.62419
G1 X25.38 Y75.587 E55.65715
G1 X24.871 Y74.924 E55.69017
G1 X24.552 Y74.152 E55.72317
G1 X24.44 Y73.31 E55.75672
G1 X24.44 Y66.344 E56.03189
G1 X24.484 Y66.016 E56.04496
G1 X24.602 Y65.729 E56.05722
G1 X24.794 Y65.479 E56.06967
G1 X25.042 Y65.289 E56.08202
G1 X25.332 Y65.169 E56.09441
G1 X25.656 Y65.126 E56.10732
G1 X26.16 Y65.126 E56.12723
G1 X26.607 Y65.067 E56.14504
G1 X27.042 Y64.887 E56.16364
G1 X27.415 Y64.6 E56.18223
G1 X27.701 Y64.227 E56.2008
G1 X27.881 Y63.792 E56.2194
G1 X27.94 Y63.346 E56.23717
G1 X27.94 Y16.306 E58.09535
G1 X27.881 Y15.86 E58.11312
G1 X27.701 Y15.425 E58.13172
G1 X27.415 Y15.051 E58.15032
G1 X27.041 Y14.765 E58.16891
G1 X26.607 Y14.585 E58.18747
G1 X26.16 Y14.526 E58.20528
G1 X25.656 Y14.526 E58.22519
G1 X25.332 Y14.483 E58.2381
G1 X25.042 Y14.363 E58.2505
G1 X24.794 Y14.173 E58.26284
G1 X24.602 Y13.923 E58.27529
G1 X24.484 Y13.636 E58.28755
G1 X24.44 Y13.308 E58.30063
G1 X24.44 Y6.342 E58.5758
G1 X24.552 Y5.5 E58.60935
G1 X24.871 Y4.728 E58.64235
G1 X25.38 Y4.065 E58.67537
G1 X26.042 Y3.557 E58.70833
G1 X26.815 Y3.237 E58.74138
G1 X27.656 Y3.126 E58.77489
G1 X115.624 Y3.126 E62.24981
G1 X116.466 Y3.237 E62.28336
G1 X117.238 Y3.557 E62.31637
G1 X117.901 Y4.065 E62.34937
