;Generated by Cura LulzBot Edition GCodeWriter Version: 2.6.66
;FLAVOR:RepRap
;TIME:2293
;Filament used: 1.23805m
;Layer height: 0.378
;Generated with Cura_SteamEngine 2.6.66
;This G-Code has been generated specifically for the LulzBot Mini with Aerostruder
G26 ; clear potential 'probe fail' condition
G21 ; set units to Millimetres
M107 ; disable fans
G90 ; absolute positioning
M82 ; set extruder to absolute mode
G92 E0 ; set extruder position to 0
M140 S115 ; start bed heating up
G28 ; home all axes
G0 X0 Y187 Z156 F200 ; move away from endstops
M109 R170 ; soften filament before retraction
G1 E-15 F75 ; retract filament
M109 R170 ; wait for extruder to reach wiping temp
G1 X45 Y173 F11520 ; move above wiper pad
G1 Z0 F1200 ; push nozzle into wiper
G1 X42 Y173 Z-.5 F4000 ; wiping
G1 X52 Y171 Z-.5 F4000 ; wiping
G1 X42 Y173 Z0 F4000 ; wiping
G1 X52 Y171 F4000 ; wiping
G1 X42 Y173 F4000 ; wiping
G1 X52 Y171 F4000 ; wiping
G1 X42 Y173 F4000 ; wiping
G1 X52 Y171 F4000 ; wiping
G1 X57 Y173 F4000 ; wiping
G1 X77 Y171 F4000 ; wiping
G1 X57 Y173 F4000 ; wiping
G1 X77 Y171 F4000 ; wiping
G1 X57 Y173 F4000 ; wiping
G1 X87 Y171 F4000 ; wiping
G1 X77 Y173 F4000 ; wiping
G1 X97 Y171 F4000 ; wiping
G1 X77 Y173 F4000 ; wiping
G1 X97 Y171 F4000 ; wiping
G1 X77 Y173 F4000 ; wiping
G1 X97 Y171 F4000 ; wiping
G1 X107 Y173 F4000 ; wiping
G1 X97 Y171 F4000 ; wiping
G1 X107 Y173 F4000 ; wiping
G1 X97 Y171 F4000 ; wiping
G1 X107 Y173 F4000 ; wiping
G1 X112 Y171 Z-0.5 F1000 ; wiping
G1 Z10 ; raise extruder
G28 X0 Y0 ; home X and Y
G0 X0 Y187 F200 ; move away from endstops
M109 R170 ; wait for extruder to reach probe temp
M204 S300 ; set probing acceleration
G29 ; start auto-leveling sequence
M204 S2000 ; restore standard acceleration
G28 X0 Y0 ; re-home to account for build variance of earlier mini builds
G0 X0 Y187 F200 ; move away from endstops
G0 Y152 F4000 ; move in front of wiper pad
G4 S1 ; pause
M400 ; wait for moves to finish
M117 Heating... ; progress indicator message on LCD
M109 R245 ; wait for extruder to reach printing temp
M190 S116 ; wait for bed to reach printing temp
G1 Z2 E0 F75 ; prime tiny bit of filament into the nozzle
M117 Mini Printing... ; progress indicator message on LCD


M221 S100
;LAYER_COUNT:9
;LAYER:0
M107
M204 S1000
M205 X10
G0 F2250 X14.189 Y15.319 Z0.42
;TYPE:SKIRT
G1 F900 X14.781 Y14.823 E0.03051
G1 X14.939 Y14.709 E0.0382
G1 X15.688 Y14.252 E0.07286
G1 X15.985 Y14.119 E0.08572
G1 X17.272 Y13.726 E0.13888
G1 X17.592 Y13.67 E0.15171
G1 X18.595 Y13.624 E0.19137
G1 X18.87 Y13.641 E0.20225
G1 X19.826 Y13.801 E0.24054
G1 X20.122 Y13.888 E0.25273
G1 X22.625 Y14.958 E0.36026
G1 X27.814 Y17.08 E0.58171
G1 X27.819 Y17.081 E0.58192
G1 X33.105 Y18.898 E0.80272
G1 X38.478 Y20.412 E1.02323
G1 X43.961 Y21.629 E1.24509
G1 X46.678 Y22.11 E1.35408
G1 X52.206 Y22.85 E1.5744
G1 X57.77 Y23.279 E1.79484
G1 X63.366 Y23.391 E2.01594
G1 X68.942 Y23.188 E2.23635
G1 X74.497 Y22.67 E2.45674
G1 X80.017 Y21.838 E2.67725
G1 X85.479 Y20.696 E2.89768
G1 X88.161 Y20.016 E3.00698
G1 X93.545 Y18.405 E3.22897
G1 X98.751 Y16.518 E3.44771
G1 X101.372 Y15.441 E3.55965
G1 X106.427 Y13.109 E3.77956
G1 X111.942 Y10.152 E4.02675
G1 X121.977 Y4.367 E4.48431
G1 X122.145 Y4.285 E4.49169
G1 X122.64 Y4.088 E4.51274
G1 X122.952 Y4.007 E4.52547
G1 X123.262 Y4.004 E4.53772
G1 X123.731 Y4.055 E4.55635
G1 X124.044 Y4.129 E4.56906
G1 X124.388 Y4.321 E4.58462
G1 X124.874 Y4.699 E4.60894
G1 X125.102 Y4.926 E4.62165
G1 X125.2 Y5.072 E4.62859
G1 X127.407 Y8.872 E4.80218
G1 X130.354 Y13.657 E5.02417
G1 X133.556 Y18.252 E5.24541
G1 X136.372 Y22.048 E5.43212
G1 X136.515 Y22.293 E5.44332
G1 X136.704 Y22.716 E5.46162
G1 X136.772 Y22.908 E5.46967
G1 X137.025 Y23.847 E5.50808
G1 X137.064 Y24.061 E5.51668
G1 X137.119 Y24.633 E5.53938
G1 X137.125 Y24.773 E5.54491
G1 X137.05 Y30.669 E5.77784
G1 X137.288 Y36.244 E5.99826
G1 X137.844 Y41.828 E6.21993
G1 X138.226 Y44.62 E6.33125
G1 X138.237 Y44.845 E6.34015
G1 X138.096 Y48.608 E6.4889
G1 X138.055 Y54.236 E6.71122
G1 X138.331 Y59.793 E6.93101
G1 X138.825 Y64.775 E7.12877
G1 X138.831 Y64.92 E7.1345
G1 X138.755 Y70.813 E7.36731
G1 X138.994 Y76.389 E7.58778
G1 X139.551 Y81.973 E7.80945
G1 X139.933 Y84.767 E7.92085
G1 X139.944 Y84.993 E7.92979
G1 X139.845 Y87.544 E8.03063
G1 X139.733 Y94.704 E8.3135
G1 X140.004 Y100.26 E8.53324
G1 X140.459 Y104.963 E8.71988
G1 X140.465 Y105.105 E8.7255
G1 X140.389 Y111.003 E8.9585
G1 X140.628 Y116.579 E9.17897
G1 X141.184 Y122.159 E9.40048
G1 X141.565 Y124.933 E9.51109
G1 X141.577 Y125.141 E9.51932
G1 X141.552 Y126.205 E9.56136
G1 X141.515 Y126.481 E9.57236
G1 X141.285 Y127.426 E9.61078
G1 X141.178 Y127.714 E9.62292
G1 X140.66 Y128.721 E9.66765
G1 X140.495 Y128.968 E9.67938
G1 X139.73 Y129.868 E9.72604
G1 X139.492 Y130.086 E9.73879
G1 X138.62 Y130.705 E9.78103
G1 X138.375 Y130.842 E9.79212
G1 X137.498 Y131.214 E9.82975
G1 X137.177 Y131.304 E9.84292
G1 X132.093 Y132.042 E10.04586
G1 X126.615 Y133.033 E10.26576
G1 X121.203 Y134.333 E10.48563
G1 X115.824 Y135.95 E10.7075
G1 X110.601 Y137.848 E10.92702
G1 X108.021 Y138.912 E11.03727
G1 X102.937 Y141.265 E11.25856
G1 X97.563 Y144.151 E11.49952
G1 X86.489 Y150.49 E12.00357
G1 X86.192 Y150.614 E12.01628
G1 X85.921 Y150.66 E12.02714
G1 X85.523 Y150.684 E12.04289
G1 X85.202 Y150.663 E12.0556
G1 X84.977 Y150.599 E12.06484
G1 X84.573 Y150.443 E12.08194
G1 X84.241 Y150.255 E12.09702
G1 X80.597 Y147.409 E12.27966
G1 X76.043 Y144.203 E12.49966
G1 X71.298 Y141.249 E12.72045
G1 X66.389 Y138.564 E12.94148
G1 X61.362 Y136.175 E13.16134
G1 X56.148 Y134.049 E13.38377
G1 X52.466 Y132.752 E13.53798
G1 X44.435 Y130.141 E13.87156
G1 X38.992 Y128.679 E14.0942
G1 X33.551 Y127.542 E14.31377
G1 X28.015 Y126.708 E14.53492
G1 X22.537 Y126.192 E14.75227
G1 X22.43 Y126.178 E14.75653
G1 X21.239 Y125.965 E14.80433
G1 X20.993 Y125.895 E14.81443
G1 X20.218 Y125.591 E14.84732
G1 X19.975 Y125.465 E14.85813
G1 X19.094 Y124.881 E14.89988
G1 X18.841 Y124.661 E14.91313
G1 X17.948 Y123.657 E14.96621
G1 X17.764 Y123.39 E14.97901
G1 X17.304 Y122.5 E15.01859
G1 X17.204 Y122.242 E15.02952
G1 X16.946 Y121.287 E15.0686
G1 X16.906 Y121.057 E15.07782
G1 X16.848 Y120.369 E15.10509
G1 X16.843 Y120.225 E15.11078
G1 X16.923 Y117.288 E15.22684
G1 X16.845 Y111.706 E15.44737
G1 X16.45 Y106.13 E15.66818
G1 X15.742 Y100.476 E15.89327
G1 X15.733 Y100.266 E15.90158
G1 X15.827 Y97.731 E16.00178
G1 X15.95 Y90.967 E16.26902
G1 X15.7 Y85.38 E16.48994
G1 X15.218 Y80.311 E16.69108
G1 X15.212 Y80.171 E16.69661
G1 X15.289 Y74.307 E16.92828
G1 X15.053 Y68.73 E17.14878
G1 X14.498 Y63.135 E17.37088
G1 X14.095 Y60.063 E17.49327
G1 X14.084 Y59.858 E17.50138
G1 X14.301 Y51.994 E17.81214
G1 X14.097 Y46.426 E18.03223
G1 X13.512 Y40.164 E18.28067
G1 X13.506 Y40.026 E18.28613
G1 X13.584 Y34.19 E18.51669
G1 X13.349 Y28.614 E18.73715
G1 X12.795 Y23.02 E18.9592
G1 X12.391 Y19.944 E19.08175
G1 X12.381 Y19.722 E19.09053
G1 X12.411 Y18.988 E19.11955
G1 X12.442 Y18.754 E19.12887
G1 X12.65 Y17.834 E19.16613
G1 X12.737 Y17.578 E19.17681
G1 X13.161 Y16.655 E19.21694
G1 X13.313 Y16.403 E19.22856
G1 X13.863 Y15.691 E19.2641
G0 F810 X13.995 Y15.52
G0 X14.189 Y15.319
G1 F420 E18.2641
G0 F2250 X14.743 Y15.649
G0 X14.812 Y15.69
G0 X17.925 Y17.55
G0 X17.993 Y17.591
G0 X20.299 Y18.969
G0 X22.171 Y18.742
;TYPE:WALL-INNER
G1 F420 E19.28366
G1 F900 X22.142 Y18.637 E19.28653
G1 X71.729 Y34.813 E20.66011
G1 X72.094 Y34.894 E20.66996
G1 X72.313 Y34.929 E20.6758
G1 X72.693 Y34.96 E20.68584
G1 X73.077 Y34.957 E20.69595
G1 X72.835 Y35.097 E20.70332
G1 X74.709 Y38.343 E20.80202
G1 X22.033 Y20.936 E22.26301
G1 X22.149 Y20.559 E22.2734
G1 X22.223 Y20.202 E22.283
G1 X22.262 Y19.835 E22.29272
G1 X22.265 Y19.478 E22.30212
G0 F810 X22.265 Y19.467
G0 X22.235 Y19.101
G0 X22.171 Y18.742
G1 F420 E21.30212
G0 F2250 X23.034 Y16.97
G0 X95.206 Y20.568
G0 X95.286 Y20.572
G0 X101.095 Y20.862
G0 X101.175 Y20.866
G0 X122.693 Y21.94
G0 X123.626 Y23.554
G1 F420 E22.32166
G1 F900 X130.656 Y19.496 E22.53543
G1 X131.559 Y21.059 E22.58296
G1 X131.436 Y21.044 E22.58623
G1 X131.076 Y21.034 E22.59571
G1 X130.708 Y21.054 E22.60542
G1 X130.341 Y21.114 E22.61521
G1 X129.989 Y21.205 E22.62478
G1 X129.644 Y21.33 E22.63445
G1 X129.303 Y21.49 E22.64437
G1 X128.924 Y21.721 E22.65606
G1 X128.625 Y21.949 E22.66596
G1 X128.353 Y22.202 E22.67574
G1 X128.111 Y22.474 E22.68533
G1 X127.893 Y22.769 E22.69499
G1 X127.707 Y23.082 E22.70458
G1 X127.545 Y23.413 E22.71428
G1 X127.418 Y23.762 E22.72406
G1 X127.325 Y24.116 E22.7337
G1 X127.266 Y24.474 E22.74326
G1 X127.241 Y24.835 E22.75279
G1 X127.251 Y25.254 E22.76382
G1 X127.185 Y25.16 E22.76685
G1 X126.93 Y24.864 E22.77714
G1 X126.652 Y24.595 E22.78732
G1 X126.349 Y24.352 E22.79755
G1 X126.026 Y24.137 E22.80777
G1 X125.685 Y23.955 E22.81795
G1 X125.327 Y23.802 E22.8282
G1 X124.959 Y23.686 E22.83836
G1 X124.58 Y23.602 E22.84859
G1 X124.367 Y23.576 E22.85424
G0 F810 X124.192 Y23.555
G0 X123.806 Y23.544
G0 X123.626 Y23.554
G0 F2250 X123.463 Y23.964
G1 F420 E22.87378
G1 F900 X123.114 Y24.019 E22.88308
G1 X122.773 Y24.105 E22.89234
G1 X122.443 Y24.221 E22.90156
G1 X122.124 Y24.367 E22.91079
G1 X81.256 Y47.959 E24.1535
G1 X81.168 Y47.996 E24.15601
G1 X81.102 Y48.001 E24.15776
G1 X81.047 Y47.986 E24.15926
G1 X80.992 Y47.951 E24.16097
G1 X80.933 Y47.873 E24.16355
G1 X80.876 Y47.774 E24.16656
G1 X130.802 Y18.95 E25.68474
G1 X132.054 Y21.117 E25.75064
G1 X132.619 Y21.325 E25.7665
G1 X132.866 Y21.436 E25.77363
G1 X133.126 Y21.577 E25.78142
G1 X133.34 Y21.713 E25.7881
G1 X133.581 Y21.893 E25.79602
G1 X133.779 Y22.063 E25.80289
G1 X133.988 Y22.271 E25.81066
G1 X134.172 Y22.482 E25.81803
G1 X134.337 Y22.7 E25.82523
G1 X134.491 Y22.939 E25.83272
G1 X134.62 Y23.174 E25.83978
G1 X134.737 Y23.43 E25.84719
G1 X134.833 Y23.685 E25.85436
G1 X134.919 Y23.976 E25.86236
G1 X134.976 Y24.241 E25.86949
G1 X135.017 Y24.521 E25.87695
G1 X135.036 Y24.795 E25.88418
G1 X135.036 Y25.082 E25.89174
G1 X135.017 Y25.343 E25.89863
G1 X134.975 Y25.632 E25.90632
G1 X134.918 Y25.895 E25.91341
G1 X134.837 Y26.17 E25.92096
G1 X134.732 Y26.446 E25.92873
G1 X134.627 Y26.675 E25.93537
G1 X134.483 Y26.938 E25.94326
G1 X134.344 Y27.153 E25.95001
G1 X134.162 Y27.395 E25.95798
G1 X133.979 Y27.605 E25.96532
G1 X133.785 Y27.797 E25.9725
G1 X133.574 Y27.979 E25.97984
G1 X133.341 Y28.151 E25.98747
G1 X133.113 Y28.297 E25.9946
G1 X132.873 Y28.426 E26.00177
G1 X132.609 Y28.544 E26.00939
G1 X132.339 Y28.643 E26.01696
G1 X132.101 Y28.712 E26.02349
G1 X131.789 Y28.777 E26.03188
G1 X131.529 Y28.813 E26.03879
G1 X131.255 Y28.831 E26.04602
G1 X130.962 Y28.828 E26.05374
G1 X130.698 Y28.807 E26.06072
G1 X130.427 Y28.767 E26.06793
G1 X130.124 Y28.698 E26.07611
G1 X129.891 Y28.627 E26.08253
G1 X129.612 Y28.519 E26.09041
G1 X129.361 Y28.403 E26.09769
G1 X129.12 Y28.268 E26.10496
G1 X128.871 Y28.104 E26.11281
G1 X128.662 Y27.945 E26.11973
G1 X128.449 Y27.756 E26.12723
G1 X128.257 Y27.56 E26.13446
G1 X128.077 Y27.348 E26.14178
G1 X127.911 Y27.119 E26.14923
G1 X127.746 Y26.857 E26.15738
G1 X127.071 Y25.693 E26.19282
G1 X126.869 Y25.406 E26.20206
G1 X126.639 Y25.139 E26.21134
G1 X126.387 Y24.895 E26.22058
G1 X126.113 Y24.675 E26.22983
G1 X125.821 Y24.481 E26.23906
G1 X125.512 Y24.316 E26.24829
G1 X125.188 Y24.178 E26.25756
G1 X124.855 Y24.073 E26.26676
G1 X124.512 Y23.997 E26.27601
G1 X124.204 Y23.959 E26.28418
G0 F810 X124.162 Y23.954
G0 X123.812 Y23.944
G0 X123.463 Y23.964
G1 F420 E25.28418
G0 F2250 X122.393 Y22.113
G0 X122.401 Y22.116
G0 X122.476 Y22.145
G0 X129.043 Y24.667
G0 X129.118 Y24.696
G0 X129.119 Y24.696
G0 X127.664 Y24.521
G1 F420 E26.30372
G1 F900 X127.641 Y24.847 E26.31233
G1 X127.645 Y25.177 E26.32102
G1 X127.685 Y25.508 E26.3298
G1 X127.755 Y25.829 E26.33845
G1 X127.853 Y26.142 E26.34709
G1 X127.982 Y26.447 E26.35581
G1 X128.139 Y26.737 E26.36449
G1 X128.321 Y27.009 E26.37311
G1 X128.528 Y27.265 E26.38178
G1 X128.761 Y27.502 E26.39054
G1 X129.012 Y27.713 E26.39917
G1 X129.282 Y27.9 E26.40782
G1 X129.57 Y28.063 E26.41654
G1 X129.872 Y28.195 E26.42521
G1 X130.183 Y28.3 E26.43386
G1 X130.503 Y28.374 E26.44251
G1 X130.828 Y28.418 E26.45115
G1 X131.156 Y28.434 E26.45979
G1 X131.487 Y28.417 E26.46852
G1 X131.814 Y28.369 E26.47723
G1 X132.135 Y28.29 E26.48593
G1 X132.445 Y28.181 E26.49459
G1 X132.744 Y28.044 E26.50325
G1 X133.032 Y27.879 E26.51199
G1 X133.298 Y27.687 E26.52063
G1 X133.547 Y27.475 E26.52924
G1 X133.777 Y27.235 E26.53799
G1 X133.98 Y26.977 E26.54664
G1 X134.16 Y26.702 E26.55529
G1 X134.313 Y26.41 E26.56398
G1 X134.438 Y26.106 E26.57263
G1 X134.533 Y25.789 E26.58135
G1 X134.599 Y25.467 E26.59
G1 X134.634 Y25.14 E26.59866
G1 X134.638 Y24.809 E26.60738
G1 X134.61 Y24.481 E26.61605
G1 X134.553 Y24.157 E26.62471
G1 X134.464 Y23.839 E26.63341
G1 X134.347 Y23.533 E26.64204
G1 X134.202 Y23.238 E26.65069
G1 X134.029 Y22.958 E26.65936
G1 X133.831 Y22.694 E26.66805
G1 X133.609 Y22.451 E26.67672
G1 X133.37 Y22.235 E26.6852
G1 X133.224 Y22.122 E26.69006
G1 X132.961 Y21.945 E26.69841
G1 X132.674 Y21.786 E26.70705
G1 X132.372 Y21.657 E26.7157
G1 X132.058 Y21.554 E26.7244
G1 X131.734 Y21.483 E26.73314
G1 X131.406 Y21.443 E26.74184
G1 X131.081 Y21.434 E26.7504
G1 X130.752 Y21.452 E26.75908
G1 X130.424 Y21.506 E26.76783
G1 X130.107 Y21.588 E26.77646
G1 X129.797 Y21.7 E26.78514
G1 X129.493 Y21.843 E26.79399
G1 X129.15 Y22.052 E26.80456
G1 X128.883 Y22.255 E26.8134
G1 X128.64 Y22.482 E26.82215
G1 X128.422 Y22.727 E26.83079
G1 X128.226 Y22.991 E26.83945
G1 X128.059 Y23.272 E26.84806
G1 X127.914 Y23.57 E26.85678
G1 X127.83 Y23.799 E26.86321
G0 F810 X127.8 Y23.882
G0 X127.717 Y24.199
G0 X127.664 Y24.521
G1 F420 E25.86321
G0 F2250 X129.151 Y24.508
G0 X129.14 Y24.461
G0 X129.121 Y24.383
G0 X127.871 Y19.038
G0 X129.012 Y18.305
G0 X126.776 Y14.356
G0 X124.732 Y5.613
G0 X124.714 Y5.536
G0 X124.692 Y5.441
G0 X123.424 Y6.175
G1 F420 E26.88275
G1 F900 X123.5 Y6.307 E26.88676
G1 X73.381 Y35.243 E28.41081
G1 X75.787 Y39.411 E28.53755
G1 X75.595 Y39.254 E28.54408
G1 X75.308 Y39.061 E28.55319
G1 X75.004 Y38.893 E28.56234
G1 X74.686 Y38.756 E28.57146
G1 X21.943 Y21.327 E30.03431
G1 X21.41 Y22.043 E30.05781
G1 X21.239 Y22.243 E30.06474
G1 X21.034 Y22.449 E30.0724
G1 X20.82 Y22.636 E30.07988
G1 X20.615 Y22.791 E30.08665
G1 X20.363 Y22.955 E30.09457
G1 X20.123 Y23.087 E30.10178
G1 X19.882 Y23.198 E30.10877
G1 X19.601 Y23.304 E30.11668
G1 X19.353 Y23.378 E30.12349
G1 X19.072 Y23.441 E30.13107
G1 X18.8 Y23.48 E30.13831
G1 X18.514 Y23.501 E30.14586
G1 X18.237 Y23.503 E30.15316
G1 X17.961 Y23.484 E30.16044
G1 X17.688 Y23.445 E30.16771
G1 X17.405 Y23.384 E30.17533
G1 X17.15 Y23.31 E30.18232
G1 X16.883 Y23.211 E30.18982
G1 X16.629 Y23.097 E30.19715
G1 X16.383 Y22.962 E30.20454
G1 X16.149 Y22.813 E30.21185
G1 X15.925 Y22.645 E30.21922
G1 X15.717 Y22.466 E30.22645
G1 X15.506 Y22.256 E30.23429
G1 X15.332 Y22.054 E30.24131
G1 X15.17 Y21.839 E30.2484
G1 X15.009 Y21.588 E30.25625
G1 X14.886 Y21.364 E30.26298
G1 X14.762 Y21.094 E30.27081
G1 X14.67 Y20.846 E30.27777
G1 X14.589 Y20.573 E30.28527
G1 X14.53 Y20.301 E30.2926
G1 X14.489 Y20.015 E30.30021
G1 X14.47 Y19.753 E30.30713
G1 X14.47 Y19.458 E30.3149
G1 X14.488 Y19.195 E30.32184
G1 X14.53 Y18.906 E30.32953
G1 X14.585 Y18.651 E30.3364
G1 X14.671 Y18.361 E30.34436
G1 X14.763 Y18.116 E30.35126
G1 X14.88 Y17.857 E30.35874
G1 X15.015 Y17.612 E30.36611
G1 X15.166 Y17.377 E30.37346
G1 X15.335 Y17.152 E30.38087
G1 X15.504 Y16.957 E30.38767
G1 X15.712 Y16.749 E30.39542
G1 X15.927 Y16.563 E30.4029
G1 X16.152 Y16.396 E30.41028
G1 X16.387 Y16.245 E30.41764
G1 X16.625 Y16.114 E30.42479
G1 X16.879 Y15.999 E30.43214
G1 X17.134 Y15.904 E30.4393
G1 X17.403 Y15.826 E30.44668
G1 X17.683 Y15.766 E30.45422
G1 X17.956 Y15.727 E30.46148
G1 X18.233 Y15.708 E30.46879
G1 X18.51 Y15.708 E30.47609
G1 X18.788 Y15.729 E30.48343
G1 X19.078 Y15.771 E30.49115
G1 X19.328 Y15.827 E30.49789
G1 X19.606 Y15.908 E30.50552
G1 X19.885 Y16.014 E30.51338
G1 X20.127 Y16.125 E30.52039
G1 X20.359 Y16.253 E30.52737
G1 X20.606 Y16.411 E30.53509
G1 X20.814 Y16.569 E30.54197
G1 X21.03 Y16.758 E30.54953
G1 X21.236 Y16.965 E30.55722
G1 X21.41 Y17.168 E30.56426
G1 X21.577 Y17.392 E30.57162
