;Generated by Cura 2 GCodeWriter Version: 2.6.23
;FLAVOR:RepRap
;TIME:2765
;Filament used: 2.57512m
;Layer height: 0.38
;Generated with Cura_SteamEngine 2.6.23
;This G-Code has been generated specifically for the LulzBot Mini with standard extruder
G26                                ; clear potential 'probe fail' condition
G21                                ; set units to Millimetres
M107                               ; disable fans
G90                                ; absolute positioning
M82                                ; set extruder to absolute mode
G92 E0                             ; set extruder position to 0
M140 S110   ; start bed heating up
G28                                ; home all axes
M109 R170  ; wait for extruder to reach wiping temp
G1 Z150 E-30 F75                   ; retract filament
G1 X45 Y174 F11520                 ; move above wiper pad
G1 Z0  F1200                       ; push nozzle into wiper
G1 X45 Y174 Z-.5 F4000             ; wiping
G1 X55 Y172 Z-.5 F4000             ; wiping
G1 X45 Y174 Z0 F4000               ; wiping
G1 X55 Y172 F4000                  ; wiping
G1 X45 Y174 F4000                  ; wiping
G1 X55 Y172 F4000                  ; wiping
G1 X45 Y174 F4000                  ; wiping
G1 X55 Y172 F4000                  ; wiping
G1 X60 Y174 F4000                  ; wiping
G1 X80 Y172 F4000                  ; wiping
G1 X60 Y174 F4000                  ; wiping
G1 X80 Y172 F4000                  ; wiping
G1 X60 Y174 F4000                  ; wiping
G1 X90 Y172 F4000                  ; wiping
G1 X80 Y174 F4000                  ; wiping
G1 X100 Y172 F4000                 ; wiping
G1 X80 Y174 F4000                  ; wiping
G1 X100 Y172 F4000                 ; wiping
G1 X80 Y174 F4000                  ; wiping
G1 X100 Y172 F4000                 ; wiping
G1 X110 Y174 F4000                 ; wiping
G1 X100 Y172 F4000                 ; wiping
G1 X110 Y174 F4000                 ; wiping
G1 X100 Y172 F4000                 ; wiping
G1 X110 Y174 F4000                 ; wiping
G1 X115 Y172 Z-0.5 F1000           ; wiping
G1 Z10                             ; raise extruder
G28 X0 Y0                          ; home X and Y
M109 R170 ; wait for extruder to reach probe temp
M204 S300                          ; set probing acceleration
G29                                ; start auto-leveling sequence
M204 S2000                         ; restore standard acceleration
G1 X5 Y15 Z10 F5000                ; move up off last probe point
G4 S1                              ; pause
M400                               ; wait for moves to finish
M117 Heating...                    ; progress indicator message on LCD
M109 R240 ; wait for extruder to reach printing temp
M190 S110   ; wait for bed to reach printing temp
G1 Z2 E0 F75                       ; prime tiny bit of filment into the nozzle
M117 Mini Printing...              ; progress indicator message on LCD

;LAYER_COUNT:26
;LAYER:0
M107
G0 F2625 X23.509 Y80.739 Z0.425
;TYPE:SKIRT
G1 F900 X24.667 Y80.449 E0.03976
G1 X28.744 Y79.688 E0.17792
G1 X33.726 Y78.503 E0.3485
G1 X38.647 Y77.038 E0.51953
G1 X43.439 Y75.307 E0.68925
G1 X48.135 Y73.304 E0.85931
G1 X52.875 Y70.956 E1.03551
G1 X57.756 Y68.318 E1.22032
G1 X62.211 Y65.616 E1.39388
G1 X64.249 Y64.258 E1.47546
G1 X124.788 Y21.075 E3.95249
G1 X125.529 Y20.596 E3.98188
G1 X126.195 Y20.241 E4.00702
G1 X127.302 Y19.704 E4.04801
G1 X128.113 Y19.355 E4.07742
G1 X128.952 Y19.08 E4.10683
G1 X129.785 Y18.888 E4.1353
G1 X131.159 Y18.634 E4.18185
G1 X132.033 Y18.513 E4.21124
G1 X132.915 Y18.472 E4.24065
G1 X133.847 Y18.515 E4.27173
G1 X135.224 Y18.645 E4.3178
G1 X136.099 Y18.768 E4.34723
G1 X136.958 Y18.969 E4.37662
G1 X138.041 Y19.345 E4.41481
G1 X139.503 Y19.951 E4.46752
G1 X140.303 Y20.326 E4.49695
G1 X141.065 Y20.771 E4.52635
G1 X141.677 Y21.201 E4.55126
G1 X142.625 Y21.923 E4.59096
G1 X143.303 Y22.49 E4.6204
G1 X144.051 Y23.254 E4.65601
G1 X147.22 Y26.87 E4.81617
G1 X147.792 Y27.588 E4.84675
G1 X148.522 Y28.599 E4.88829
G1 X149.006 Y29.338 E4.91772
G1 X149.421 Y30.117 E4.94712
G1 X149.764 Y30.931 E4.97654
G1 X150.032 Y31.772 E5.00594
G1 X150.175 Y32.303 E5.02426
G1 X150.365 Y33.165 E5.05366
G1 X150.477 Y34.041 E5.08308
G1 X150.51 Y34.913 E5.11215
G1 X150.505 Y35.564 E5.13383
G1 X150.458 Y36.446 E5.16326
G1 X150.332 Y37.319 E5.19264
G1 X150.034 Y38.483 E5.23266
G1 X149.863 Y39.013 E5.25121
G1 X149.554 Y39.84 E5.28062
G1 X149.172 Y40.636 E5.31003
G1 X148.67 Y41.467 E5.34237
G1 X148.263 Y42.071 E5.36663
G1 X147.737 Y42.781 E5.39606
G1 X147.149 Y43.439 E5.42546
G1 X146.766 Y43.81 E5.44322
G1 X143.819 Y46.512 E5.5764
G1 X143.142 Y47.078 E5.6058
G1 X142.654 Y47.427 E5.62578
G1 X141.834 Y47.976 E5.65865
G1 X140.789 Y48.585 E5.69894
G1 X136.583 Y50.699 E5.85575
G1 X132.15 Y53.24 E6.02595
G1 X127.87 Y56.025 E6.19604
G1 X123.768 Y59.039 E6.3656
G1 X119.47 Y62.599 E6.5515
G1 X75.081 Y101.715 E8.52229
G1 X71.389 Y105.355 E8.695
G1 X69.749 Y107.115 E8.77513
G1 X66.381 Y111.052 E8.94771
G1 X63.285 Y115.115 E9.11787
G1 X59.913 Y120.055 E9.3171
G1 X59.383 Y120.761 E9.34651
G1 X58.751 Y121.455 E9.37777
G1 X47.856 Y132.341 E9.8908
G1 X47.204 Y132.936 E9.92021
G1 X46.847 Y133.22 E9.9354
G1 X45.981 Y133.875 E9.97157
G1 X45.253 Y134.375 E10.00099
G1 X44.483 Y134.808 E10.03042
G1 X43.874 Y135.089 E10.05276
G1 X42.688 Y135.587 E10.0956
G1 X41.859 Y135.891 E10.12502
G1 X41.006 Y136.12 E10.15444
G1 X40.236 Y136.257 E10.18049
G1 X38.936 Y136.435 E10.2242
G1 X38.056 Y136.515 E10.25363
G1 X37.173 Y136.515 E10.28304
G1 X36.394 Y136.449 E10.30908
G1 X35.108 Y136.287 E10.35226
G1 X34.238 Y136.137 E10.38167
G1 X33.385 Y135.909 E10.41108
G1 X32.637 Y135.638 E10.43758
G1 X31.424 Y135.142 E10.48123
G1 X30.622 Y134.771 E10.51067
G1 X29.858 Y134.329 E10.54007
G1 X29.087 Y133.781 E10.57158
G1 X27.889 Y132.839 E10.62234
G1 X27.02 Y132.068 E10.66104
G1 X8.769 Y113.809 E11.521
G1 X7.929 Y112.85 E11.56346
G1 X7.165 Y111.854 E11.60528
G1 X6.66 Y111.13 E11.63468
G1 X6.222 Y110.363 E11.6641
G1 X5.913 Y109.698 E11.68853
G1 X5.407 Y108.494 E11.73203
G1 X5.102 Y107.665 E11.76145
G1 X4.873 Y106.812 E11.79087
G1 X4.734 Y106.033 E11.81723
G1 X4.559 Y104.749 E11.8604
G1 X4.48 Y103.869 E11.88983
G1 X4.48 Y102.986 E11.91924
G1 X4.545 Y102.224 E11.94472
G1 X4.707 Y100.926 E11.98829
G1 X4.856 Y100.056 E12.01769
G1 X5.083 Y99.203 E12.04709
G1 X5.357 Y98.444 E12.07397
G1 X5.848 Y97.243 E12.11719
G1 X6.219 Y96.442 E12.1466
G1 X6.661 Y95.678 E12.176
G1 X7.216 Y94.897 E12.20791
G1 X8.203 Y93.645 E12.26102
G1 X8.989 Y92.764 E12.30035
G1 X17.612 Y84.198 E12.70522
G1 X18.266 Y83.605 E12.73463
G1 X18.618 Y83.326 E12.74959
G1 X19.379 Y82.753 E12.78132
G1 X20.108 Y82.254 E12.81075
G1 X20.879 Y81.824 E12.84015
G1 X21.469 Y81.553 E12.86178
G1 X22.681 Y81.044 E12.90557
G1 X23.509 Y80.739 E12.93496
G0 F2625 X23.682 Y81.209
G1 F900 X24.759 Y80.94 E12.97194
G1 X28.85 Y80.176 E13.11057
G1 X33.86 Y78.985 E13.2821
G1 X38.802 Y77.513 E13.45387
G1 X43.625 Y75.771 E13.62468
G1 X48.344 Y73.759 E13.79557
G1 X53.112 Y71.397 E13.97281
G1 X58.005 Y68.752 E14.15809
G1 X62.487 Y66.033 E14.33271
G1 X64.532 Y64.671 E14.41455
G1 X125.078 Y21.483 E16.89187
G1 X125.801 Y21.016 E16.92054
G1 X126.413 Y20.691 E16.94363
G1 X127.52 Y20.154 E16.98461
G1 X128.31 Y19.815 E17.01325
G1 X129.129 Y19.55 E17.04192
G1 X129.876 Y19.38 E17.06744
G1 X131.25 Y19.126 E17.11398
G1 X132.102 Y19.009 E17.14263
G1 X132.961 Y18.972 E17.17127
G1 X133.8 Y19.013 E17.19925
G1 X135.177 Y19.143 E17.24532
G1 X136.029 Y19.263 E17.27398
G1 X136.866 Y19.463 E17.30265
G1 X137.85 Y19.807 E17.33737
G1 X139.312 Y20.413 E17.39009
G1 X140.09 Y20.779 E17.41873
G1 X140.831 Y21.215 E17.44737
G1 X141.374 Y21.599 E17.46952
G1 X142.322 Y22.321 E17.50922
G1 X142.982 Y22.873 E17.53788
G1 X143.675 Y23.583 E17.57092
G1 X146.844 Y27.199 E17.73108
G1 X147.386 Y27.881 E17.7601
G1 X148.116 Y28.892 E17.80164
G1 X148.587 Y29.612 E17.8303
G1 X148.988 Y30.372 E17.85892
G1 X149.318 Y31.167 E17.8876
G1 X149.549 Y31.902 E17.91326
G1 X149.692 Y32.433 E17.93158
G1 X149.877 Y33.273 E17.96023
G1 X149.983 Y34.126 E17.98886
G1 X150.01 Y34.909 E18.01496
G1 X150.005 Y35.56 E18.03664
G1 X149.958 Y36.419 E18.0653
G1 X149.832 Y37.269 E18.09392
G1 X149.558 Y38.329 E18.13039
G1 X149.387 Y38.859 E18.14894
G1 X149.085 Y39.665 E18.17762
G1 X148.71 Y40.438 E18.20623
G1 X148.255 Y41.188 E18.23546
G1 X147.848 Y41.792 E18.25972
G1 X147.335 Y42.482 E18.28836
G1 X146.76 Y43.122 E18.31702
G1 X146.428 Y43.441 E18.33235
G1 X143.481 Y46.143 E18.46553
G1 X142.821 Y46.694 E18.49417
G1 X142.376 Y47.011 E18.51237
G1 X141.556 Y47.56 E18.54524
G1 X140.565 Y48.139 E18.58348
G1 X136.34 Y50.263 E18.741
G1 X131.888 Y52.814 E18.91191
G1 X127.578 Y55.619 E19.08321
G1 X123.46 Y58.644 E19.25341
G1 X119.156 Y62.209 E19.43957
G1 X74.735 Y101.355 E21.41183
G1 X71.025 Y105.011 E21.58533
G1 X69.379 Y106.778 E21.66577
G1 X65.999 Y110.729 E21.83897
G1 X62.872 Y114.833 E22.01083
G1 X59.5 Y119.773 E22.21007
G1 X58.983 Y120.46 E22.23871
G1 X58.398 Y121.101 E22.26762
G1 X47.503 Y131.987 E22.78065
G1 X46.545 Y132.821 E22.82295
G1 X45.679 Y133.476 E22.85912
G1 X44.97 Y133.963 E22.88778
G1 X44.218 Y134.381 E22.91643
G1 X43.68 Y134.628 E22.93615
G1 X42.494 Y135.126 E22.979
G1 X41.687 Y135.421 E23.00762
G1 X40.855 Y135.641 E23.03629
G1 X40.168 Y135.761 E23.05952
G1 X38.868 Y135.939 E23.10323
G1 X38.011 Y136.016 E23.13189
G1 X37.151 Y136.013 E23.16054
G1 X36.457 Y135.952 E23.18374
G1 X35.171 Y135.79 E23.22692
G1 X34.324 Y135.643 E23.25555
G1 X33.494 Y135.418 E23.2842
G1 X32.826 Y135.175 E23.30788
G1 X31.613 Y134.679 E23.35153
G1 X30.833 Y134.317 E23.38017
G1 X30.09 Y133.884 E23.40882
G1 X29.396 Y133.388 E23.43723
G1 X28.198 Y132.446 E23.488
G1 X27.374 Y131.714 E23.52471
G1 X9.123 Y113.455 E24.38467
G1 X8.326 Y112.546 E24.42494
G1 X7.562 Y111.55 E24.46675
G1 X7.07 Y110.844 E24.49542
G1 X6.647 Y110.095 E24.52407
G1 X6.373 Y109.504 E24.54577
G1 X5.867 Y108.3 E24.58927
G1 X5.571 Y107.492 E24.61794
G1 X5.352 Y106.661 E24.64656
G1 X5.23 Y105.965 E24.6701
G1 X5.055 Y104.681 E24.71327
G1 X4.978 Y103.825 E24.7419
G1 X4.982 Y102.965 E24.77054
G1 X5.041 Y102.286 E24.79325
G1 X5.203 Y100.988 E24.83682
G1 X5.349 Y100.141 E24.86545
G1 X5.573 Y99.311 E24.89408
G1 X5.82 Y98.634 E24.91809
G1 X6.311 Y97.433 E24.96131
G1 X6.673 Y96.653 E24.98995
G1 X7.106 Y95.909 E25.01863
G1 X7.609 Y95.206 E25.04742
G1 X8.596 Y93.954 E25.10053
G1 X9.341 Y93.119 E25.1378
G1 X17.964 Y84.553 E25.54267
G1 X18.919 Y83.726 E25.58476
G1 X19.68 Y83.153 E25.61649
G1 X20.39 Y82.668 E25.64513
G1 X21.143 Y82.251 E25.6738
G1 X21.662 Y82.014 E25.69281
G1 X22.874 Y81.505 E25.73659
G1 X23.682 Y81.209 E25.76526
G1 F600 E24.76526
G0 F2625 X26.118 Y89.444
G0 X26.667 Y90.769
G0 X26.791 Y91.238
;TYPE:WALL-INNER
G1 F600 E25.76526
G1 F900 X27.762 Y91.109 E25.79789
G1 X28.733 Y91.238 E25.83052
G1 X29.631 Y91.609 E25.86288
G1 X30.468 Y92.251 E25.89802
G1 X32.482 Y94.264 E25.99287
G1 X66.606 Y76.113 E27.28035
G1 X130.935 Y30.163 E29.91369
G1 X131.95 Y29.664 E29.95136
G1 X132.987 Y29.474 E29.98648
G1 X134.044 Y29.575 E30.02185
G1 X135.026 Y29.956 E30.05694
G1 X135.905 Y30.621 E30.09365
G1 X139.313 Y34.54 E30.26665
G1 X139.476 Y34.816 E30.27733
G1 X139.536 Y35.061 E30.28573
G1 X139.523 Y35.305 E30.29387
G1 X139.439 Y35.538 E30.30212
G1 X139.255 Y35.785 E30.31238
G1 X136.335 Y38.459 E30.44427
G1 X136.123 Y38.62 E30.45313
G1 X135.967 Y38.682 E30.45873
G1 X135.798 Y38.698 E30.46438
G1 X135.64 Y38.671 E30.46972
G1 X135.495 Y38.601 E30.47508
G1 X135.26 Y38.394 E30.48552
G1 X132.972 Y36.064 E30.59429
G1 X48.764 Y110.171 E34.33082
G1 X48.565 Y110.346 E34.33965
G1 X48.753 Y110.534 E34.34527
G1 X50.867 Y112.649 E34.44488
G1 X51.028 Y112.858 E34.45367
G1 X51.102 Y113.038 E34.46015
G1 X51.128 Y113.232 E34.46667
G1 X51.102 Y113.427 E34.47323
G1 X51.029 Y113.604 E34.4796
G1 X50.873 Y113.807 E34.48813
G1 X40.29 Y124.391 E34.9867
G1 X39.463 Y125.025 E35.02141
G1 X38.562 Y125.398 E35.05389
G1 X37.591 Y125.526 E35.08652
G1 X36.62 Y125.398 E35.11914
G1 X35.719 Y125.025 E35.15163
G1 X34.917 Y124.41 E35.18529
G1 X16.607 Y106.105 E36.04772
G1 X15.967 Y105.271 E36.08274
G1 X15.597 Y104.374 E36.11506
G1 X15.468 Y103.403 E36.14769
G1 X15.597 Y102.432 E36.18032
G1 X15.969 Y101.531 E36.21279
G1 X16.602 Y100.707 E36.2474
G1 X25.066 Y92.243 E36.64612
G1 X25.89 Y91.61 E36.68073
G1 X26.791 Y91.238 E36.7132
G0 F2625 X26.052 Y97.898
G1 F900 X24.997 Y97.731 E36.74878
G1 X23.934 Y97.831 E36.78435
G1 X22.929 Y98.194 E36.81994
G1 X22.046 Y98.794 E36.8555
G1 X21.34 Y99.595 E36.89107
G1 X20.855 Y100.546 E36.92663
G1 X20.621 Y101.589 E36.96223
G1 X20.655 Y102.655 E36.99776
G1 X20.955 Y103.681 E37.03337
G1 X21.498 Y104.6 E37.06892
G1 X22.252 Y105.355 E37.10447
G1 X23.172 Y105.897 E37.14004
G1 X24.196 Y106.197 E37.17558
G1 X25.263 Y106.231 E37.21114
G1 X26.306 Y105.997 E37.24675
G1 X27.257 Y105.512 E37.28231
G1 X28.058 Y104.806 E37.31787
G1 X28.658 Y103.923 E37.35343
G1 X29.021 Y102.919 E37.389
G1 X29.122 Y101.855 E37.4246
G1 X28.954 Y100.8 E37.46018
G1 X28.53 Y99.82 E37.49575
G1 X27.874 Y98.978 E37.53131
G1 X27.032 Y98.322 E37.56686
G1 X26.052 Y97.898 E37.60243
G0 F2625 X27.546 Y99.306
G0 X28.13 Y100.057
G0 X34.774 Y111.522
G1 F900 X34.068 Y112.323 E37.638
G1 X33.583 Y113.274 E37.67356
G1 X33.349 Y114.317 E37.70916
G1 X33.383 Y115.383 E37.74469
G1 X33.683 Y116.409 E37.7803
G1 X34.226 Y117.328 E37.81585
G1 X34.98 Y118.083 E37.8514
G1 X35.9 Y118.625 E37.88696
G1 X36.924 Y118.925 E37.92251
G1 X37.991 Y118.959 E37.95807
G1 X39.034 Y118.725 E37.99367
G1 X39.985 Y118.24 E38.02923
G1 X40.786 Y117.534 E38.0648
G1 X41.386 Y116.651 E38.10036
G1 X41.749 Y115.646 E38.13595
G1 X41.85 Y114.583 E38.17152
G1 X41.682 Y113.528 E38.20711
G1 X41.258 Y112.548 E38.24268
G1 X40.602 Y111.706 E38.27823
G1 X39.76 Y111.05 E38.31379
G1 X38.78 Y110.626 E38.34935
G1 X37.725 Y110.459 E38.38493
G1 X36.662 Y110.559 E38.4205
G1 X35.657 Y110.922 E38.45609
G1 X34.774 Y111.522 E38.49165
G0 F2625 X35.107 Y111.9
G1 F900 X34.485 Y112.606 E38.523
G1 X34.057 Y113.445 E38.55437
G1 X33.851 Y114.364 E38.58574
G1 X33.881 Y115.304 E38.61707
G1 X34.145 Y116.209 E38.64847
G1 X34.624 Y117.019 E38.67982
G1 X35.289 Y117.685 E38.71117
G1 X36.1 Y118.163 E38.74253
G1 X37.003 Y118.427 E38.77387
G1 X37.944 Y118.457 E38.80523
G1 X38.863 Y118.251 E38.8366
G1 X39.702 Y117.823 E38.86797
G1 X40.408 Y117.201 E38.89931
G1 X40.937 Y116.422 E38.93068
G1 X41.257 Y115.536 E38.96206
G1 X41.346 Y114.599 E38.99341
G1 X41.198 Y113.669 E39.02478
G1 X40.824 Y112.805 E39.05614
G1 X40.246 Y112.062 E39.0875
G1 X39.503 Y111.484 E39.11885
G1 X38.639 Y111.11 E39.15021
G1 X37.709 Y110.963 E39.18158
G1 X36.772 Y111.051 E39.21293
G1 X35.886 Y111.371 E39.24431
G1 X35.107 Y111.9 E39.27567
G0 F2625 X35.041 Y111.825
G0 X27.755 Y104.539
G0 X27.68 Y104.473
G1 F900 X28.209 Y103.694 E39.30704
G1 X28.529 Y102.809 E39.33839
G1 X28.618 Y101.871 E39.36977
G1 X28.47 Y100.941 E39.40114
G1 X28.096 Y100.077 E39.4325
G1 X27.518 Y99.334 E39.46386
G1 X26.775 Y98.756 E39.49521
G1 X25.911 Y98.382 E39.52657
G1 X24.981 Y98.235 E39.55794
G1 X24.044 Y98.323 E39.58929
G1 X23.158 Y98.643 E39.62067
G1 X22.379 Y99.172 E39.65203
G1 X21.757 Y99.878 E39.68337
G1 X21.329 Y100.717 E39.71475
G1 X21.123 Y101.636 E39.74612
G1 X21.153 Y102.576 E39.77745
G1 X21.417 Y103.481 E39.80885
G1 X21.896 Y104.291 E39.8402
G1 X22.561 Y104.957 E39.87155
G1 X23.372 Y105.435 E39.9029
G1 X24.275 Y105.699 E39.93424
G1 X25.216 Y105.729 E39.9656
G1 X26.135 Y105.523 E39.99698
G1 X26.974 Y105.095 E40.02835
G1 X27.68 Y104.473 E40.05969
G0 F2625 X27.755 Y104.539
G0 X28.244 Y103.712
G0 X32.56 Y93.747
G0 X32.574 Y93.649
G1 F900 X66.342 Y75.687 E41.33375
G1 X130.678 Y29.732 E43.96737
G1 X131.79 Y29.185 E44.00865
G1 X132.966 Y28.969 E44.04848
G1 X134.159 Y29.083 E44.0884
G1 X135.274 Y29.516 E44.12824
G1 X136.246 Y30.251 E44.16883
G1 X139.722 Y34.249 E44.34531
G1 X139.944 Y34.625 E44.35985
G1 X140.039 Y35.012 E44.37312
G1 X140.018 Y35.404 E44.3862
G1 X139.883 Y35.779 E44.39948
G1 X139.627 Y36.123 E44.41376
G1 X136.662 Y38.838 E44.54768
G1 X136.368 Y39.061 E44.55997
G1 X136.086 Y39.173 E44.57008
G1 X135.779 Y39.203 E44.58035
