;Generated by Cura LulzBot Edition GCodeWriter Version: 2.6.69
;FLAVOR:RepRap
;TIME:9570
;Filament used: 8.74314m
;Layer height: 0.35
;Generated with Cura_SteamEngine 2.6.69
;This G-Code has been generated specifically for the LulzBot Mini with Aerostruder
G26 ; clear potential 'probe fail' condition
G21 ; set units to Millimetres
M107 ; disable fans
G90 ; absolute positioning
M82 ; set extruder to absolute mode
G92 E0 ; set extruder position to 0
M140 S115 ; start bed heating up
G28 ; home all axes
G0 X0 Y187 Z156 F200 ; move away from endstops
M109 R170 ; soften filament before retraction
G1 E-15 F75 ; retract filament
M109 R170 ; wait for extruder to reach wiping temp
G1 X45 Y173 F11520 ; move above wiper pad
G1 Z0 F1200 ; push nozzle into wiper
G1 X42 Y173 Z-.5 F4000 ; wiping
G1 X52 Y171 Z-.5 F4000 ; wiping
G1 X42 Y173 Z0 F4000 ; wiping
G1 X52 Y171 F4000 ; wiping
G1 X42 Y173 F4000 ; wiping
G1 X52 Y171 F4000 ; wiping
G1 X42 Y173 F4000 ; wiping
G1 X52 Y171 F4000 ; wiping
G1 X57 Y173 F4000 ; wiping
G1 X77 Y171 F4000 ; wiping
G1 X57 Y173 F4000 ; wiping
G1 X77 Y171 F4000 ; wiping
G1 X57 Y173 F4000 ; wiping
G1 X87 Y171 F4000 ; wiping
G1 X77 Y173 F4000 ; wiping
G1 X97 Y171 F4000 ; wiping
G1 X77 Y173 F4000 ; wiping
G1 X97 Y171 F4000 ; wiping
G1 X77 Y173 F4000 ; wiping
G1 X97 Y171 F4000 ; wiping
G1 X107 Y173 F4000 ; wiping
G1 X97 Y171 F4000 ; wiping
G1 X107 Y173 F4000 ; wiping
G1 X97 Y171 F4000 ; wiping
G1 X107 Y173 F4000 ; wiping
G1 X112 Y171 Z-0.5 F1000 ; wiping
G1 Z10 ; raise extruder
G28 X0 Y0 ; home X and Y
G0 X0 Y187 F200 ; move away from endstops
M109 R170 ; wait for extruder to reach probe temp
M204 S300 ; set probing acceleration
G29 ; start auto-leveling sequence
M204 S2000 ; restore standard acceleration
G28 X0 Y0 ; re-home to account for build variance of earlier mini builds
G0 X0 Y187 F200 ; move away from endstops
G0 Y152 F4000 ; move in front of wiper pad
G4 S1 ; pause
M400 ; wait for moves to finish
M117 Heating... ; progress indicator message on LCD
M109 R250 ; wait for extruder to reach printing temp
M190 S116 ; wait for bed to reach printing temp
G1 Z2 E0 F75 ; prime tiny bit of filament into the nozzle
M117 Mini Printing... ; progress indicator message on LCD


M221 S100
;LAYER_COUNT:140
;LAYER:0
M107
M204 S1000
M205 X10
G0 F2250 X42.092 Y72.348 Z0.42
;TYPE:SKIRT
G1 F900 X46.734 Y69.487 E0.2154
G1 X51.217 Y66.36 E0.43131
G1 X55.526 Y62.978 E0.64769
G1 X59.628 Y59.364 E0.86365
G1 X63.536 Y55.509 E1.08049
G1 X65.364 Y53.544 E1.18651
G1 X68.936 Y49.364 E1.4037
G1 X72.25 Y45.011 E1.61982
G1 X75.313 Y40.475 E1.83603
G1 X78.106 Y35.789 E2.05152
G1 X80.658 Y30.9 E2.26937
G1 X81.975 Y28.099 E2.39164
G1 X82.229 Y27.653 E2.41191
G1 X82.549 Y27.252 E2.43218
G1 X82.928 Y26.905 E2.45248
G1 X83.355 Y26.621 E2.47274
G1 X83.822 Y26.407 E2.49303
G1 X84.316 Y26.268 E2.5133
G1 X84.961 Y26.204 E2.5389
G1 X93.441 Y26.205 E2.87388
G1 X93.953 Y26.245 E2.89417
G1 X94.453 Y26.364 E2.91447
G1 X94.928 Y26.559 E2.93476
G1 X95.367 Y26.825 E2.95503
G1 X95.759 Y27.156 E2.9753
G1 X96.095 Y27.544 E2.99557
G1 X96.367 Y27.98 E3.01587
G1 X96.568 Y28.452 E3.03614
G1 X96.687 Y28.909 E3.05479
G1 X97.365 Y32.598 E3.20296
G1 X98.599 Y37.932 E3.41923
G1 X100.135 Y43.195 E3.6358
G1 X101.958 Y48.338 E3.85134
G1 X104.079 Y53.393 E4.06789
G1 X106.474 Y58.305 E4.28376
G1 X109.14 Y63.066 E4.49931
G1 X112.083 Y67.689 E4.71579
G1 X115.273 Y72.125 E4.93163
G1 X119.891 Y77.85 E5.22218
G1 X120.289 Y78.478 E5.25155
G1 X120.749 Y79.423 E5.29307
G1 X120.987 Y80.08 E5.32067
G1 X121.215 Y81.008 E5.35842
G1 X121.298 Y81.514 E5.37868
G1 X121.31 Y81.795 E5.38979
G1 X121.306 Y121.007 E6.93875
G1 X121.266 Y121.519 E6.95903
G1 X121.184 Y121.896 E6.97427
G1 X120.873 Y123.008 E7.01989
G1 X120.697 Y123.49 E7.04016
G1 X120.57 Y123.739 E7.0512
G1 X120.196 Y124.403 E7.0813
G1 X119.855 Y124.897 E7.10501
G1 X119.413 Y125.427 E7.13227
G1 X119.001 Y125.841 E7.15535
G1 X118.447 Y126.306 E7.18392
G1 X117.984 Y126.631 E7.20626
G1 X117.437 Y126.949 E7.23126
G1 X116.817 Y127.228 E7.25811
G1 X115.849 Y127.549 E7.2984
G1 X115.35 Y127.672 E7.3187
G1 X114.973 Y127.713 E7.33368
G1 X113.354 Y127.793 E7.39771
G1 X113.189 Y127.797 E7.40423
G1 X39.392 Y127.75 E10.31937
G1 X38.88 Y127.71 E10.33966
G1 X38.467 Y127.617 E10.35638
G1 X37.357 Y127.292 E10.40207
G1 X36.877 Y127.11 E10.42235
G1 X36.642 Y126.987 E10.43283
G1 X36.011 Y126.625 E10.46157
G1 X35.528 Y126.288 E10.48483
G1 X35.01 Y125.852 E10.51158
G1 X34.628 Y125.472 E10.53286
G1 X34.219 Y124.994 E10.55771
G1 X33.892 Y124.54 E10.57981
G1 X33.516 Y123.91 E10.60879
G1 X33.262 Y123.383 E10.6319
G1 X33.025 Y122.754 E10.65846
G1 X32.852 Y122.094 E10.68541
G1 X32.703 Y121.13 E10.72394
G1 X32.664 Y120.627 E10.74387
G1 X32.65 Y82.758 E12.23978
G1 X32.659 Y82.52 E12.24919
G1 X32.763 Y81.075 E12.30641
G1 X32.839 Y80.567 E12.3267
G1 X32.932 Y80.242 E12.34006
G1 X33.325 Y79.096 E12.38791
G1 X33.637 Y78.436 E12.41675
G1 X34.119 Y77.653 E12.45307
G1 X34.53 Y77.117 E12.47975
G1 X35.224 Y76.382 E12.51969
G1 X35.761 Y75.924 E12.54757
G1 X36.649 Y75.317 E12.59006
G1 X36.939 Y75.139 E12.6035
G1 X42.092 Y72.348 E12.83499
G1 F420 E11.83499
G0 F2250 X42.557 Y76.334
G0 X43.004 Y78.533
;TYPE:WALL-INNER
G1 F420 E12.83499
G1 F900 X42.876 Y78.478 E12.8405
G1 X42.987 Y78.456
G1 X43.429 Y78.366 E12.85783
G1 X43.538 Y78.344 E12.86222
G1 X61.961 Y74.595 E13.60488
G1 X78.237 Y45.626 E14.91747
G1 X94.277 Y45.626 E15.55108
G1 X101.738 Y73.969 E16.70883
G1 X110.338 Y73.969 E17.04855
G1 X113.46 Y77.626 E17.23849
G1 X113.585 Y77.773 E17.24612
G1 X113.88 Y78.118 E17.26405
G1 X113.899 Y78.14 E17.2652
G1 X113.866 Y78.131
G1 X113.265 Y78.048 E17.2735
G1 X113.071 Y78.048 E17.28013
G1 X112.653 Y78.048 E17.29664
G1 X112.052 Y78.132 E17.32062
G1 X111.465 Y78.295 E17.34468
G1 X110.91 Y78.537 E17.3686
G1 X110.391 Y78.853 E17.3926
G1 X109.92 Y79.236 E17.41658
G1 X109.502 Y79.683 E17.44076
G1 X109.152 Y80.181 E17.4648
G1 X108.873 Y80.72 E17.48878
G1 X108.668 Y81.293 E17.51282
G1 X108.544 Y81.889 E17.53686
G1 X108.501 Y82.499 E17.56102
G1 X108.545 Y83.109 E17.58518
G1 X108.671 Y83.705 E17.60924
G1 X108.876 Y84.276 E17.63321
G1 X109.155 Y84.815 E17.65718
G1 X109.503 Y85.309 E17.68105
G1 X109.92 Y85.754 E17.70514
G1 X110.393 Y86.139 E17.72923
G1 X110.913 Y86.453 E17.75323
G1 X111.467 Y86.694 E17.77709
G1 X112.057 Y86.861 E17.80132
G1 X112.664 Y86.942 E17.82551
G1 X113.272 Y86.941 E17.84952
G1 X113.874 Y86.857 E17.87353
G1 X114.452 Y86.695 E17.89725
G1 X115.01 Y86.452 E17.92129
G1 X115.533 Y86.135 E17.94545
G1 X115.961 Y85.786 E17.96726
G1 X116.005 Y85.75 E17.96951
G1 X116.419 Y85.307 E17.99346
G1 X116.55 Y85.121 E18.00245
G1 X116.55 Y85.307
G1 X116.55 Y85.75 E18.00447
G1 X116.55 Y85.807 E18.00663
G1 X116.55 Y116.183 E19.20655
G1 X116.55 Y116.235 E19.2086
G1 X116.55 Y116.678 E19.2261
G1 X116.55 Y116.868 E19.2336
G1 X116.415 Y116.678
G1 X116 Y116.235 E19.24742
G1 X115.96 Y116.202 E19.2494
G1 X115.529 Y115.849 E19.2714
G1 X115.004 Y115.533 E19.29561
G1 X114.449 Y115.294 E19.31948
G1 X113.866 Y115.131 E19.34339
G1 X113.265 Y115.048 E19.36736
G1 X112.653 Y115.048 E19.39153
G1 X112.052 Y115.132 E19.4155
G1 X111.465 Y115.295 E19.43957
G1 X110.91 Y115.537 E19.46349
G1 X110.391 Y115.853 E19.48749
G1 X109.92 Y116.236 E19.51147
G1 X109.502 Y116.683 E19.53564
G1 X109.152 Y117.181 E19.55969
G1 X108.873 Y117.72 E19.58366
G1 X108.668 Y118.293 E19.6077
G1 X108.544 Y118.889 E19.63175
G1 X108.501 Y119.499 E19.65591
G1 X108.545 Y120.109 E19.68007
G1 X108.671 Y120.705 E19.70413
G1 X108.876 Y121.276 E19.7281
G1 X109.155 Y121.815 E19.75207
G1 X109.503 Y122.309 E19.77594
G1 X109.639 Y122.454 E19.78379
G1 X109.92 Y122.754 E19.80003
G1 X110.219 Y122.997 E19.81525
G1 X109.921 Y122.997
G1 X109.51 Y122.997 E19.82706
G1 X44.41 Y122.999 E22.39865
G1 X44.006 Y122.999 E22.41461
G1 X43.699 Y123 E22.42673
G1 X44.005 Y122.75
G1 X44.281 Y122.455 E22.4384
G1 X44.419 Y122.307 E22.44639
G1 X44.771 Y121.808 E22.47052
G1 X45.051 Y121.266 E22.49461
G1 X45.254 Y120.694 E22.51859
G1 X45.372 Y120.126 E22.54151
G1 X45.406 Y119.79 E22.55485
G1 X45.414 Y119.389 E22.57069
G1 X45.375 Y118.879 E22.5909
G1 X45.251 Y118.29 E22.61467
G1 X45.049 Y117.719 E22.6386
G1 X44.768 Y117.176 E22.66275
G1 X44.415 Y116.678 E22.68686
G1 X44 Y116.235 E22.71084
G1 X43.529 Y115.849 E22.7349
G1 X43.004 Y115.533 E22.7591
G1 X42.449 Y115.294 E22.78297
G1 X41.866 Y115.131 E22.80688
G1 X41.265 Y115.048 E22.83085
G1 X40.653 Y115.048 E22.85503
G1 X40.052 Y115.132 E22.879
G1 X39.465 Y115.295 E22.90306
G1 X38.91 Y115.537 E22.92698
G1 X38.391 Y115.853 E22.95098
G1 X38.028 Y116.148 E22.96946
G1 X37.92 Y116.236 E22.97496
G1 X37.502 Y116.683 E22.99914
G1 X37.454 Y116.752 E23.00246
G1 X37.454 Y116.683
G1 X37.454 Y116.237 E23.00338
G1 X37.454 Y116.097 E23.00836
G1 X37.452 Y85.893 E24.20148
G1 X37.452 Y85.755 E24.20693
G1 X37.451 Y85.31 E24.22451
G1 X37.45 Y85.234 E24.22752
G1 X37.503 Y85.309
G1 X37.92 Y85.754 E24.23774
G1 X38.027 Y85.841 E24.24264
G1 X38.393 Y86.139 E24.26128
G1 X38.913 Y86.453 E24.28528
G1 X39.467 Y86.694 E24.30915
G1 X40.057 Y86.861 E24.33337
G1 X40.664 Y86.942 E24.35756
G1 X41.272 Y86.941 E24.38157
G1 X41.874 Y86.857 E24.40559
G1 X42.452 Y86.695 E24.4293
G1 X43.01 Y86.452 E24.45334
G1 X43.533 Y86.135 E24.4775
G1 X44.005 Y85.75 E24.50156
G1 X44.419 Y85.307 E24.52551
G1 X44.771 Y84.808 E24.54963
G1 X45.051 Y84.266 E24.57373
G1 X45.254 Y83.694 E24.59771
G1 X45.372 Y83.126 E24.62062
G1 X45.406 Y82.79 E24.63396
G1 X45.414 Y82.389 E24.64981
G1 X45.375 Y81.879 E24.67001
G1 X45.251 Y81.29 E24.69379
G1 X45.049 Y80.719 E24.71771
G1 X44.768 Y80.176 E24.74187
G1 X44.415 Y79.678 E24.76598
G1 X44 Y79.235 E24.78996
G1 X43.615 Y78.92 E24.80961
G1 X43.529 Y78.849 E24.81366
G1 X43.004 Y78.533 E24.82285
G0 F2250 X42.729 Y79.068
G1 F900 X42.249 Y78.861 E24.8435
G1 X41.744 Y78.72 E24.86421
G1 X41.7 Y78.713 E24.86597
G1 X41.224 Y78.648 E24.88494
G1 X40.695 Y78.648 E24.90584
G1 X40.174 Y78.721 E24.92662
G1 X39.841 Y78.813 E24.94027
G1 X39.666 Y78.862 E24.94745
G1 X39.578 Y78.9 E24.95123
G1 X39.266 Y79.036 E24.96468
G1 X39.187 Y79.071 E24.96809
G1 X39.039 Y79.16 E24.97491
G1 X38.893 Y79.249 E24.98167
G1 X38.738 Y79.344 E24.98885
G1 X38.644 Y79.421 E24.99365
G1 X38.407 Y79.614 E25.00572
G1 X38.33 Y79.676 E25.00963
G1 X38.085 Y79.938 E25.0238
G1 X37.969 Y80.062 E25.03051
G1 X37.904 Y80.154 E25.03496
G1 X37.714 Y80.425 E25.04803
G1 X37.666 Y80.493 E25.05132
G1 X37.659 Y80.508 E25.05197
G1 X37.506 Y80.803 E25.0651
G1 X37.424 Y80.96 E25.0721
G1 X37.381 Y81.081 E25.07717
G1 X37.269 Y81.394 E25.0903
G1 X37.247 Y81.456 E25.0929
G1 X37.206 Y81.657 E25.101
G1 X37.14 Y81.971 E25.11368
G1 X37.133 Y82.084 E25.11815
G1 X37.103 Y82.498 E25.13455
G1 X37.141 Y83.025 E25.15542
G1 X37.25 Y83.541 E25.17625
G1 X37.427 Y84.036 E25.19702
G1 X37.452 Y84.084 E25.19915
G1 X37.669 Y84.503 E25.21779
G1 X37.969 Y84.929 E25.23838
G1 X38.33 Y85.314 E25.25922
G1 X38.739 Y85.647 E25.28006
G1 X39.189 Y85.919 E25.30083
G1 X39.669 Y86.128 E25.32151
G1 X40.179 Y86.272 E25.34244
G1 X40.703 Y86.342 E25.36333
G1 X41.23 Y86.341 E25.38414
G1 X41.751 Y86.268 E25.40493
G1 X42.251 Y86.128 E25.42544
G1 X42.734 Y85.918 E25.44624
G1 X43.186 Y85.644 E25.46712
G1 X43.594 Y85.311 E25.48792
G1 X43.953 Y84.927 E25.50869
G1 X44.257 Y84.496 E25.52952
G1 X44.499 Y84.027 E25.55037
G1 X44.675 Y83.532 E25.57112
G1 X44.778 Y83.034 E25.59121
G1 X44.807 Y82.753 E25.60237
G1 X44.814 Y82.406 E25.61608
G1 X44.78 Y81.964 E25.63359
G1 X44.672 Y81.453 E25.65423
G1 X44.497 Y80.958 E25.67496
G1 X44.254 Y80.489 E25.69583
G1 X43.949 Y80.058 E25.71669
G1 X43.589 Y79.674 E25.73748
G1 X43.182 Y79.341 E25.75825
G1 X42.729 Y79.068 E25.77915
G0 F2250 X41.606 Y78.125
G1 F900 X61.572 Y74.062 E26.58401
G1 X77.886 Y45.026 E27.89964
G1 X94.739 Y45.026 E28.56537
G1 X102.2 Y73.369 E29.72312
G1 X110.615 Y73.369 E30.05553
G1 X115.122 Y78.65 E30.32979
G1 X115.163 Y78.698 E30.33228
G1 X115.488 Y79.078 E30.35203
G1 X115.825 Y79.473 E30.37254
G1 X116.166 Y79.873 E30.3933
G1 X116.341 Y80.077 E30.40392
G1 X116.506 Y80.306 E30.41507
G1 X116.522 Y80.328 E30.41615
G1 X116.69 Y80.605 E30.42894
G1 X116.792 Y80.809 E30.43795
G1 X116.831 Y80.886 E30.44136
G1 X116.945 Y81.173 E30.45356
G1 X117 Y81.35 E30.46088
G1 X117.041 Y81.482 E30.46634
G1 X117.074 Y81.615 E30.47176
G1 X117.125 Y81.901 E30.48323
G1 X117.134 Y81.948 E30.48512
G1 X117.15 Y82.079 E30.49034
G1 X117.15 Y82.406 E30.50325
G1 X117.15 Y82.753 E30.51696
G1 X117.15 Y83.034 E30.52806
G1 X117.15 Y83.532 E30.54773
G1 X117.15 Y83.894 E30.56203
G1 X117.15 Y118.098 E31.91316
G1 X117.15 Y118.453 E31.92719
G1 X117.15 Y118.964 E31.94737
G1 X117.15 Y119.406 E31.96483
G1 X117.15 Y119.753 E31.97854
G1 X117.15 Y120.034 E31.98964
G1 X117.15 Y120.486 E32.0075
G1 X117.147 Y120.554 E32.01018
G1 X117.136 Y120.778 E32.01904
G1 X117.103 Y121.034 E32.02924
G1 X117.076 Y121.157 E32.03421
G1 X117.069 Y121.191 E32.03559
G1 X117.042 Y121.305 E32.04021
G1 X116.962 Y121.56 E32.05077
G1 X116.86 Y121.807 E32.06133
G1 X116.736 Y122.046 E32.07196
G1 X116.583 Y122.286 E32.08321
G1 X116.43 Y122.486 E32.09315
G1 X116.241 Y122.692 E32.1042
G1 X116.041 Y122.875 E32.1149
G1 X115.836 Y123.033 E32.12513
G1 X115.591 Y123.189 E32.1366
G1 X115.36 Y123.309 E32.14688
G1 X115.109 Y123.413 E32.15762
G1 X114.972 Y123.456 E32.16329
G1 X114.91 Y123.475 E32.16585
G1 X114.851 Y123.494 E32.1683
G1 X114.583 Y123.554 E32.17915
G1 X114.307 Y123.59 E32.19014
G1 X114.282 Y123.591 E32.19113
G1 X114.202 Y123.597 E32.1943
G1 X113.751 Y123.597 E32.21212
G1 X113.23 Y123.597 E32.2327
G1 X112.703 Y123.597 E32.25351
G1 X112.179 Y123.597 E32.27421
G1 X111.669 Y123.597 E32.29436
G1 X111.355 Y123.597 E32.30676
G1 X42.565 Y123.597 E35.02412
G1 X42.251 Y123.597 E35.03652
G1 X41.751 Y123.597 E35.05627
G1 X41.231 Y123.597 E35.07681
G1 X40.704 Y123.598 E35.09763
G1 X40.18 Y123.599 E35.11833
G1 X39.966 Y123.6 E35.12678
G1 X39.672 Y123.587 E35.13841
G1 X39.612 Y123.58 E35.14079
G1 X39.416 Y123.554 E35.14861
G1 X39.15 Y123.494 E35.15938
G1 X39.022 Y123.454 E35.16467
G1 X38.891 Y123.413 E35.1701
G1 X38.745 Y123.353 E35.17633
G1 X38.64 Y123.309 E35.18083
G1 X38.409 Y123.189 E35.19111
G1 X38.164 Y123.033 E35.20259
G1 X37.959 Y122.875 E35.21281
G1 X37.759 Y122.692 E35.22352
G1 X37.579 Y122.495 E35.23406
G1 X37.407 Y122.272 E35.24518
G1 X37.27 Y122.055 E35.25532
G1 X37.141 Y121.809 E35.26629
G1 X37.102 Y121.716 E35.27028
G1 X37.037 Y121.557 E35.27706
G1 X36.956 Y121.301 E35.28767
G1 X36.922 Y121.149 E35.29382
G1 X36.893 Y121.018 E35.29912
G1 X36.854 Y120.632 E35.31445
G1 X36.854 Y120.541 E35.31804
G1 X36.854 Y120.025 E35.33843
G1 X36.854 Y119.498 E35.35924
G1 X36.854 Y118.971 E35.38006
G1 X36.854 Y118.456 E35.4004
G1 X36.854 Y117.961 E35.41996
G1 X36.854 Y117.9 E35.42237
G1 X36.854 Y84.092 E36.75786
G1 X36.854 Y84.037 E36.75998
G1 X36.853 Y83.542 E36.77389
G1 X36.852 Y83.026 E36.78223
G1 X36.851 Y82.499 E36.79162
G1 X36.85 Y82.065
G1 X36.858 Y81.95
G1 X36.86 Y81.932
G1 X36.906 Y81.595
G1 X36.95 Y81.392 E36.79398
G1 X36.973 Y81.289
G1 X37.071 Y80.971
G1 X37.125 Y80.838
G1 X37.204 Y80.647
G1 X37.354 Y80.352 E36.7941
G1 X37.374 Y80.318
G1 X37.43 Y80.226
G1 X37.616 Y79.952 E36.79466
G1 X37.701 Y79.846
G1 X37.824 Y79.694
G1 X38.065 Y79.443 E36.79871
G1 X38.094 Y79.417
G1 X38.181 Y79.338
G1 X38.419 Y79.146
G1 X38.545 Y79.061 E36.80107
G1 X38.71 Y78.949
G1 X38.858 Y78.862 E36.80128
G1 X39.037 Y78.773 E36.80186
G1 X39.131 Y78.725
G1 X39.445 Y78.597 E36.80231
G1 X39.571 Y78.558 E36.80406
G1 X39.753 Y78.501
G1 X40.114 Y78.428 E36.80924
G1 X40.628 Y78.323 E36.8203
G1 X41.136 Y78.22 E36.83394
G1 X41.606 Y78.125 E36.85033
G1 F420 E35.85033
G0 F2250 X41.315 Y80.24
G0 X41.29 Y84.752
G0 X41.289 Y84.832
G0 X41.118 Y117.132
G0 X41.118 Y117.212
G0 X41.119 Y117.212
G0 X41.224 Y115.648
G1 F420 E36.85033
G1 F900 X40.695 Y115.648 E36.87122
G1 X40.174 Y115.721 E36.892
G1 X39.666 Y115.862 E36.91283
G1 X39.187 Y116.071 E36.93347
G1 X38.738 Y116.344 E36.95423
G1 X38.33 Y116.676 E36.97501
G1 X37.969 Y117.062 E36.99589
G1 X37.666 Y117.493 E37.0167
G1 X37.452 Y117.906 E37.03507
G1 X37.424 Y117.96 E37.03742
G1 X37.247 Y118.456 E37.05498
G1 X37.14 Y118.971 E37.05948
G1 X37.103 Y119.498
