;Generated by Cura LulzBot Edition GCodeWriter Version: 2.6.66
;FLAVOR:RepRap
;TIME:8618
;Filament used: 8.4138m
;Layer height: 0.378
;Generated with Cura_SteamEngine 2.6.66
;This G-Code has been generated specifically for the LulzBot Mini with Aerostruder
G26 ; clear potential 'probe fail' condition
G21 ; set units to Millimetres
M107 ; disable fans
G90 ; absolute positioning
M82 ; set extruder to absolute mode
G92 E0 ; set extruder position to 0
M140 S115 ; start bed heating up
G28 ; home all axes
G0 X0 Y187 Z156 F200 ; move away from endstops
M109 R170 ; soften filament before retraction
G1 E-15 F75 ; retract filament
M109 R170 ; wait for extruder to reach wiping temp
G1 X45 Y173 F11520 ; move above wiper pad
G1 Z0 F1200 ; push nozzle into wiper
G1 X42 Y173 Z-.5 F4000 ; wiping
G1 X52 Y171 Z-.5 F4000 ; wiping
G1 X42 Y173 Z0 F4000 ; wiping
G1 X52 Y171 F4000 ; wiping
G1 X42 Y173 F4000 ; wiping
G1 X52 Y171 F4000 ; wiping
G1 X42 Y173 F4000 ; wiping
G1 X52 Y171 F4000 ; wiping
G1 X57 Y173 F4000 ; wiping
G1 X77 Y171 F4000 ; wiping
G1 X57 Y173 F4000 ; wiping
G1 X77 Y171 F4000 ; wiping
G1 X57 Y173 F4000 ; wiping
G1 X87 Y171 F4000 ; wiping
G1 X77 Y173 F4000 ; wiping
G1 X97 Y171 F4000 ; wiping
G1 X77 Y173 F4000 ; wiping
G1 X97 Y171 F4000 ; wiping
G1 X77 Y173 F4000 ; wiping
G1 X97 Y171 F4000 ; wiping
G1 X107 Y173 F4000 ; wiping
G1 X97 Y171 F4000 ; wiping
G1 X107 Y173 F4000 ; wiping
G1 X97 Y171 F4000 ; wiping
G1 X107 Y173 F4000 ; wiping
G1 X112 Y171 Z-0.5 F1000 ; wiping
G1 Z10 ; raise extruder
G28 X0 Y0 ; home X and Y
G0 X0 Y187 F200 ; move away from endstops
M109 R170 ; wait for extruder to reach probe temp
M204 S300 ; set probing acceleration
G29 ; start auto-leveling sequence
M204 S2000 ; restore standard acceleration
G28 X0 Y0 ; re-home to account for build variance of earlier mini builds
G0 X0 Y187 F200 ; move away from endstops
G0 Y152 F4000 ; move in front of wiper pad
G4 S1 ; pause
M400 ; wait for moves to finish
M117 Heating... ; progress indicator message on LCD
M109 R245 ; wait for extruder to reach printing temp
M190 S116 ; wait for bed to reach printing temp
G1 Z2 E0 F75 ; prime tiny bit of filament into the nozzle
M117 Mini Printing... ; progress indicator message on LCD


M221 S100
;LAYER_COUNT:130
;LAYER:0
M107
M204 S1000
M205 X10
G0 F2250 X60.825 Y49.356 Z0.42
;TYPE:SKIRT
G1 F900 X64.124 Y45.02 E0.21522
G1 X67.193 Y40.475 E0.43186
G1 X69.99 Y35.781 E0.6477
G1 X72.524 Y30.922 E0.86418
G1 X73.226 Y29.403 E0.93028
G1 X73.244 Y29.365 E0.93194
G1 X73.855 Y28.086 E0.98793
G1 X74.112 Y27.641 E1.00823
G1 X74.435 Y27.241 E1.02854
G1 X74.815 Y26.897 E1.04879
G1 X75.245 Y26.615 E1.0691
G1 X75.712 Y26.404 E1.08934
G1 X76.208 Y26.268 E1.10966
G1 X76.833 Y26.208 E1.13446
G1 X85.317 Y26.208 E1.4696
G1 X85.829 Y26.248 E1.48989
G1 X86.328 Y26.367 E1.51015
G1 X86.803 Y26.562 E1.53043
G1 X87.242 Y26.828 E1.55071
G1 X87.635 Y27.159 E1.57101
G1 X87.971 Y27.547 E1.59128
G1 X88.243 Y27.982 E1.61155
G1 X88.444 Y28.455 E1.63185
G1 X88.554 Y28.869 E1.64877
G1 X89.821 Y35.283 E1.90703
G1 X91.21 Y40.592 E2.12381
G1 X92.886 Y45.784 E2.33933
G1 X94.855 Y50.879 E2.5551
G1 X97.12 Y55.878 E2.77189
G1 X99.645 Y60.705 E2.98708
G1 X102.46 Y65.414 E3.2038
G1 X105.525 Y69.94 E3.41972
G1 X108.85 Y74.3 E3.63632
G1 X111.512 Y77.493 E3.80054
G1 X111.783 Y77.868 E3.81881
G1 X112.232 Y78.593 E3.8525
G1 X112.467 Y79.05 E3.8728
G1 X112.568 Y79.322 E3.88426
G1 X113.024 Y80.742 E3.94317
G1 X113.142 Y81.242 E3.96347
G1 X113.182 Y81.751 E3.98364
G1 X113.181 Y121.034 E5.5354
G1 X113.141 Y121.546 E5.55569
G1 X113.041 Y121.984 E5.57343
G1 X112.681 Y123.181 E5.62281
G1 X112.496 Y123.66 E5.64309
G1 X112.27 Y124.057 E5.66114
G1 X111.668 Y124.963 E5.70411
G1 X111.351 Y125.368 E5.72442
G1 X111.065 Y125.644 E5.74012
G1 X110.197 Y126.387 E5.78526
G1 X109.782 Y126.689 E5.80553
G1 X109.544 Y126.823 E5.81632
G1 X108.925 Y127.137 E5.84374
G1 X108.352 Y127.363 E5.86807
G1 X107.508 Y127.608 E5.90279
G1 X107.005 Y127.713 E5.92309
G1 X106.59 Y127.739 E5.93951
G1 X31.661 Y127.79 E8.89937
G1 X31.032 Y127.73 E8.92433
G1 X29.869 Y127.505 E8.97112
G1 X29.374 Y127.368 E8.99141
G1 X29.105 Y127.257 E9.00291
G1 X28.434 Y126.945 E9.03214
G1 X27.909 Y126.64 E9.05612
G1 X27.309 Y126.212 E9.08524
G1 X26.915 Y125.882 E9.10554
G1 X26.729 Y125.684 E9.11627
G1 X25.953 Y124.787 E9.16312
G1 X25.649 Y124.374 E9.18338
G1 X25.521 Y124.149 E9.19361
G1 X25.228 Y123.585 E9.21871
G1 X24.966 Y122.908 E9.24739
G1 X24.672 Y121.797 E9.29278
G1 X24.579 Y121.292 E9.31307
G1 X24.562 Y120.953 E9.32648
G1 X24.565 Y81.717 E10.87638
G1 X24.605 Y81.205 E10.89667
G1 X24.677 Y80.863 E10.91048
G1 X25.032 Y79.538 E10.96466
G1 X25.281 Y78.891 E10.99205
G1 X25.571 Y78.323 E11.01724
G1 X25.887 Y77.821 E11.04067
G1 X26.549 Y76.954 E11.08376
G1 X26.892 Y76.572 E11.10404
G1 X27.128 Y76.366 E11.11642
G1 X28.16 Y75.552 E11.16834
G1 X28.637 Y75.239 E11.19088
G1 X33.956 Y72.369 E11.42962
G1 X38.627 Y69.488 E11.64641
G1 X43.114 Y66.356 E11.86257
G1 X47.4 Y62.991 E12.07782
G1 X51.512 Y59.366 E12.29436
G1 X55.44 Y55.489 E12.51237
G1 X57.237 Y53.556 E12.61663
G1 X60.825 Y49.356 E12.83484
G1 F420 E11.83484
G0 F2250 X68.213 Y44.59
G0 X70.1 Y45.65
;TYPE:WALL-INNER
G1 F420 E12.83484
G1 F900 X86.159 Y45.65 E13.4692
G1 X93.614 Y73.971 E14.62605
G1 X102.216 Y73.971 E14.96585
G1 X105.76 Y78.124 E15.18152
G1 X105.138 Y78.036 E15.20633
G1 X104.52 Y78.037 E15.23075
G1 X103.912 Y78.124 E15.25501
G1 X103.326 Y78.291 E15.27908
G1 X102.791 Y78.521 E15.30208
G1 X102.263 Y78.839 E15.32643
G1 X101.789 Y79.228 E15.35065
G1 X101.37 Y79.674 E15.37483
G1 X101.015 Y80.175 E15.39908
G1 X100.732 Y80.721 E15.42337
G1 X100.527 Y81.3 E15.44764
G1 X100.405 Y81.9 E15.47182
G1 X100.363 Y82.515 E15.49617
G1 X100.411 Y83.13 E15.52054
G1 X100.539 Y83.726 E15.54462
G1 X100.747 Y84.305 E15.56892
G1 X101.033 Y84.845 E15.59306
G1 X101.37 Y85.322 E15.61613
G1 X101.789 Y85.768 E15.64031
G1 X102.264 Y86.156 E15.66453
G1 X102.79 Y86.473 E15.68879
G1 X103.351 Y86.716 E15.71294
G1 X103.948 Y86.881 E15.73741
G1 X104.554 Y86.959 E15.76155
G1 X105.17 Y86.957 E15.78588
G1 X105.774 Y86.868 E15.81
G1 X106.335 Y86.709 E15.83303
G1 X106.897 Y86.466 E15.85722
G1 X107.422 Y86.144 E15.88155
G1 X107.898 Y85.755 E15.90583
G1 X108.315 Y85.306 E15.93004
G1 X108.425 Y85.149 E15.93761
G1 X108.423 Y116.844 E17.18963
G1 X108.291 Y116.659 E17.19861
G1 X107.87 Y116.216 E17.22275
G1 X107.396 Y115.832 E17.24684
G1 X106.87 Y115.515 E17.2711
G1 X106.33 Y115.283 E17.29432
G1 X105.742 Y115.119 E17.31844
G1 X105.138 Y115.036 E17.34252
G1 X104.52 Y115.037 E17.36693
G1 X103.912 Y115.124 E17.39119
G1 X103.326 Y115.291 E17.41526
G1 X102.791 Y115.521 E17.43827
G1 X102.263 Y115.839 E17.46261
G1 X101.789 Y116.228 E17.48684
G1 X101.37 Y116.674 E17.51101
G1 X101.015 Y117.175 E17.53527
G1 X100.732 Y117.721 E17.55956
G1 X100.527 Y118.3 E17.58382
G1 X100.405 Y118.9 E17.60801
G1 X100.363 Y119.515 E17.63236
G1 X100.411 Y120.13 E17.65673
G1 X100.539 Y120.726 E17.68081
G1 X100.747 Y121.305 E17.70511
G1 X101.033 Y121.845 E17.72925
G1 X101.37 Y122.322 E17.75232
G1 X101.789 Y122.768 E17.77649
G1 X102.075 Y123.002 E17.79109
G1 X35.598 Y123 E20.41707
G1 X35.898 Y122.755 E20.43237
G1 X36.315 Y122.306 E20.45658
G1 X36.666 Y121.804 E20.48078
G1 X36.946 Y121.259 E20.50498
G1 X37.149 Y120.681 E20.52918
G1 X37.259 Y120.134 E20.55122
G1 X37.296 Y119.798 E20.56457
G1 X37.304 Y119.395 E20.5805
G1 X37.264 Y118.878 E20.60098
G1 X37.14 Y118.285 E20.62491
G1 X36.933 Y117.706 E20.6492
G1 X36.649 Y117.161 E20.67348
G1 X36.291 Y116.659 E20.69783
G1 X35.87 Y116.216 E20.72197
G1 X35.396 Y115.832 E20.74607
G1 X34.87 Y115.515 E20.77033
G1 X34.33 Y115.283 E20.79355
G1 X33.742 Y115.119 E20.81766
G1 X33.138 Y115.036 E20.84174
G1 X32.52 Y115.037 E20.86616
G1 X31.912 Y115.124 E20.89042
G1 X31.326 Y115.291 E20.91449
G1 X30.791 Y115.521 E20.93749
G1 X30.263 Y115.839 E20.96184
G1 X29.789 Y116.228 E20.98606
G1 X29.37 Y116.674 E21.01024
G1 X29.326 Y116.736 E21.01324
G1 X29.326 Y85.26 E22.25661
G1 X29.37 Y85.322 E22.25961
G1 X29.789 Y85.768 E22.28379
G1 X30.264 Y86.156 E22.30801
G1 X30.79 Y86.473 E22.33227
G1 X31.351 Y86.716 E22.35642
G1 X31.948 Y86.881 E22.38089
G1 X32.554 Y86.959 E22.40503
G1 X33.17 Y86.957 E22.42936
G1 X33.774 Y86.868 E22.45348
G1 X34.335 Y86.709 E22.47651
G1 X34.897 Y86.466 E22.5007
G1 X35.422 Y86.144 E22.52503
G1 X35.898 Y85.755 E22.54931
G1 X36.315 Y85.306 E22.57351
G1 X36.666 Y84.804 E22.59771
G1 X36.946 Y84.259 E22.62192
G1 X37.149 Y83.681 E22.64611
G1 X37.259 Y83.134 E22.66816
G1 X37.296 Y82.798 E22.68151
G1 X37.304 Y82.395 E22.69743
G1 X37.264 Y81.878 E22.71791
G1 X37.14 Y81.285 E22.74185
G1 X36.933 Y80.706 E22.76614
G1 X36.649 Y80.161 E22.79041
G1 X36.291 Y79.659 E22.81477
G1 X35.87 Y79.216 E22.83891
G1 X35.396 Y78.832 E22.86301
G1 X34.87 Y78.515 E22.88727
G1 X34.779 Y78.476 E22.89118
G1 X53.837 Y74.598 E23.65944
G1 X70.1 Y45.65 E24.97105
G0 F2250 X69.749 Y45.05
G1 F900 X86.621 Y45.05 E25.63753
G1 X94.076 Y73.371 E26.79438
G1 X102.492 Y73.371 E27.12683
G1 X108.207 Y80.068 E27.47461
G1 X108.415 Y80.354 E27.48858
G1 X108.471 Y80.443 E27.49273
G1 X108.639 Y80.748 E27.50649
G1 X108.702 Y80.882 E27.51233
G1 X108.825 Y81.186 E27.52529
G1 X108.918 Y81.487 E27.53773
G1 X108.988 Y81.806 E27.55063
G1 X109.025 Y82.074 E27.56132
G1 X109.023 Y120.625 E29.08417
G1 X108.999 Y120.904 E29.09523
G1 X108.954 Y121.167 E29.10577
G1 X108.885 Y121.424 E29.11628
G1 X108.788 Y121.692 E29.12754
G1 X108.683 Y121.92 E29.13746
G1 X108.541 Y122.166 E29.14868
G1 X108.396 Y122.375 E29.15873
G1 X108.21 Y122.598 E29.1702
G1 X108.032 Y122.776 E29.18014
G1 X107.816 Y122.96 E29.19135
G1 X107.593 Y123.115 E29.20208
G1 X107.372 Y123.244 E29.21219
G1 X107.103 Y123.37 E29.22392
G1 X107 Y123.41 E29.22828
G1 X106.734 Y123.495 E29.23932
G1 X106.473 Y123.552 E29.24987
G1 X106.347 Y123.573 E29.25491
G1 X106.06 Y123.597 E29.26629
G1 X105.909 Y123.602 E29.27226
G1 X31.701 Y123.6 E32.20364
G1 X31.427 Y123.577 E32.2145
G1 X31.165 Y123.532 E32.225
G1 X30.895 Y123.459 E32.23605
G1 X30.653 Y123.373 E32.24619
G1 X30.398 Y123.254 E32.25731
G1 X30.163 Y123.118 E32.26803
G1 X29.944 Y122.967 E32.27854
G1 X29.651 Y122.713 E32.29386
G1 X29.456 Y122.499 E32.3053
G1 X29.366 Y122.389 E32.31091
G1 X29.22 Y122.18 E32.32098
G1 X29.082 Y121.942 E32.33185
G1 X28.968 Y121.698 E32.34249
G1 X28.867 Y121.422 E32.3541
G1 X28.835 Y121.313 E32.35859
G1 X28.756 Y120.93 E32.37403
G1 X28.732 Y120.638 E32.38561
G1 X28.726 Y120.207 E32.40263
G1 X28.726 Y82.094 E33.90818
G1 X28.756 Y81.757 E33.92154
G1 X28.813 Y81.446 E33.93403
G1 X28.901 Y81.112 E33.94768
G1 X29.012 Y80.805 E33.96057
G1 X29.144 Y80.518 E33.97305
G1 X29.308 Y80.223 E33.98639
G1 X29.499 Y79.944 E33.99974
G1 X29.603 Y79.811 E34.00641
G1 X29.799 Y79.589 E34.01811
G1 X30.049 Y79.35 E34.03177
G1 X30.327 Y79.126 E34.04587
G1 X30.574 Y78.96 E34.05763
G1 X30.877 Y78.789 E34.07137
G1 X31.019 Y78.721 E34.07759
G1 X31.333 Y78.594 E34.09097
G1 X31.63 Y78.504 E34.10323
G1 X53.448 Y74.065 E34.98275
G1 X69.749 Y45.05 E36.2974
G1 F420 E35.2974
G0 F2250 X69.749 Y43.485
G0 X69.757 Y43.494
G0 X69.81 Y43.554
G0 X103.218 Y80.752
G0 X103.272 Y80.812
G0 X103.272 Y80.811
G0 X102.199 Y79.667
G1 F420 E36.2974
G1 F900 X101.836 Y80.054 E36.31836
G1 X101.529 Y80.488 E36.33936
G1 X101.284 Y80.96 E36.36037
G1 X101.107 Y81.461 E36.38136
G1 X101.001 Y81.981 E36.40232
G1 X100.965 Y82.512 E36.42334
G1 X101.006 Y83.044 E36.44442
G1 X101.117 Y83.561 E36.46531
G1 X101.297 Y84.062 E36.48634
G1 X101.545 Y84.53 E36.50726
G1 X101.836 Y84.942 E36.52719
G1 X102.199 Y85.328 E36.54812
G1 X102.61 Y85.664 E36.56909
G1 X103.065 Y85.938 E36.59007
G1 X103.551 Y86.149 E36.611
G1 X104.067 Y86.291 E36.63214
G1 X104.592 Y86.359 E36.65305
G1 X105.125 Y86.357 E36.67411
G1 X105.648 Y86.28 E36.69499
G1 X106.133 Y86.143 E36.7149
G1 X106.62 Y85.932 E36.73586
G1 X107.074 Y85.654 E36.75689
G1 X107.486 Y85.317 E36.77792
G1 X107.847 Y84.928 E36.79888
G1 X108.151 Y84.494 E36.81981
G1 X108.393 Y84.022 E36.84076
G1 X108.569 Y83.521 E36.86174
G1 X108.666 Y83.042 E36.88105
G1 X108.697 Y82.759 E36.89229
G1 X108.704 Y82.412 E36.906
G1 X108.669 Y81.963 E36.92379
G1 X108.561 Y81.448 E36.94458
G1 X108.382 Y80.947 E36.96559
G1 X108.136 Y80.475 E36.98662
G1 X107.827 Y80.042 E37.00763
G1 X107.462 Y79.657 E37.02859
G1 X107.051 Y79.324 E37.04949
G1 X106.596 Y79.05 E37.07047
G1 X106.13 Y78.85 E37.0905
G1 X105.62 Y78.708 E37.11141
G1 X105.097 Y78.636 E37.13226
G1 X104.563 Y78.637 E37.15336
G1 X104.037 Y78.712 E37.17435
G1 X103.528 Y78.857 E37.19525
G1 X103.066 Y79.056 E37.21512
G1 X102.61 Y79.331 E37.23616
G1 X102.199 Y79.667 E37.25713
G1 F420 E36.25713
G0 F2250 X103.272 Y80.811
G0 X103.406 Y84.305
G0 X103.409 Y84.385
G0 X104.671 Y117.122
G0 X104.675 Y117.202
G0 X104.675 Y117.201
G0 X104.563 Y115.637
G1 F420 E37.25713
G1 F900 X104.037 Y115.712 E37.27812
G1 X103.528 Y115.857 E37.29902
G1 X103.066 Y116.056 E37.3189
G1 X102.61 Y116.331 E37.33993
G1 X102.199 Y116.667 E37.3609
G1 X101.836 Y117.054 E37.38186
G1 X101.529 Y117.488 E37.40286
G1 X101.284 Y117.96 E37.42387
G1 X101.107 Y118.461 E37.44486
G1 X101.001 Y118.981 E37.46582
G1 X100.965 Y119.512 E37.48684
G1 X101.006 Y120.044 E37.50792
G1 X101.117 Y120.561 E37.52881
G1 X101.297 Y121.062 E37.54984
G1 X101.545 Y121.53 E37.57076
G1 X101.836 Y121.942 E37.59069
G1 X102.199 Y122.328 E37.61162
G1 X102.61 Y122.664 E37.63259
G1 X103.065 Y122.938 E37.65357
G1 X103.551 Y123.149 E37.6745
G1 X104.067 Y123.291 E37.69564
G1 X104.592 Y123.359 E37.71655
G1 X105.125 Y123.357 E37.73761
G1 X105.648 Y123.28 E37.75849
G1 X106.133 Y123.143 E37.7784
G1 X106.62 Y122.932 E37.79936
G1 X107.074 Y122.654 E37.82039
G1 X107.486 Y122.317 E37.84142
G1 X107.847 Y121.928 E37.86238
G1 X108.151 Y121.494 E37.88331
G1 X108.393 Y121.022 E37.90426
G1 X108.569 Y120.521 E37.92524
G1 X108.666 Y120.042 E37.94455
G1 X108.697 Y119.759 E37.95579
G1 X108.704 Y119.412 E37.9695
G1 X108.669 Y118.963 E37.98729
G1 X108.561 Y118.448 E38.00808
G1 X108.382 Y117.947 E38.0291
G1 X108.136 Y117.475 E38.05012
G1 X107.827 Y117.042 E38.07113
G1 X107.462 Y116.657 E38.09209
G1 X107.051 Y116.324 E38.11299
G1 X106.596 Y116.05 E38.13397
G1 X106.13 Y115.85 E38.154
G1 X105.62 Y115.708 E38.17491
G1 X105.097 Y115.636 E38.19577
G1 X104.563 Y115.637 E38.21686
G1 F420 E37.21686
G0 F2250 X104.359 Y117.246
G0 X104.237 Y117.249
G0 X104.157 Y117.251
G0 X35.217 Y119.453
G0 X35.137 Y119.455
G0 X35.139 Y119.456
G0 X36.704 Y119.412
G1 F420 E38.21686
G1 F900 X36.669 Y118.963 E38.23465
G1 X36.561 Y118.448 E38.25544
G1 X36.382 Y117.947 E38.27645
G1 X36.136 Y117.475 E38.29748
G1 X35.827 Y117.042 E38.31849
G1 X35.462 Y116.657 E38.33945
G1 X35.051 Y116.324 E38.36034
G1 X34.596 Y116.05 E38.38132
G1 X34.13 Y115.85 E38.40136
G1 X33.62 Y115.708 E38.42227
G1 X33.097 Y115.636 E38.44312
G1 X32.563 Y115.637 E38.46422
G1 X32.037 Y115.712 E38.4852
G1 X31.528 Y115.857 E38.50611
G1 X31.066 Y116.056 E38.52598
G1 X30.61 Y116.331 E38.54702
G1 X30.199 Y116.667 E38.56799
G1 X29.836 Y117.054 E38.58895
G1 X29.529 Y117.488 E38.60995
G1 X29.284 Y117.96 E38.63095
G1 X29.107 Y118.461 E38.65194
G1 X29.001 Y118.981 E38.67291
G1 X28.965 Y119.512 E38.69393
G1 X29.006 Y120.044 E38.71501
G1 X29.117 Y120.561 E38.7359
G1 X29.297 Y121.062 E38.75693
G1 X29.545 Y121.53 E38.77785
G1 X29.836 Y121.942 E38.79777
G1 X30.199 Y122.328 E38.8187
G1 X30.61 Y122.664 E38.83967
G1 X31.065 Y122.938 E38.86066
G1 X31.551 Y123.149 E38.88158
G1 X32.067 Y123.291 E38.90273
G1 X32.592 Y123.359 E38.92364
G1 X33.125 Y123.357 E38.94469
G1 X33.648 Y123.28 E38.96557
G1 X34.133 Y123.143 E38.98548
G1 X34.62 Y122.932 E39.00645
G1 X35.074 Y122.654 E39.02748
G1 X35.486 Y122.317 E39.0485
G1 X35.847 Y121.928 E39.06947
G1 X36.151 Y121.494 E39.0904
G1 X36.393 Y121.022 E39.11135
G1 X36.569 Y120.521 E39.13233
G1 X36.666 Y120.042 E39.15163
G1 X36.697 Y119.759 E39.16288
G1 X36.704 Y119.412 E39.17659
G1 F420 E38.17659
G0 F2250 X35.117 Y119.186
G0 X35.101 Y118.953
G0 X35.097 Y118.873
G0 X33.012 Y84.87
G0 X33.008 Y84.79
G0 X33.009 Y84.793
G0 X33.125 Y86.357
G1 F420 E39.17659
G1 F900 X33.648 Y86.28 E39.19747
G1 X34.133 Y86.143 E39.21738
G1 X34.62 Y85.932 E39.23835
G1 X35.074 Y85.654 E39.25937
